!!!COM: 米津玄師
!!!OTL: LOSER
**kern	**kern	**dynam	**kern	**text	**dynam	**kern	**text	**dynam	**kern	**text	**dynam	**kern	**text	**dynam	**kern	**text	**dynam
*part7	*part6	*part6	*part5	*part5	*part5	*part4	*part4	*part4	*part3	*part3	*part3	*part2	*part2	*part2	*part1	*part1	*part1
*staff7	*staff6	*	*staff5	*staff5	*	*staff4	*staff4	*	*staff3	*staff3	*	*staff2	*staff2	*	*staff1	*staff1	*
*I"ドラムセット	*I"Bass	*	*I"3rd	*	*	*I"2nd	*	*	*I"1st	*	*	*I"lead	*	*	*I"Lead Vocal	*	*
*I'D. Set	*	*	*	*	*	*	*	*	*	*	*	*	*	*	*I'Pno.	*	*
*clefX	*clefF4	*	*clefGv2	*	*	*clefGv2	*	*	*clefGv2	*	*	*clefGv2	*	*	*clefG2	*	*
*	*	*	*ITrd4c7	*	*	*ITrd1c2	*	*	*	*	*	*	*	*	*	*	*
*k[]	*k[f#c#]	*	*k[f#]	*	*	*k[]	*	*	*k[f#c#]	*	*	*k[f#c#]	*	*	*k[f#c#]	*	*
*M4/4	*M4/4	*	*M4/4	*	*	*M4/4	*	*	*M4/4	*	*	*M4/4	*	*	*M4/4	*	*
*MM124	*MM124	*	*MM124	*	*	*MM124	*	*	*MM124	*	*	*MM124	*	*	*MM124	*	*
=1	=1	=1	=1	=1	=1	=1	=1	=1	=1	=1	=1	=1	=1	=1	=1	=1	=1
*^	*	*	*	*	*	*	*	*	*	*	*	*	*	*	*	*	*
8Raa/L	4Rf\	4FF#	f	8F#L	da	.	1r	.	.	1r	.	.	1r	.	.	1r	.	.
8Rgg/J	.	.	.	8c#X	da	.	.	.	.	.	.	.	.	.	.	.	.	.
8Rcc/L	4r	4r	.	8F#	da	.	.	.	.	.	.	.	.	.	.	.	.	.
16Rgg/L	.	.	.	8c#J	da	.	.	.	.	.	.	.	.	.	.	.	.	.
16Rcc/JJ	.	.	.	.	.	.	.	.	.	.	.	.	.	.	.	.	.	.
16r	8r	8r	.	16BLL	da	.	.	.	.	.	.	.	.	.	.	.	.	.
16Rcc/KL	.	.	.	16AJ	la	.	.	.	.	.	.	.	.	.	.	.	.	.
8Rgg/J	8Rf\	8FF#	.	8F#J	la	.	.	.	.	.	.	.	.	.	.	.	.	.
8Rcc/L	16r	16r	.	8AL	da	.	.	.	.	.	.	.	.	.	.	.	.	.
.	8.Rf\	8.FF#	.	.	.	.	.	.	.	.	.	.	.	.	.	.	.	.
8Rgg/J	.	.	.	8BJ	da	.	.	.	.	.	.	.	.	.	.	.	.	.
=2	=2	=2	=2	=2	=2	=2	=2	=2	=2	=2	=2	=2	=2	=2	=2	=2	=2	=2
16r	4Rf\	4AA	.	8F#L	da	.	1r	.	.	1r	.	.	1r	.	.	1r	.	.
16Rcc/KL	.	.	.	.	.	.	.	.	.	.	.	.	.	.	.	.	.	.
8Rgg/J	.	.	.	8c#X	da	.	.	.	.	.	.	.	.	.	.	.	.	.
8Rcc/L	4r	4r	.	8F#	da	.	.	.	.	.	.	.	.	.	.	.	.	.
16Rgg/L	.	.	.	8c#J	da	.	.	.	.	.	.	.	.	.	.	.	.	.
16Rcc/JJ	.	.	.	.	.	.	.	.	.	.	.	.	.	.	.	.	.	.
16r	8r	8r	.	16BLL	da	.	.	.	.	.	.	.	.	.	.	.	.	.
16Rcc/KL	.	.	.	16AJ	la	.	.	.	.	.	.	.	.	.	.	.	.	.
8Rgg/J	8Rf\	8AA	.	8F#J	la	.	.	.	.	.	.	.	.	.	.	.	.	.
8Rcc/L	16r	16r	.	8AL	da	.	.	.	.	.	.	.	.	.	.	.	.	.
.	8.Rf\	8.AA	.	.	.	.	.	.	.	.	.	.	.	.	.	.	.	.
8Rgg/J	.	.	.	8BJ	da	.	.	.	.	.	.	.	.	.	.	.	.	.
=3	=3	=3	=3	=3	=3	=3	=3	=3	=3	=3	=3	=3	=3	=3	=3	=3	=3	=3
16r	4Rf\	4BB	.	8F#L	da	.	1r	.	.	1r	.	.	1r	.	.	1r	.	.
16Rcc/KL	.	.	.	.	.	.	.	.	.	.	.	.	.	.	.	.	.	.
8Rgg/J	.	.	.	8c#X	da	.	.	.	.	.	.	.	.	.	.	.	.	.
8Rcc/L	4r	4r	.	8F#	da	.	.	.	.	.	.	.	.	.	.	.	.	.
16Rgg/L	.	.	.	8c#J	da	.	.	.	.	.	.	.	.	.	.	.	.	.
16Rcc/JJ	.	.	.	.	.	.	.	.	.	.	.	.	.	.	.	.	.	.
16r	8r	8r	.	16BLL	da	.	.	.	.	.	.	.	.	.	.	.	.	.
16Rcc/KL	.	.	.	16AJ	la	.	.	.	.	.	.	.	.	.	.	.	.	.
8Rgg/J	8Rf\	8BB	.	8F#J	la	.	.	.	.	.	.	.	.	.	.	.	.	.
8Rcc/L	16r	16r	.	8AL	da	.	.	.	.	.	.	.	.	.	.	.	.	.
.	8.Rf\	8.BB	.	.	.	.	.	.	.	.	.	.	.	.	.	.	.	.
8Rgg/J	.	.	.	8BJ	da	.	.	.	.	.	.	.	.	.	.	.	.	.
=4	=4	=4	=4	=4	=4	=4	=4	=4	=4	=4	=4	=4	=4	=4	=4	=4	=4	=4
16r	4Rf\	4C#	.	8c#XL	da	.	1r	.	.	1r	.	.	1r	.	.	1r	.	.
16Rcc/KL	.	.	.	.	.	.	.	.	.	.	.	.	.	.	.	.	.	.
8Rgg/J	.	.	.	8f	da	.	.	.	.	.	.	.	.	.	.	.	.	.
8Rcc/L	4r	4r	.	8c#	da	.	.	.	.	.	.	.	.	.	.	.	.	.
16Rgg/L	.	.	.	8fJ	da	.	.	.	.	.	.	.	.	.	.	.	.	.
16Rcc/JJ	.	.	.	.	.	.	.	.	.	.	.	.	.	.	.	.	.	.
16r	8r	8r	.	8c#L	da	.	.	.	.	.	.	.	.	.	.	.	.	.
16Rcc/KL	.	.	.	.	.	.	.	.	.	.	.	.	.	.	.	.	.	.
8Rgg/J	8Rf\	8C#	.	8f	da	.	.	.	.	.	.	.	.	.	.	.	.	.
8Rcc/L	16r	16r	.	8c#	da	.	.	.	.	.	.	.	.	.	.	.	.	.
.	8.Rf\	8.C#	.	.	.	.	.	.	.	.	.	.	.	.	.	.	.	.
8Rgg/J	.	.	.	8fJ	da	.	.	.	.	.	.	.	.	.	.	.	.	.
=5	=5	=5	=5	=5	=5	=5	=5	=5	=5	=5	=5	=5	=5	=5	=5	=5	=5	=5
8Raa/L	4Rf\	4FF#	.	8F#L	da	.	8D-X'L	.	.	1r	.	.	1r	.	.	1r	.	.
8Rgg/J	.	.	.	8c#X	da	.	8G-X'	.	.	.	.	.	.	.	.	.	.	.
8Rcc/L	4r	4r	.	8F#	da	.	8D-'	.	.	.	.	.	.	.	.	.	.	.
16Rgg/L	.	.	.	8c#J	da	.	8G-'J	.	.	.	.	.	.	.	.	.	.	.
16Rcc/JJ	.	.	.	.	.	.	.	.	.	.	.	.	.	.	.	.	.	.
16r	8r	8r	.	16BLL	da	.	16G-LL	.	.	.	.	.	.	.	.	.	.	.
16Rcc/KL	.	.	.	16AJ	la	.	16EJ	.	.	.	.	.	.	.	.	.	.	.
8Rgg/J	8Rf\	8FF#	.	8F#J	la	.	8D-J	.	.	.	.	.	.	.	.	.	.	.
8Rcc/L	16r	16r	.	8AL	da	.	8EL	.	.	.	.	.	.	.	.	.	.	.
.	8.Rf\	8.FF#	.	.	.	.	.	.	.	.	.	.	.	.	.	.	.	.
8Rgg/J	.	.	.	8BJ	da	.	8F#XJ	.	.	.	.	.	.	.	.	.	.	.
=6	=6	=6	=6	=6	=6	=6	=6	=6	=6	=6	=6	=6	=6	=6	=6	=6	=6	=6
16r	4Rf\	4AA	.	8F#L	da	.	8D-X'L	.	.	1r	.	.	1r	.	.	1r	.	.
16Rcc/KL	.	.	.	.	.	.	.	.	.	.	.	.	.	.	.	.	.	.
8Rgg/J	.	.	.	8c#X	da	.	8G-X'	.	.	.	.	.	.	.	.	.	.	.
8Rcc/L	4r	4r	.	8F#	da	.	8D-'	.	.	.	.	.	.	.	.	.	.	.
16Rgg/L	.	.	.	8c#J	da	.	8G-'J	.	.	.	.	.	.	.	.	.	.	.
16Rcc/JJ	.	.	.	.	.	.	.	.	.	.	.	.	.	.	.	.	.	.
16r	8r	8r	.	16BLL	da	.	16G-LL	.	.	.	.	.	.	.	.	.	.	.
16Rcc/KL	.	.	.	16AJ	la	.	16EJ	.	.	.	.	.	.	.	.	.	.	.
8Rgg/J	8Rf\	8AA	.	8F#J	la	.	8D-J	.	.	.	.	.	.	.	.	.	.	.
8Rcc/L	16r	16r	.	8AL	da	.	8EL	.	.	.	.	.	.	.	.	.	.	.
.	8.Rf\	8.AA	.	.	.	.	.	.	.	.	.	.	.	.	.	.	.	.
8Rgg/J	.	.	.	8BJ	da	.	8F#XJ	.	.	.	.	.	.	.	.	.	.	.
=7	=7	=7	=7	=7	=7	=7	=7	=7	=7	=7	=7	=7	=7	=7	=7	=7	=7	=7
16r	4Rf\	4BB	.	8F#L	da	.	8D-X'L	.	.	1r	.	.	1r	.	.	1r	.	.
16Rcc/KL	.	.	.	.	.	.	.	.	.	.	.	.	.	.	.	.	.	.
8Rgg/J	.	.	.	8c#X	da	.	8G-X'	.	.	.	.	.	.	.	.	.	.	.
8Rcc/L	4r	4r	.	8F#	da	.	8D-'	.	.	.	.	.	.	.	.	.	.	.
16Rgg/L	.	.	.	8c#J	da	.	8G-'J	.	.	.	.	.	.	.	.	.	.	.
16Rcc/JJ	.	.	.	.	.	.	.	.	.	.	.	.	.	.	.	.	.	.
16r	8r	8r	.	16BLL	da	.	16G-LL	.	.	.	.	.	.	.	.	.	.	.
16Rcc/KL	.	.	.	16AJ	la	.	16EJ	.	.	.	.	.	.	.	.	.	.	.
8Rgg/J	8Rf\	8BB	.	8F#J	la	.	8D-J	.	.	.	.	.	.	.	.	.	.	.
8Rcc/L	16r	16r	.	8AL	da	.	8EL	.	.	.	.	.	.	.	.	.	.	.
.	8.Rf\	8.BB	.	.	.	.	.	.	.	.	.	.	.	.	.	.	.	.
8Rgg/J	.	.	.	8BJ	da	.	8F#XJ	.	.	.	.	.	.	.	.	.	.	.
=8	=8	=8	=8	=8	=8	=8	=8	=8	=8	=8	=8	=8	=8	=8	=8	=8	=8	=8
16r	4Rf\	4C#	.	8c#XL	da	.	8A-XL	.	.	1r	.	.	1r	.	.	1r	.	.
16Rcc/KL	.	.	.	.	.	.	.	.	.	.	.	.	.	.	.	.	.	.
8Rgg/J	.	.	.	8f	da	.	8c#X	.	.	.	.	.	.	.	.	.	.	.
8Rcc/L	4r	4r	.	8c#	da	.	8A-	.	.	.	.	.	.	.	.	.	.	.
16Rgg/L	.	.	.	8fJ	da	.	8c#J	.	.	.	.	.	.	.	.	.	.	.
16Rcc/JJ	.	.	.	.	.	.	.	.	.	.	.	.	.	.	.	.	.	.
16r	8r	8r	.	8c#L	da	.	8A-L	.	.	.	.	.	.	.	.	.	.	.
16Rcc/KL	.	.	.	.	.	.	.	.	.	.	.	.	.	.	.	.	.	.
8Rgg/J	8Rf\	8C#	.	8f	da	.	8c#	.	.	.	.	.	.	.	.	.	.	.
8Rcc/L	16r	16r	.	8c#	da	.	8A-	.	.	.	.	.	.	.	.	.	.	.
.	8.Rf\	8.C#	.	.	.	.	.	.	.	.	.	.	.	.	.	.	.	.
8Rgg/J	.	.	.	8fJ	da	.	8c#J	.	.	.	.	.	.	.	.	.	.	.
=9	=9	=9	=9	=9	=9	=9	=9	=9	=9	=9	=9	=9	=9	=9	=9	=9	=9	=9
16r	4Rf\	8FF#L	.	8F#L	da	.	1r	.	.	1r	.	.	1r	.	.	1r	.	.
16Rcc/	.	.	.	.	.	.	.	.	.	.	.	.	.	.	.	.	.	.
8r	.	8C#	.	8c#X	da	.	.	.	.	.	.	.	.	.	.	.	.	.
8Rcc/	4r	8FF#	.	8F#	da	.	.	.	.	.	.	.	.	.	.	.	.	.
16r	.	8C#J	.	8c#J	da	.	.	.	.	.	.	.	.	.	.	.	.	.
16Rcc/	.	.	.	.	.	.	.	.	.	.	.	.	.	.	.	.	.	.
16r	2r	16BBLL	.	16BLL	da	.	.	.	.	.	.	.	.	.	.	.	.	.
16Rcc/	.	16AAJ	.	16AJ	la	.	.	.	.	.	.	.	.	.	.	.	.	.
8r	.	8FF#J	.	8F#J	la	.	.	.	.	.	.	.	.	.	.	.	.	.
8Rcc/	.	8AAL	.	8AL	da	.	.	.	.	.	.	.	.	.	.	.	.	.
8r	.	8BBJ	.	8BJ	da	.	.	.	.	.	.	.	.	.	.	.	.	.
*v	*v	*	*	*	*	*	*	*	*	*	*	*	*	*	*	*	*	*
=10	=10	=10	=10	=10	=10	=10	=10	=10	=10	=10	=10	=10	=10	=10	=10	=10	=10
16Rff/LL	2r	.	8F#L	da	.	8D-X'L	.	.	8c#L	.	.	1r	.	.	1r	.	.
16Rcc/JJ	.	.	.	.	.	.	.	.	.	.	.	.	.	.	.	.	.
16r	.	.	8c#X	da	.	8G-X'	.	.	8f#	.	.	.	.	.	.	.	.
16Rff/	.	.	.	.	.	.	.	.	.	.	.	.	.	.	.	.	.
8Rcc/L	.	.	8F#	da	.	8D-'	.	.	8c#	.	.	.	.	.	.	.	.
16Rff/L	.	.	8c#J	da	.	8G-'J	.	.	8f#J	.	.	.	.	.	.	.	.
16Rcc/JJ	.	.	.	.	.	.	.	.	.	.	.	.	.	.	.	.	.
16Ree/LL	4r	.	16BLL	da	.	16G-LL	.	.	16f#LL	.	.	.	.	.	.	.	.
16Rcc/JJ	.	.	16AJ	la	.	16EJ	.	.	16eJ	.	.	.	.	.	.	.	.
16r	.	.	8F#J	la	.	8D-J	.	.	8c#J	.	.	.	.	.	.	.	.
16Ree/	.	.	.	.	.	.	.	.	.	.	.	.	.	.	.	.	.
8Rcc/L	4BB	.	8AL	da	.	8EL	.	.	8eL	.	.	.	.	.	.	.	.
16Ree/Jk	.	.	8BJ	da	.	8F#XJ	.	.	8f#J	.	.	.	.	.	.	.	.
16r	.	.	.	.	.	.	.	.	.	.	.	.	.	.	.	.	.
=11	=11	=11	=11	=11	=11	=11	=11	=11	=11	=11	=11	=11	=11	=11	=11	=11	=11
*^	*	*	*	*	*	*	*	*	*	*	*	*	*	*	*	*	*
1r	4Rf\	4FF#	.	4A	.	.	4c#X	.	.	4f#	da	.	8c#L	い	f	8c#L	い	f
.	.	.	.	.	.	.	.	.	.	.	.	.	16AL	つ	.	16AL	つ	.
.	.	.	.	.	.	.	.	.	.	.	.	.	16AJJ	も	.	16AJJ	も	.
.	4r	4r	.	4r	.	.	4r	.	.	4r	.	.	8BL	どお	.	8BL	どお	.
.	.	.	.	.	.	.	.	.	.	.	.	.	16AL	り	.	16AL	り	.
.	.	.	.	.	.	.	.	.	.	.	.	.	16AJJ	の	.	16AJJ	の	.
.	8r	2r	.	8r	.	.	8r	.	.	8r	.	.	8c#L	とお	.	8c#L	とお	.
.	8Rf\	.	.	8A	.	.	8c#	.	.	8f#	da	.	16AL	り	.	16AL	り	.
.	.	.	.	.	.	.	.	.	.	.	.	.	[16BJJ	ひと	.	[16BJJ	ひと	.
.	16r	.	.	16r	.	.	16r	.	.	16r	.	.	16BKL]	.	.	16BKL]	.	.
.	8.Rf\	.	.	[16AKL	.	.	[16c#KL	.	.	[16f#KL	da	.	8A	り	.	8A	り	.
.	.	.	.	8AJ]	.	.	8c#J]	.	.	8f#J]	.	.	.	.	.	.	.	.
.	.	.	.	.	.	.	.	.	.	.	.	.	16AJk	こ	.	16AJk	こ	.
=12	=12	=12	=12	=12	=12	=12	=12	=12	=12	=12	=12	=12	=12	=12	=12	=12	=12	=12
4Raa/	4Rf\	4AA	.	4E	.	.	4A	da	.	4c#	.	.	16c#LL	ん	.	16c#LL	ん	.
.	.	.	.	.	.	.	.	.	.	.	.	.	16c#	な	.	16c#	な	.
.	.	.	.	.	.	.	.	.	.	.	.	.	16c#	ひ	.	16c#	ひ	.
.	.	.	.	.	.	.	.	.	.	.	.	.	16dJJ	び	.	16dJJ	び	.
4r	4r	4r	.	4r	.	.	4r	.	.	4r	.	.	16c#LL	も	.	16c#LL	も	.
.	.	.	.	.	.	.	.	.	.	.	.	.	16A	は	.	16A	は	.
.	.	.	.	.	.	.	.	.	.	.	.	.	16A	や	.	16A	や	.
.	.	.	.	.	.	.	.	.	.	.	.	.	[16F#JJ	こ	.	[16F#JJ	こ	.
2r	8r	2r	.	8r	.	.	8r	.	.	8r	.	.	16F#LL]	.	.	16F#LL]	.	.
.	.	.	.	.	.	.	.	.	.	.	.	.	16F#J	り	.	16F#J	り	.
.	8Rf\	.	.	8E	.	.	8A	da	.	8c#	.	.	8BJ	ご	.	8BJ	ご	.
.	16r	.	.	4E	.	.	4A	da	.	4c#	.	.	8AL	り	.	8AL	り	.
.	8.Rf\	.	.	.	.	.	.	.	.	.	.	.	.	.	.	.	.	.
.	.	.	.	.	.	.	.	.	.	.	.	.	16AL	も	.	16AL	も	.
.	.	.	.	.	.	.	.	.	.	.	.	.	16AJJ	う	.	16AJJ	う	.
=13	=13	=13	=13	=13	=13	=13	=13	=13	=13	=13	=13	=13	=13	=13	=13	=13	=13	=13
1r	4Rf\	4BB	.	4F#	.	.	4B	da	.	4d	.	.	16ALL	ど	.	16ALL	ど	.
.	.	.	.	.	.	.	.	.	.	.	.	.	16A	こ	.	16A	こ	.
.	.	.	.	.	.	.	.	.	.	.	.	.	16A	に	.	16A	に	.
.	.	.	.	.	.	.	.	.	.	.	.	.	16AJJ	も	.	16AJJ	も	.
.	4r	4r	.	4r	.	.	4r	.	.	4r	.	.	16A-XLL	い	.	16A-XLL	い	.
.	.	.	.	.	.	.	.	.	.	.	.	.	16A-	け	.	16A-	け	.
.	.	.	.	.	.	.	.	.	.	.	.	.	16A-	や	.	16A-	や	.
.	.	.	.	.	.	.	.	.	.	.	.	.	16A-JJ	し	.	16A-JJ	し	.
.	8r	2r	.	8r	.	.	8r	.	.	8r	.	.	8F#L	ない	.	8F#L	ない	.
.	8Rf\	.	.	8F#	.	.	8B	da	.	8d	.	.	16F#L	の	.	16F#L	の	.
.	.	.	.	.	.	.	.	.	.	.	.	.	[16A-JJ	に	.	[16A-JJ	に	.
.	16r	.	.	16r	.	.	16r	.	.	16r	.	.	16A-LL]	.	.	16A-LL]	.	.
.	8.Rf\	.	.	[16F#KL	.	.	[16BKL	da	.	[16dKL	.	.	16A-	ゆ	.	16A-	ゆ	.
.	.	.	.	8F#J]	.	.	8BJ]	.	.	8dJ]	.	.	16A-	め	.	16A-	め	.
.	.	.	.	.	.	.	.	.	.	.	.	.	16A-JJ	み	.	16A-JJ	み	.
=14	=14	=14	=14	=14	=14	=14	=14	=14	=14	=14	=14	=14	=14	=14	=14	=14	=14	=14
1r	4Rf\	4C#	.	4F#	.	.	4A	.	.	4c#	da	.	8AL	て	.	8AL	て	.
.	.	.	.	.	.	.	.	.	.	.	.	.	8B	お	.	8B	お	.
.	4r	4r	.	4r	.	.	4r	.	.	4r	.	.	8c#	や	.	8c#	や	.
.	.	.	.	.	.	.	.	.	.	.	.	.	8dJ	す	.	8dJ	す	.
.	8r	2r	.	8AL	.	.	8F#XL	.	.	8AL	la	.	2c#	み	.	2c#	み	.
.	8Rf\	.	.	8B	.	.	8G#X	.	.	8B	la	.	.	.	.	.	.	.
.	16r	.	.	8c#X	.	.	8A	.	.	8c#	la	.	.	.	.	.	.	.
.	8.Rf\	.	.	.	.	.	.	.	.	.	.	.	.	.	.	.	.	.
.	.	.	.	8dJ	.	.	8BJ	.	.	8dJ	la	.	.	.	.	.	.	.
=15	=15	=15	=15	=15	=15	=15	=15	=15	=15	=15	=15	=15	=15	=15	=15	=15	=15	=15
16r	4Rf\	4FF#	.	4F#	.	.	4c#X	.	.	4c#	la	.	8c#L	いつ	.	8c#L	いつ	.
16Rcc/KL	.	.	.	.	.	.	.	.	.	.	.	.	.	.	.	.	.	.
8Rgg/J	.	.	.	.	.	.	.	.	.	.	.	.	16AL	で	.	16AL	で	.
.	.	.	.	.	.	.	.	.	.	.	.	.	16AJJ	も	.	16AJJ	も	.
8Rcc/L	4r	4r	.	4r	.	.	4r	.	.	4r	.	.	8BL	ぼく	.	8BL	ぼく	.
16Rgg/L	.	.	.	.	.	.	.	.	.	.	.	.	16AL	ら	.	16AL	ら	.
16Rcc/JJ	.	.	.	.	.	.	.	.	.	.	.	.	16AJJ	は	.	16AJJ	は	.
16r	8r	8r	.	8r	.	.	8r	.	.	8r	.	.	8c#L	こん	.	8c#L	こん	.
16Rcc/KL	.	.	.	.	.	.	.	.	.	.	.	.	.	.	.	.	.	.
8Rgg/J	8Rf\	8FF#	.	8A	.	.	8c#	.	.	8f#	da	.	16AL	な	.	16AL	な	.
.	.	.	.	.	.	.	.	.	.	.	.	.	[16BJJ	ふう	.	[16BJJ	ふう	.
8Rcc/L	16r	16r	.	16r	.	.	16r	.	.	16r	.	.	16BKL]	.	.	16BKL]	.	.
.	8.Rf\	[16FF#KL	.	[16AKL	.	.	[16c#KL	.	.	[16f#KL	da	.	8A	に	.	8A	に	.
8Rgg/J	.	8FF#J]	.	8AJ]	.	.	8c#J]	.	.	8f#J]	.	.	.	.	.	.	.	.
.	.	.	.	.	.	.	.	.	.	.	.	.	16AJk	ぼ	.	16AJk	ぼ	.
=16	=16	=16	=16	=16	=16	=16	=16	=16	=16	=16	=16	=16	=16	=16	=16	=16	=16	=16
16r	4Rf\	4AA	.	4E	.	.	4A	.	.	4c#	da	.	16c#LL	ん	.	16c#LL	ん	.
16Rcc/KL	.	.	.	.	.	.	.	.	.	.	.	.	16c#	く	.	16c#	く	.
8Rgg/J	.	.	.	.	.	.	.	.	.	.	.	.	16c#	ら	.	16c#	ら	.
.	.	.	.	.	.	.	.	.	.	.	.	.	16dJJ	な	.	16dJJ	な	.
8Rcc/L	4r	4r	.	4r	.	.	4r	.	.	4r	.	.	16c#LL	よ	.	16c#LL	よ	.
.	.	.	.	.	.	.	.	.	.	.	.	.	16A	る	.	16A	る	.
16Rgg/L	.	.	.	.	.	.	.	.	.	.	.	.	16A	に	.	16A	に	.
16Rcc/JJ	.	.	.	.	.	.	.	.	.	.	.	.	[16F#JJ	あ	.	[16F#JJ	あ	.
16r	8r	8r	.	8r	.	.	8r	.	.	8r	.	.	16F#LL]	.	.	16F#LL]	.	.
16Rcc/KL	.	.	.	.	.	.	.	.	.	.	.	.	16F#J	き	.	16F#J	き	.
8Rgg/J	8Rf\	8AA	.	8E	.	.	8A	.	.	8c#	da	.	8BJ	あ	.	8BJ	あ	.
8Rcc/L	16r	16r	.	4E	.	.	4A	.	.	4c#	da	.	8AL	き	.	8AL	き	.
.	8.Rf\	[16AAKL	.	.	.	.	.	.	.	.	.	.	.	.	.	.	.	.
8Rgg/J	.	8AAJ]	.	.	.	.	.	.	.	.	.	.	16AL	ま	.	16AL	ま	.
.	.	.	.	.	.	.	.	.	.	.	.	.	16AJJ	た	.	16AJJ	た	.
=17	=17	=17	=17	=17	=17	=17	=17	=17	=17	=17	=17	=17	=17	=17	=17	=17	=17	=17
16r	4Rf\	4BB	.	16ALL	.	.	4F#X	.	.	4d	da	.	16ALL	お	.	16ALL	お	.
16Rcc/KL	.	.	.	16A	.	.	.	.	.	.	.	.	16A	ど	.	16A	ど	.
8Rgg/J	.	.	.	16A	.	.	.	.	.	.	.	.	16A	り	.	16A	り	.
.	.	.	.	16AJJ	.	.	.	.	.	.	.	.	16AJJ	お	.	16AJJ	お	.
8Rcc/L	4r	4r	.	16A-XLL	.	.	4r	.	.	4r	.	.	16A-XLL	ど	.	16A-XLL	ど	.
.	.	.	.	16A-	.	.	.	.	.	.	.	.	16A-	り	.	16A-	り	.
16Rgg/L	.	.	.	16A-	.	.	.	.	.	.	.	.	16A-	だ	.	16A-	だ	.
16Rcc/JJ	.	.	.	16A-JJ	.	.	.	.	.	.	.	.	16A-JJ	す	.	16A-JJ	す	.
16r	8r	8r	.	8F#L	.	.	8r	.	.	8r	.	.	8F#L	あし	.	8F#L	あし	.
16Rcc/KL	.	.	.	.	.	.	.	.	.	.	.	.	.	.	.	.	.	.
8Rgg/J	8Rf\	8BB	.	16F#L	.	.	8F#	.	.	8d	da	.	16F#L	た	.	16F#L	た	.
.	.	.	.	[16A-JJ	.	.	.	.	.	.	.	.	[16A-JJ	に	.	[16A-JJ	に	.
8Rcc/L	16r	16r	.	16A-LL]	.	.	16r	.	.	16r	.	.	16A-LL]	.	.	16A-LL]	.	.
.	8.Rf\	[16BBKL	.	16A-	.	.	[16F#KL	.	.	[16dKL	da	.	16A-	で	.	16A-	で	.
8Rgg/J	.	8BBJ]	.	16A-	.	.	8F#J]	.	.	8dJ]	.	.	16A-	あ	.	16A-	あ	.
.	.	.	.	16A-JJ	.	.	.	.	.	.	.	.	16A-JJ	う	.	16A-JJ	う	.
=18	=18	=18	=18	=18	=18	=18	=18	=18	=18	=18	=18	=18	=18	=18	=18	=18	=18	=18
16r	4Rf\	[4C#	.	8F#L	.	.	8AL	.	.	8c#L	た	.	8AL	た	.	8AL	た	.
16Rcc/KL	.	.	.	.	.	.	.	.	.	.	.	.	.	.	.	.	.	.
8Rgg/J	.	.	.	8G#X	.	.	8B	.	.	8d	め	.	8B	め	.	8B	め	.
8Rcc/L	4r	8C#]	.	8A	.	.	8c#X	.	.	8e	に	.	8c#	に	.	8c#	に	.
16Rgg/L	.	[4C#	.	8BJ	.	.	8dJ	.	.	8f#J	さ	.	8dJ	さ	.	8dJ	さ	.
16Rcc/JJ	.	.	.	.	.	.	.	.	.	.	.	.	.	.	.	.	.	.
16r	8r	.	.	4A	.	.	4c#	.	.	4e	よ	.	4c#	よ	.	4c#	よ	.
16Rcc/KL	.	.	.	.	.	.	.	.	.	.	.	.	.	.	.	.	.	.
8Rgg/J	8Rf\	8C#]	.	.	.	.	.	.	.	.	.	.	.	.	.	.	.	.
8Rcc/L	16r	16r	.	8G#L	.	.	8BL	.	.	8dL	な	.	8BL	な	.	8BL	な	.
.	8.Rf\	[16BBKL	.	.	.	.	.	.	.	.	.	.	.	.	.	.	.	.
8Rgg/J	.	8BBJ]	.	8F#J	.	.	8AJ	.	.	8c#J	ら	.	8AJ	ら	.	8AJ	ら	.
=19	=19	=19	=19	=19	=19	=19	=19	=19	=19	=19	=19	=19	=19	=19	=19	=19	=19	=19
8Raa/L	4Rf\	4D	.	4F#	.	.	4A	.	.	4A	da	.	4r	.	.	4r	.	.
8Rgg/J	.	.	.	.	.	.	.	.	.	.	.	.	.	.	.	.	.	.
8Rcc/L	4r	4D	.	4F#	.	.	4A	.	.	4A	da	.	16F#LL	あ	.	16F#LL	あ	.
.	.	.	.	.	.	.	.	.	.	.	.	.	16F#	る	.	16F#	る	.
16Rgg/L	.	.	.	.	.	.	.	.	.	.	.	.	16F#	き	.	16F#	き	.
16Rcc/JJ	.	.	.	.	.	.	.	.	.	.	.	.	[16BJJ	まわ	.	[16BJJ	まわ	.
16r	8r	4E	.	4G#X	.	.	4B	.	.	4B	da	.	8BL]	.	.	8BL]	.	.
16Rcc/KL	.	.	.	.	.	.	.	.	.	.	.	.	.	.	.	.	.	.
8Rgg/J	8Rf\	.	.	.	.	.	.	.	.	.	.	.	8AJ	って	.	8AJ	って	.
8Rcc/L	16r	4E	.	4G#	.	.	4B	.	.	4B	da	.	8G#XL	や	.	8G#XL	や	.
.	8.Rf\	.	.	.	.	.	.	.	.	.	.	.	.	.	.	.	.	.
8Rgg/J	.	.	.	.	.	.	.	.	.	.	.	.	16AL	っと	.	16AL	っと	.
.	.	.	.	.	.	.	.	.	.	.	.	.	[16G#JJ	つい	.	[16G#JJ	つい	.
=20	=20	=20	=20	=20	=20	=20	=20	=20	=20	=20	=20	=20	=20	=20	=20	=20	=20	=20
16r	4Rf\	4F#	.	4A	.	.	4f#X	.	.	4c#	da	.	16G#KL]	.	.	16G#KL]	.	.
16Rcc/KL	.	.	.	.	.	.	.	.	.	.	.	.	8.F#J	た	.	8.F#J	た	.
8Rgg/J	.	.	.	.	.	.	.	.	.	.	.	.	.	.	.	.	.	.
8Rcc/L	4r	4F#	.	4A	.	.	4f#	.	.	16eLL	こ	.	16c#LL	こ	.	16c#LL	こ	.
.	.	.	.	.	.	.	.	.	.	16e	こ	.	16c#	こ	.	16c#	こ	.
16Rgg/L	.	.	.	.	.	.	.	.	.	16e	は	.	16c#	は	.	16c#	は	.
16Rcc/JJ	.	.	.	.	.	.	.	.	.	[16f#JJ	どう	.	[16dJJ	どう	.	[16dJJ	どう	.
16r	8r	4AA	.	4c#X	.	.	4e	.	.	8f#L]	.	.	8dL]	.	.	8dL]	.	.
16Rcc/KL	.	.	.	.	.	.	.	.	.	.	.	.	.	.	.	.	.	.
8Rgg/J	8Rf\	.	.	.	.	.	.	.	.	8eJ	だ	.	8c#J	だ	.	8c#J	だ	.
8Rcc/L	16r	4AA	.	4c#	.	.	4e	.	.	8dL	ら	.	8BL	ら	.	8BL	ら	.
.	8.Rf\	.	.	.	.	.	.	.	.	.	.	.	.	.	.	.	.	.
8Rgg/J	.	.	.	.	.	.	.	.	.	16eL	く	.	16c#L	く	.	16c#L	く	.
.	.	.	.	.	.	.	.	.	.	[16dJJ	えん	.	[16BJJ	えん	.	[16BJJ	えん	.
=21	=21	=21	=21	=21	=21	=21	=21	=21	=21	=21	=21	=21	=21	=21	=21	=21	=21	=21
16r	4Rf\	4BB	.	4D	.	.	4f#X	.	.	16dKL]	.	.	16BKL]	.	.	16BKL]	.	.
16Rcc/KL	.	.	.	.	.	.	.	.	.	8.c#J	か	.	8.AJ	か	.	8.AJ	か	.
8Rgg/J	.	.	.	.	.	.	.	.	.	.	.	.	.	.	.	.	.	.
8Rcc/L	4r	4BB	.	4D	.	.	4f#	.	.	4r	.	.	16ALL	い	.	16ALL	い	.
.	.	.	.	.	.	.	.	.	.	.	.	.	16A	ま	.	16A	ま	.
16Rgg/L	.	.	.	.	.	.	.	.	.	.	.	.	16A	と	.	16A	と	.
16Rcc/JJ	.	.	.	.	.	.	.	.	.	.	.	.	[16G#XJJ	な	.	[16G#XJJ	な	.
16r	8r	4C#	.	4C#X	.	.	4e#X	.	.	4B	da	.	8G#L]	.	.	8G#L]	.	.
16Rcc/KL	.	.	.	.	.	.	.	.	.	.	.	.	.	.	.	.	.	.
8Rgg/J	8Rf\	.	.	.	.	.	.	.	.	.	.	.	8AJ	っちゃ	.	8AJ	っちゃ	.
8Rcc/L	16r	4C#	.	4C#	.	.	4e#	.	.	4B	da	.	8BL	もう	.	8BL	もう	.
.	8.Rf\	.	.	.	.	.	.	.	.	.	.	.	.	.	.	.	.	.
8Rgg/J	.	.	.	.	.	.	.	.	.	.	.	.	16AL	わ	.	16AL	わ	.
.	.	.	.	.	.	.	.	.	.	.	.	.	[16AJJ	か	.	[16AJJ	か	.
=22	=22	=22	=22	=22	=22	=22	=22	=22	=22	=22	=22	=22	=22	=22	=22	=22	=22	=22
16r	4Rf\	4FF#	.	4F#	.	.	4A	.	.	4c#	da	.	16ALL]	.	.	16ALL]	.	.
16Rcc/KL	.	.	.	.	.	.	.	.	.	.	.	.	16BJ	ら	.	16BJ	ら	.
8Rgg/J	.	.	.	.	.	.	.	.	.	.	.	.	[8c#J	ない	.	[8c#J	ない	.
8Rcc/L	4r	4FF#	.	4F#	.	.	4A	.	.	4c#	da	.	4c#]	.	.	4c#]	.	.
16Rgg/L	.	.	.	.	.	.	.	.	.	.	.	.	.	.	.	.	.	.
16Rcc/JJ	.	.	.	.	.	.	.	.	.	.	.	.	.	.	.	.	.	.
16r	8r	4FF#	.	8r	.	.	8r	.	.	8r	.	.	2r	.	.	2r	.	.
16Rcc/KL	.	.	.	.	.	.	.	.	.	.	.	.	.	.	.	.	.	.
8Rgg/J	8Rf\	.	.	8c#XL	.	.	8AL	.	.	8c#L	oh	.	.	.	.	.	.	.
8Rcc/L	16r	4FF#	.	8B	.	.	8G#X	.	.	8B	oh	.	.	.	.	.	.	.
.	8.Rf\	.	.	.	.	.	.	.	.	.	.	.	.	.	.	.	.	.
8Rgg/J	.	.	.	8AJ	.	.	8F#XJ	.	.	8AJ	oh	.	.	.	.	.	.	.
=23	=23	=23	=23	=23	=23	=23	=23	=23	=23	=23	=23	=23	=23	=23	=23	=23	=23	=23
8Raa/L	4Rf\	4D	.	2A	.	.	2f#X	.	.	4r	.	.	4r	.	.	4r	.	.
8Rgg/J	.	.	.	.	.	.	.	.	.	.	.	.	.	.	.	.	.	.
8Rcc/L	4r	4D	.	.	.	.	.	.	.	16AKL	し	.	16F#KL	し	.	16F#KL	し	.
.	.	.	.	.	.	.	.	.	.	8A	はん	.	8F#	はん	.	8F#	はん	.
16Rgg/L	.	.	.	.	.	.	.	.	.	.	.	.	.	.	.	.	.	.
16Rcc/JJ	.	.	.	.	.	.	.	.	.	[16dJk	せい	.	[16BJk	せい	.	[16BJk	せい	.
16r	8r	4F-X	.	2B	.	.	2g#X	.	.	8dL]	き	.	8BL]	き	.	8BL]	き	.
16Rcc/KL	.	.	.	.	.	.	.	.	.	.	.	.	.	.	.	.	.	.
8Rgg/J	8Rf\	.	.	.	.	.	.	.	.	8c#J	の	.	8AJ	の	.	8AJ	の	.
8Rcc/L	16r	4F-	.	.	.	.	.	.	.	8BL	け	.	8G#XL	け	.	8G#XL	け	.
.	8.Rf\	.	.	.	.	.	.	.	.	.	.	.	.	.	.	.	.	.
8Rgg/J	.	.	.	.	.	.	.	.	.	16c#L	っか	.	16AL	っか	.	16AL	っか	.
.	.	.	.	.	.	.	.	.	.	[16BJJ	でき	.	[16G#JJ	でき	.	[16G#JJ	でき	.
=24	=24	=24	=24	=24	=24	=24	=24	=24	=24	=24	=24	=24	=24	=24	=24	=24	=24	=24
16r	4Rf\	4GG-X	.	4c#X	.	.	4A	.	.	16BKL]	.	.	16G#KL]	.	.	16G#KL]	.	.
16Rcc/KL	.	.	.	.	.	.	.	.	.	8.AJ	た	.	8.F#J	.	.	8.F#J	.	.
8Rgg/J	.	.	.	.	.	.	.	.	.	.	.	.	.	.	.	.	.	.
8Rcc/L	4r	4GG-	.	16c#LL	.	.	16ALL	.	.	16eLL	あ	.	16c#LL	た	.	16c#LL	た	.
.	.	.	.	16c#	.	.	16A	.	.	16e	お	.	16c#	あ	.	16c#	あ	.
16Rgg/L	.	.	.	16c#	.	.	16A	.	.	16e	い	.	16c#	お	.	16c#	お	.
16Rcc/JJ	.	.	.	[16dJJ	.	.	[16BJJ	.	.	[16f#JJ	か	.	[16dJJ	い	.	[16dJJ	い	.
16r	8r	4AA	.	8dL]	.	.	8BL]	.	.	8f#L]	お	.	8dL]	か	.	8dL]	か	.
16Rcc/KL	.	.	.	.	.	.	.	.	.	.	.	.	.	.	.	.	.	.
8Rgg/J	8Rf\	.	.	8c#J	.	.	8AJ	.	.	8eJ	の	.	8c#J	お	.	8c#J	お	.
8Rcc/L	16r	4AA	.	8BL	.	.	8F#XL	.	.	8dL	スー	.	8BL	の	.	8BL	の	.
.	8.Rf\	.	.	.	.	.	.	.	.	.	.	.	.	.	.	.	.	.
8Rgg/J	.	.	.	16c#L	.	.	16AL	.	.	16eL	パー	.	16c#L	スー	.	16c#L	スー	.
.	.	.	.	[16BJJ	.	.	[16F#JJ	.	.	[16dJJ	スター	.	[16BJJ	パー	.	[16BJJ	パー	.
=25	=25	=25	=25	=25	=25	=25	=25	=25	=25	=25	=25	=25	=25	=25	=25	=25	=25	=25
16Rff/LL	8Rf\L	4C-X	.	16BKL]	.	.	16F#KL]	.	.	16dKL]	.	.	16BKL]	スター	.	16BKL]	スター	.
16Rcc/JJ	.	.	.	8.AJ	.	.	8.F#XJ	.	.	8.c#J	が	.	8.AJ	が	.	8.AJ	が	.
16r	8Rd\J	.	.	.	.	.	.	.	.	.	.	.	.	.	.	.	.	.
16Rff/	.	.	.	.	.	.	.	.	.	.	.	.	.	.	.	.	.	.
8Rcc/L	8r	4C-	.	4r	.	.	4r	.	.	4r	.	.	16ALL	は	.	16ALL	は	.
.	.	.	.	.	.	.	.	.	.	.	.	.	16A	ら	.	16A	ら	.
16Rff/L	8Rd\	.	.	.	.	.	.	.	.	.	.	.	16A	を	.	16A	を	.
16Rcc/JJ	.	.	.	.	.	.	.	.	.	.	.	.	16AJJ	す	.	16AJJ	す	.
16Ree/LL	8r	4D-X	.	2r	.	.	2r	.	.	2r	.	.	8c#L	かし	.	8c#L	かし	.
16Rcc/JJ	.	.	.	.	.	.	.	.	.	.	.	.	.	.	.	.	.	.
16r	8Rd\ 8Rf	.	.	.	.	.	.	.	.	.	.	.	16BL	て	.	16BL	て	.
16Ree/	.	.	.	.	.	.	.	.	.	.	.	.	16AJJ	わ	.	16AJJ	わ	.
8Rcc/L	16r	4D-	.	.	.	.	.	.	.	.	.	.	8BL	ら	.	8BL	ら	.
.	16Rf\KL	.	.	.	.	.	.	.	.	.	.	.	.	.	.	.	.	.
16Ree/Jk	8Rd\J	.	.	.	.	.	.	.	.	.	.	.	8c#J	ってる	.	8c#J	ってる	.
16r	.	.	.	.	.	.	.	.	.	.	.	.	.	.	.	.	.	.
=26	=26	=26	=26	=26	=26	=26	=26	=26	=26	=26	=26	=26	=26	=26	=26	=26	=26	=26
4Ree/	4Rf\ 4Rcc	1r	.	4D-X'	.	f	4A-X'	.	f	4d-X'	da	.	1r	.	.	1r	.	.
4Ree/	4Rf\ 4Rcc	.	.	4D-'	.	.	4A-'	.	.	4d-'	da	.	.	.	.	.	.	.
8Ree/L	8Rf\L 8Rcc	.	.	8D-L	.	.	8A-L	.	.	8d-L	da	.	.	.	.	.	.	.
8Ree/J	8Rf\J 8Rcc	.	.	8D-J	.	.	8A-J	.	.	8d-J	da	.	.	.	.	.	.	.
4Raa/	4r	.	.	4F#	.	.	4c#X	.	.	4f#	ha	.	.	.	.	.	.	.
*v	*v	*	*	*	*	*	*	*	*	*	*	*	*	*	*	*	*	*
=27||	=27||	=27||	=27||	=27||	=27||	=27||	=27||	=27||	=27||	=27||	=27||	=27||	=27||	=27||	=27||	=27||	=27||
*	*k[b-e-a-d-g-c-]	*	*k[b-e-a-d-g-c-f-]	*	*	*k[]	*	*	*k[b-e-a-d-g-c-]	*	*	*k[b-e-a-d-g-c-]	*	*	*k[b-e-a-d-g-c-]	*	*
*^	*	*	*	*	*	*	*	*	*	*	*	*	*	*	*	*	*
8Raa/L	4Rf\	[4E-	.	8E-L	.	.	8G-L	.	.	8B-L	アイ	.	8e-L	アイ	.	8e-L	アイ	.
8Rgg/J	.	.	.	8G-	.	.	8B-	.	.	8d-	ムア	.	8g-	ムア	.	8g-	ムア	.
8Rcc/L	4r	8E-L]	.	8F	.	.	8A-	.	.	8c-	ルー	.	8f	ルー	.	8f	ルー	.
16Rgg/L	.	8E-J	.	8D-J	.	.	8FJ	.	.	8A-J	ザー	.	8d-J	ザー	.	8d-J	ザー	.
16Rcc/JJ	.	.	.	.	.	.	.	.	.	.	.	.	.	.	.	.	.	.
16r	8r	8.C-'L	.	2E-	.	.	2G-	.	.	2B-	ah	.	8e-L	どう	.	8e-L	どう	.
16Rcc/KL	.	.	.	.	.	.	.	.	.	.	.	.	.	.	.	.	.	.
8Rgg/J	8Rf\	.	.	.	.	.	.	.	.	.	.	.	16g-L	せ	.	16g-L	せ	.
.	.	16C-Jk	.	.	.	.	.	.	.	.	.	.	[16fJJ	だ	.	[16fJJ	だ	.
8Rcc/L	16r	16r	.	.	.	.	.	.	.	.	.	.	16fKL]	.	.	16fKL]	.	.
.	8.Rf\	8.C-	.	.	.	.	.	.	.	.	.	.	8d-	った	.	8d-	った	.
8Rgg/J	.	.	.	.	.	.	.	.	.	.	.	.	.	.	.	.	.	.
.	.	.	.	.	.	.	.	.	.	.	.	.	16d-Jk	ら	.	16d-Jk	ら	.
=28	=28	=28	=28	=28	=28	=28	=28	=28	=28	=28	=28	=28	=28	=28	=28	=28	=28	=28
16r	4Rf\	[4D-	.	4F	.	.	4A-	.	.	4d-	ha	.	8e-L	とお	.	8e-L	とお	.
16Rcc/KL	.	.	.	.	.	.	.	.	.	.	.	.	.	.	.	.	.	.
8Rgg/J	.	.	.	.	.	.	.	.	.	.	.	.	8g-	ぼえ	.	8g-	ぼえ	.
8Rcc/L	4r	8D-L]	.	4E-	.	.	4G-	.	.	4c-	ah	.	8f	だ	.	8f	だ	.
16Rgg/L	.	8D-J	.	.	.	.	.	.	.	.	.	.	8d-J	って	.	8d-J	って	.
16Rcc/JJ	.	.	.	.	.	.	.	.	.	.	.	.	.	.	.	.	.	.
16r	8r	8.GG-'L	.	8E-L	.	.	8A-L	.	.	8c-L	いい	.	8e-L	いい	.	8e-L	いい	.
16Rcc/KL	.	.	.	.	.	.	.	.	.	.	.	.	.	.	.	.	.	.
8Rgg/J	8Rf\	.	.	16D-L	.	.	16G-L	.	.	16B-L	だ	.	16d-L	だ	.	16d-L	だ	.
.	.	16GG-Jk	.	[16D-JJ	.	.	[16G-JJ	.	.	[16B-JJ	ろ	.	[16d-JJ	ろう	.	[16d-JJ	ろう	.
8Rcc/L	16r	16r	.	4D-]	.	.	4G-]	.	.	4B-]	う	.	4d-]	.	.	4d-]	.	.
.	8.Rf\	16GG-LL	.	.	.	.	.	.	.	.	.	.	.	.	.	.	.	.
8Rgg/J	.	16E-	.	.	.	.	.	.	.	.	.	.	.	.	.	.	.	.
.	.	16C-JJ	.	.	.	.	.	.	.	.	.	.	.	.	.	.	.	.
=29	=29	=29	=29	=29	=29	=29	=29	=29	=29	=29	=29	=29	=29	=29	=29	=29	=29	=29
16r	4Rf\	8E-L	.	8E-L	.	.	8G-L	.	.	8B-L	もう	.	8e-L	もう	.	8e-L	もう	.
16Rcc/KL	.	.	.	.	.	.	.	.	.	.	.	.	.	.	.	.	.	.
8Rgg/J	.	8E-	.	8D-	.	.	8G-	.	.	8B-	いっ	.	8d-	いっ	.	8d-	いっ	.
8Rcc/L	4r	8E-	.	8GG-	.	.	8G-	.	.	8B-	かい	.	8G-	かい	.	8G-	かい	.
16Rgg/L	.	8E-J	.	8E-J	.	.	8G-J	.	.	8B-J	もう	.	8e-J	もう	.	8e-J	もう	.
16Rcc/JJ	.	.	.	.	.	.	.	.	.	.	.	.	.	.	.	.	.	.
16r	8r	8.C-'L	.	8D-L	.	.	8G-L	.	.	8B-L	いっ	.	8d-L	いっ	.	8d-L	いっ	.
16Rcc/KL	.	.	.	.	.	.	.	.	.	.	.	.	.	.	.	.	.	.
8Rgg/J	8Rf\	.	.	8GG-J	.	.	8G-J	.	.	8B-J	かい	.	8G-	かい	.	8G-	かい	.
.	.	16C-Jk	.	.	.	.	.	.	.	.	.	.	.	.	.	.	.	.
8Rcc/L	16r	16r	.	4r	.	.	8r	.	.	8r	.	.	8F	いこう	.	8F	いこう	.
.	8.Rf\	8.C-	.	.	.	.	.	.	.	.	.	.	.	.	.	.	.	.
8Rgg/J	.	.	.	.	.	.	8r	.	.	8r	.	.	8G-J	ぜ	.	8G-J	ぜ	.
=30	=30	=30	=30	=30	=30	=30	=30	=30	=30	=30	=30	=30	=30	=30	=30	=30	=30	=30
16r	4Rf\	8D-L	.	4E-	.	.	4G-	.	.	4c-	ha	.	4e-	ぼ	.	4e-	ぼ	.
16Rcc/KL	.	.	.	.	.	.	.	.	.	.	.	.	.	.	.	.	.	.
8Rgg/J	.	8D-	.	.	.	.	.	.	.	.	.	.	.	.	.	.	.	.
8Rcc/L	4r	8D-	.	4D-	.	.	4F	.	.	4B-	ah	.	8d-L	くら	.	8d-L	くら	.
16Rgg/L	.	8D-J	.	.	.	.	.	.	.	.	.	.	8c-J	の	.	8c-J	の	.
16Rcc/JJ	.	.	.	.	.	.	.	.	.	.	.	.	.	.	.	.	.	.
16r	8r	8GG-L	.	4BB-	.	.	4E-	.	.	4G-	ah	.	8B-	こ	.	8B-	こ	.
16Rcc/KL	.	.	.	.	.	.	.	.	.	.	.	.	.	.	.	.	.	.
8Rgg/J	8Rf\	8GG-J	.	.	.	.	.	.	.	.	.	.	4.G-	え	.	4.G-	え	.
8Rcc/L	16r	8.G-L	.	16C-LL	.	.	16E-LL	.	.	16G-LL	da	.	.	.	.	.	.	.
.	8.Rf\	.	.	16C-J	.	.	16E-J	.	.	16G-J	da	.	.	.	.	.	.	.
8Rgg/J	.	.	.	8C-J	.	.	8E-J	.	.	8G-J	da	.	.	.	.	.	.	.
.	.	16GG-Jk	.	.	.	.	.	.	.	.	.	.	.	.	.	.	.	.
=31	=31	=31	=31	=31	=31	=31	=31	=31	=31	=31	=31	=31	=31	=31	=31	=31	=31	=31
8Raa/L	4Rf\	[4E-	.	8E-L	.	.	8G-L	.	.	8B-L	アイ	.	8e-L	アイ	.	8e-L	アイ	.
8Rgg/J	.	.	.	8G-	.	.	8B-	.	.	8d-	ムア	.	8g-	ムア	.	8g-	ムア	.
8Rcc/L	4r	8E-L]	.	8F	.	.	8A-	.	.	8c-	ルー	.	8f	ルー	.	8f	ルー	.
16Rgg/L	.	8E-J	.	8D-J	.	.	8FJ	.	.	8A-J	ザー	.	8d-J	ザー	.	8d-J	ザー	.
16Rcc/JJ	.	.	.	.	.	.	.	.	.	.	.	.	.	.	.	.	.	.
16r	8r	8.C-'L	.	8E-L	.	.	8G-L	.	.	8B-L	ず	.	8e-L	ず	.	8e-L	ず	.
16Rcc/KL	.	.	.	.	.	.	.	.	.	.	.	.	.	.	.	.	.	.
8Rgg/J	8Rf\	.	.	16G-L	.	.	16B-L	.	.	16d-L	っと	.	16g-L	っと	.	16g-L	っと	.
.	.	16C-Jk	.	[16FJJ	.	.	[16A-JJ	.	.	[16c-JJ	まえ	.	[16fJJ	まえ	.	[16fJJ	まえ	.
8Rcc/L	16r	16r	.	16FKL]	.	.	16A-KL]	.	.	16c-KL]	.	.	16fKL]	.	.	16fKL]	.	.
.	8.Rf\	8.C-	.	8D-	.	.	8F	.	.	8A-	か	.	8d-	か	.	8d-	か	.
8Rgg/J	.	.	.	.	.	.	.	.	.	.	.	.	.	.	.	.	.	.
.	.	.	.	16D-Jk	.	.	16FJk	.	.	16A-Jk	ら	.	16d-Jk	ら	.	16d-Jk	ら	.
=32	=32	=32	=32	=32	=32	=32	=32	=32	=32	=32	=32	=32	=32	=32	=32	=32	=32	=32
16r	4Rf\	[4D-	.	8E-L	.	.	8G-L	.	.	8B-L	き	.	8e-L	き	.	8e-L	き	.
16Rcc/KL	.	.	.	.	.	.	.	.	.	.	.	.	.	.	.	.	.	.
8Rgg/J	.	.	.	8G-	.	.	8B-	.	.	8e-	こ	.	8g-	こ	.	8g-	こ	.
8Rcc/L	4r	8D-L]	.	8G-	.	.	8B-	.	.	8e- 8g-	え	.	8g-	え	.	8g-	え	.
16Rgg/L	.	8D-J	.	8A-J	.	.	8c-J	.	.	8fJ 8a-	て	.	8a-J	て	.	8a-J	て	.
16Rcc/JJ	.	.	.	.	.	.	.	.	.	.	.	.	.	.	.	.	.	.
16r	8r	4G-	.	4B-	.	.	4d-	.	.	4g- 4b-	た	.	4b-	た	.	4b-	た	.
16Rcc/KL	.	.	.	.	.	.	.	.	.	.	.	.	.	.	.	.	.	.
8Rgg/J	8Rf\	.	.	.	.	.	.	.	.	.	.	.	.	.	.	.	.	.
8Rcc/L	16r	4GG-	.	4r	.	.	4r	.	.	4r	.	.	8g-L	い	.	8g-L	い	.
.	8.Rf\	.	.	.	.	.	.	.	.	.	.	.	.	.	.	.	.	.
8Rgg/J	.	.	.	.	.	.	.	.	.	.	.	.	8fJ	つ	.	8fJ	つ	.
=33	=33	=33	=33	=33	=33	=33	=33	=33	=33	=33	=33	=33	=33	=33	=33	=33	=33	=33
16r	4Rf\	[4E-	.	2E-	.	.	2G-	.	.	2B-	ha	.	4g-	か	.	4g-	か	.
16Rcc/KL	.	.	.	.	.	.	.	.	.	.	.	.	.	.	.	.	.	.
8Rgg/J	.	.	.	.	.	.	.	.	.	.	.	.	.	.	.	.	.	.
8Rcc/L	4r	8E-L]	.	.	.	.	.	.	.	.	.	.	8r	.	.	8r	.	.
16Rgg/L	.	8E-J	.	.	.	.	.	.	.	.	.	.	8d-	ポ	.	8d-	ポ	.
16Rcc/JJ	.	.	.	.	.	.	.	.	.	.	.	.	.	.	.	.	.	.
16r	8r	8.C-'L	.	2D-	.	.	2F	.	.	2c-	ah	.	8g-L	ケ	.	8g-L	ケ	.
16Rcc/KL	.	.	.	.	.	.	.	.	.	.	.	.	.	.	.	.	.	.
8Rgg/J	8Rf\	.	.	.	.	.	.	.	.	.	.	.	16fL	ット	.	16fL	ット	.
.	.	16C-Jk	.	.	.	.	.	.	.	.	.	.	[16e-JJ	に	.	[16e-JJ	に	.
8Rcc/L	16r	16r	.	.	.	.	.	.	.	.	.	.	16e-KL]	.	.	16e-KL]	.	.
.	8.Rf\	8.C-	.	.	.	.	.	.	.	.	.	.	8d-	.	.	8d-	.	.
8Rgg/J	.	.	.	.	.	.	.	.	.	.	.	.	.	.	.	.	.	.
.	.	.	.	.	.	.	.	.	.	.	.	.	16d-Jk	か	.	16d-Jk	か	.
=34	=34	=34	=34	=34	=34	=34	=34	=34	=34	=34	=34	=34	=34	=34	=34	=34	=34	=34
16r	4Rf\	4D-	.	4D-	.	.	4G-	.	.	4B-	la	.	8e-L	く	.	8e-L	く	.
16Rcc/KL	.	.	.	.	.	.	.	.	.	.	.	.	.	.	.	.	.	.
8Rgg/J	.	.	.	.	.	.	.	.	.	.	.	.	16d-L	し	.	16d-L	し	.
.	.	.	.	.	.	.	.	.	.	.	.	.	[16c-JJ	た	.	[16c-JJ	た	.
8Rcc/L	4r	4D-	.	4D-	.	.	4G-	.	.	4B-	la	.	8c-L]	.	.	8c-L]	.	.
16Rgg/L	.	.	.	.	.	.	.	.	.	.	.	.	8B-J	こ	.	8B-J	こ	.
16Rcc/JJ	.	.	.	.	.	.	.	.	.	.	.	.	.	.	.	.	.	.
16r	8r	8r	.	8r	.	.	8r	.	.	8r	.	.	8A-	え	.	8A-	え	.
16Rcc/KL	.	.	.	.	.	.	.	.	.	.	.	.	.	.	.	.	.	.
8Rgg/J	8Rf\	8GG-	.	8E-	.	.	8G-	.	.	8B-	ta	.	4G-	が	.	4G-	が	.
8Rcc/L	16r	4GG-	.	4E-	.	.	4G-	.	.	4B-	ta	.	.	.	.	.	.	.
.	8.Rf\	.	.	.	.	.	.	.	.	.	.	.	.	.	.	.	.	.
8Rgg/J	.	.	.	.	.	.	.	.	.	.	.	.	8r	.	.	8r	.	.
*v	*v	*	*	*	*	*	*	*	*	*	*	*	*	*	*	*	*	*
=35||	=35||	=35||	=35||	=35||	=35||	=35||	=35||	=35||	=35||	=35||	=35||	=35||	=35||	=35||	=35||	=35||	=35||
*	*k[f#c#]	*	*k[f#]	*	*	*k[]	*	*	*k[f#c#]	*	*	*k[f#c#]	*	*	*k[f#c#]	*	*
*^	*	*	*	*	*	*	*	*	*	*	*	*	*	*	*	*	*
8Raa/L	4Rf\	4FF#	f	8F#L	da	.	8D-X'L	.	.	1r	.	.	1r	.	.	1r	.	.
8Rgg/J	.	.	.	8c#X	da	.	8G-X'	.	.	.	.	.	.	.	.	.	.	.
8Rcc/L	4r	4r	.	8F#	da	.	8D-'	.	.	.	.	.	.	.	.	.	.	.
16Rgg/L	.	.	.	8c#J	da	.	8G-'J	.	.	.	.	.	.	.	.	.	.	.
16Rcc/JJ	.	.	.	.	.	.	.	.	.	.	.	.	.	.	.	.	.	.
16r	8r	8r	.	16BLL	da	.	16G-LL	.	.	.	.	.	.	.	.	.	.	.
16Rcc/KL	.	.	.	16AJ	la	.	16EJ	.	.	.	.	.	.	.	.	.	.	.
8Rgg/J	8Rf\	8FF#	.	8F#J	la	.	8D-J	.	.	.	.	.	.	.	.	.	.	.
8Rcc/L	16r	16r	.	8AL	da	.	8EL	.	.	.	.	.	.	.	.	.	.	.
.	8.Rf\	8.FF#	.	.	.	.	.	.	.	.	.	.	.	.	.	.	.	.
8Rgg/J	.	.	.	8BJ	da	.	8F#XJ	.	.	.	.	.	.	.	.	.	.	.
=36	=36	=36	=36	=36	=36	=36	=36	=36	=36	=36	=36	=36	=36	=36	=36	=36	=36	=36
16r	4Rf\	4AA	.	8F#L	da	.	8D-X'L	.	.	1r	.	.	1r	.	.	1r	.	.
16Rcc/KL	.	.	.	.	.	.	.	.	.	.	.	.	.	.	.	.	.	.
8Rgg/J	.	.	.	8c#X	da	.	8G-X'	.	.	.	.	.	.	.	.	.	.	.
8Rcc/L	4r	4r	.	8F#	da	.	8D-'	.	.	.	.	.	.	.	.	.	.	.
16Rgg/L	.	.	.	8c#J	da	.	8G-'J	.	.	.	.	.	.	.	.	.	.	.
16Rcc/JJ	.	.	.	.	.	.	.	.	.	.	.	.	.	.	.	.	.	.
16r	8r	8r	.	16BLL	da	.	16G-LL	.	.	.	.	.	.	.	.	.	.	.
16Rcc/KL	.	.	.	16AJ	la	.	16EJ	.	.	.	.	.	.	.	.	.	.	.
8Rgg/J	8Rf\	8AA	.	8F#J	la	.	8D-J	.	.	.	.	.	.	.	.	.	.	.
8Rcc/L	16r	16r	.	8AL	da	.	8EL	.	.	.	.	.	.	.	.	.	.	.
.	8.Rf\	8.AA	.	.	.	.	.	.	.	.	.	.	.	.	.	.	.	.
8Rgg/J	.	.	.	8BJ	da	.	8F#XJ	.	.	.	.	.	.	.	.	.	.	.
=37	=37	=37	=37	=37	=37	=37	=37	=37	=37	=37	=37	=37	=37	=37	=37	=37	=37	=37
16r	4Rf\	4BB	.	8F#L	da	.	8D-X'L	.	.	1r	.	.	1r	.	.	1r	.	.
16Rcc/KL	.	.	.	.	.	.	.	.	.	.	.	.	.	.	.	.	.	.
8Rgg/J	.	.	.	8c#X	da	.	8G-X'	.	.	.	.	.	.	.	.	.	.	.
8Rcc/L	4r	4r	.	8F#	da	.	8D-'	.	.	.	.	.	.	.	.	.	.	.
16Rgg/L	.	.	.	8c#J	da	.	8G-'J	.	.	.	.	.	.	.	.	.	.	.
16Rcc/JJ	.	.	.	.	.	.	.	.	.	.	.	.	.	.	.	.	.	.
16r	8r	8r	.	16BLL	da	.	16G-LL	.	.	.	.	.	.	.	.	.	.	.
16Rcc/KL	.	.	.	16AJ	la	.	16EJ	.	.	.	.	.	.	.	.	.	.	.
8Rgg/J	8Rf\	8BB	.	8F#J	la	.	8D-J	.	.	.	.	.	.	.	.	.	.	.
8Rcc/L	16r	16r	.	8AL	da	.	8EL	.	.	.	.	.	.	.	.	.	.	.
.	8.Rf\	8.BB	.	.	.	.	.	.	.	.	.	.	.	.	.	.	.	.
8Rgg/J	.	.	.	8BJ	da	.	8F#XJ	.	.	.	.	.	.	.	.	.	.	.
=38	=38	=38	=38	=38	=38	=38	=38	=38	=38	=38	=38	=38	=38	=38	=38	=38	=38	=38
16Rff/LL	8Rf\L	4C#	.	8c#XL	da	.	8A-XL	.	.	1r	.	.	1r	.	.	1r	.	.
16Rcc/JJ	.	.	.	.	.	.	.	.	.	.	.	.	.	.	.	.	.	.
16r	8Rd\J	.	.	8f	da	.	8c#X	.	.	.	.	.	.	.	.	.	.	.
16Rff/	.	.	.	.	.	.	.	.	.	.	.	.	.	.	.	.	.	.
8Rcc/L	8r	4r	.	8c#	da	.	8A-	.	.	.	.	.	.	.	.	.	.	.
16Rff/L	8Rd\	.	.	8fJ	da	.	8c#J	.	.	.	.	.	.	.	.	.	.	.
16Rcc/JJ	.	.	.	.	.	.	.	.	.	.	.	.	.	.	.	.	.	.
16Ree/LL	8r	8r	.	8c#L	da	.	8A-L	.	.	.	.	.	.	.	.	.	.	.
16Rcc/JJ	.	.	.	.	.	.	.	.	.	.	.	.	.	.	.	.	.	.
16r	8Rd\ 8Rf	8C#	.	8f	da	.	8c#	.	.	.	.	.	.	.	.	.	.	.
16Ree/	.	.	.	.	.	.	.	.	.	.	.	.	.	.	.	.	.	.
8Rcc/L	16r	16r	.	8c#	da	.	8A-	.	.	.	.	.	.	.	.	.	.	.
.	16Rf\KL	8.C#	.	.	.	.	.	.	.	.	.	.	.	.	.	.	.	.
16Ree/Jk	8Rd\J	.	.	8fJ	da	.	8c#J	.	.	.	.	.	.	.	.	.	.	.
16r	.	.	.	.	.	.	.	.	.	.	.	.	.	.	.	.	.	.
=39	=39	=39	=39	=39	=39	=39	=39	=39	=39	=39	=39	=39	=39	=39	=39	=39	=39	=39
1r	4Rf\	4FF#	.	4A	.	.	4c#X	.	.	4f#	da	.	8c#L	ああ	.	8c#L	ああ	.
.	.	.	.	.	.	.	.	.	.	.	.	.	16AL	だ	.	16AL	だ	.
.	.	.	.	.	.	.	.	.	.	.	.	.	16AJJ	の	.	16AJJ	の	.
.	4r	4r	.	4r	.	.	4r	.	.	4r	.	.	8BL	こう	.	8BL	こう	.
.	.	.	.	.	.	.	.	.	.	.	.	.	16AL	だ	.	16AL	だ	.
.	.	.	.	.	.	.	.	.	.	.	.	.	16AJJ	の	.	16AJJ	の	.
.	8r	2r	.	8r	.	.	8r	.	.	8r	.	.	8c#L	しっ	.	8c#L	しっ	.
.	8Rf\	.	.	8A	.	.	8c#	.	.	8f#	da	.	16AL	た	.	16AL	た	.
.	.	.	.	.	.	.	.	.	.	.	.	.	[16BJJ	も	.	[16BJJ	も	.
.	16r	.	.	16r	.	.	16r	.	.	16r	.	.	16BKL]	ん	.	16BKL]	ん	.
.	8.Rf\	.	.	[16AKL	.	.	[16c#KL	.	.	[16f#KL	da	.	8A	か	.	8A	か	.
.	.	.	.	8AJ]	.	.	8c#J]	.	.	8f#J]	.	.	.	.	.	.	.	.
.	.	.	.	.	.	.	.	.	.	.	.	.	16AJk	さ	.	16AJk	さ	.
=40	=40	=40	=40	=40	=40	=40	=40	=40	=40	=40	=40	=40	=40	=40	=40	=40	=40	=40
4Raa/	4Rf\	4AA	.	4E	.	.	4A	da	.	4c#	.	.	16c#LL	い	.	16c#LL	い	.
.	.	.	.	.	.	.	.	.	.	.	.	.	16c#	さ	.	16c#	さ	.
.	.	.	.	.	.	.	.	.	.	.	.	.	16c#	き	.	16c#	き	.
.	.	.	.	.	.	.	.	.	.	.	.	.	16dJJ	の	.	16dJJ	の	.
4r	4r	4r	.	4r	.	.	4r	.	.	4r	.	.	16c#LL	そ	.	16c#LL	そ	.
.	.	.	.	.	.	.	.	.	.	.	.	.	16A	ら	.	16A	ら	.
.	.	.	.	.	.	.	.	.	.	.	.	.	16A	は	.	16A	は	.
.	.	.	.	.	.	.	.	.	.	.	.	.	[16F#JJ	あ	.	[16F#JJ	あ	.
2r	8r	2r	.	8r	.	.	8r	.	.	8r	.	.	16F#LL]	ー	.	16F#LL]	ー	.
.	.	.	.	.	.	.	.	.	.	.	.	.	16F#J	く	.	16F#J	く	.
.	8Rf\	.	.	8E	.	.	8A	da	.	8c#	.	.	8BJ	てん	.	8BJ	てん	.
.	16r	.	.	4E	.	.	4A	da	.	4c#	.	.	8AL	こう	.	8AL	こう	.
.	8.Rf\	.	.	.	.	.	.	.	.	.	.	.	.	.	.	.	.	.
.	.	.	.	.	.	.	.	.	.	.	.	.	16AL	ほ	.	16AL	ほ	.
.	.	.	.	.	.	.	.	.	.	.	.	.	16AJJ	ら	.	16AJJ	ら	.
=41	=41	=41	=41	=41	=41	=41	=41	=41	=41	=41	=41	=41	=41	=41	=41	=41	=41	=41
1r	4Rf\	4BB	.	4F#	.	.	4B	da	.	4d	.	.	16ALL	ま	.	16ALL	ま	.
.	.	.	.	.	.	.	.	.	.	.	.	.	16A	ど	.	16A	ど	.
.	.	.	.	.	.	.	.	.	.	.	.	.	16A	か	.	16A	か	.
.	.	.	.	.	.	.	.	.	.	.	.	.	16AJJ	ら	.	16AJJ	ら	.
.	4r	4r	.	4r	.	.	4r	.	.	4r	.	.	16A-XLL	の	.	16A-XLL	の	.
.	.	.	.	.	.	.	.	.	.	.	.	.	16A-	ぞ	.	16A-	ぞ	.
.	.	.	.	.	.	.	.	.	.	.	.	.	16A-	い	.	16A-	い	.
.	.	.	.	.	.	.	.	.	.	.	.	.	16A-JJ	た	.	16A-JJ	た	.
.	8r	2r	.	8r	.	.	8r	.	.	8r	.	.	8F#L	ま	.	8F#L	ま	.
.	8Rf\	.	.	8F#	.	.	8B	da	.	8d	.	.	16F#L	てん	.	16F#L	てん	.
.	.	.	.	.	.	.	.	.	.	.	.	.	[16A-JJ	ろう	.	[16A-JJ	ろう	.
.	16r	.	.	16r	.	.	16r	.	.	16r	.	.	16A-LL]	.	.	16A-LL]	.	.
.	8.Rf\	.	.	[16F#KL	.	.	[16BKL	da	.	[16dKL	.	.	16A-	か	.	16A-	か	.
.	.	.	.	8F#J]	.	.	8BJ]	.	.	8dJ]	.	.	16A-	ら	.	16A-	ら	.
.	.	.	.	.	.	.	.	.	.	.	.	.	16A-JJ	す	.	16A-JJ	す	.
=42	=42	=42	=42	=42	=42	=42	=42	=42	=42	=42	=42	=42	=42	=42	=42	=42	=42	=42
1r	4Rf\	4C#	.	4F#	.	.	4A	.	.	4c#	da	.	8AL	りゃ	.	8AL	りゃ	.
.	.	.	.	.	.	.	.	.	.	.	.	.	8B	ち	.	8B	ち	.
.	4r	4r	.	4r	.	.	4r	.	.	4r	.	.	8c#	り	.	8c#	り	.
.	.	.	.	.	.	.	.	.	.	.	.	.	8dJ	の	.	8dJ	の	.
.	8r	2r	.	8AL	.	.	8F#XL	.	.	8AL	la	.	2c#	よう	.	2c#	よう	.
.	8Rf\	.	.	8B	.	.	8G#X	.	.	8B	la	.	.	.	.	.	.	.
.	16r	.	.	8c#X	.	.	8A	.	.	8c#	la	.	.	.	.	.	.	.
.	8.Rf\	.	.	.	.	.	.	.	.	.	.	.	.	.	.	.	.	.
.	.	.	.	8dJ	.	.	8BJ	.	.	8dJ	la	.	.	.	.	.	.	.
=43	=43	=43	=43	=43	=43	=43	=43	=43	=43	=43	=43	=43	=43	=43	=43	=43	=43	=43
16r	4Rf\	4FF#	.	4A	.	.	4c#X	.	.	4f#	da	.	8c#L	イ	.	8c#L	イ	.
16Rcc/	.	.	.	.	.	.	.	.	.	.	.	.	.	.	.	.	.	.
8r	.	.	.	.	.	.	.	.	.	.	.	.	16AL	アン	.	16AL	アン	.
.	.	.	.	.	.	.	.	.	.	.	.	.	16AJJ	も	.	16AJJ	も	.
8Rcc/	4r	4r	.	4r	.	.	4r	.	.	4r	.	.	8BL	カー	.	8BL	カー	.
16r	.	.	.	.	.	.	.	.	.	.	.	.	16AL	ト	.	16AL	ト	.
16Rcc/	.	.	.	.	.	.	.	.	.	.	.	.	16AJJ	も	.	16AJJ	も	.
16r	8r	2r	.	8r	.	.	8r	.	.	8r	.	.	8c#L	む	.	8c#L	む	.
16Rcc/	.	.	.	.	.	.	.	.	.	.	.	.	.	.	.	.	.	.
8r	8Rf\	.	.	8A	.	.	8c#	.	.	8f#	da	.	16AL	かし	.	16AL	かし	.
.	.	.	.	.	.	.	.	.	.	.	.	.	[16BJJ	の	.	[16BJJ	の	.
8Rcc/	16r	.	.	16r	.	.	16r	.	.	16r	.	.	16BKL]	ひと	.	16BKL]	ひと	.
.	8.Rf\	.	.	[16AKL	.	.	[16c#KL	.	.	[16f#KL	da	.	8A	よ	.	8A	よ	.
8r	.	.	.	8AJ]	.	.	8c#J]	.	.	8f#J]	.	.	.	.	.	.	.	.
.	.	.	.	.	.	.	.	.	.	.	.	.	16AJk	な	.	16AJk	な	.
=44	=44	=44	=44	=44	=44	=44	=44	=44	=44	=44	=44	=44	=44	=44	=44	=44	=44	=44
16r	4Rf\	4AA	.	4E	.	.	4A	da	.	4c#	.	.	16c#LL	か	.	16c#LL	か	.
16Rcc/	.	.	.	.	.	.	.	.	.	.	.	.	16c#	ゆ	.	16c#	ゆ	.
8r	.	.	.	.	.	.	.	.	.	.	.	.	16c#	び	.	16c#	び	.
.	.	.	.	.	.	.	.	.	.	.	.	.	16dJJ	た	.	16dJJ	た	.
8Rcc/	4r	4r	.	4r	.	.	4r	.	.	4r	.	.	16c#LL	て	.	16c#LL	て	.
.	.	.	.	.	.	.	.	.	.	.	.	.	16A	て	.	16A	て	.
16r	.	.	.	.	.	.	.	.	.	.	.	.	16A	も	.	16A	も	.
16Rcc/	.	.	.	.	.	.	.	.	.	.	.	.	[16F#JJ	しょう	.	[16F#JJ	しょう	.
16r	8r	2r	.	8r	.	.	8r	.	.	8r	.	.	16F#LL]	.	.	16F#LL]	.	.
16Rcc/	.	.	.	.	.	.	.	.	.	.	.	.	16F#J	が	.	16F#J	が	.
8r	8Rf\	.	.	8E	.	.	8A	da	.	8c#	.	.	8BJ	ない	.	8BJ	ない	.
8Rcc/	16r	.	.	4E	.	.	4A	da	.	4c#	.	.	8AL	の	.	8AL	の	.
.	8.Rf\	.	.	.	.	.	.	.	.	.	.	.	.	.	.	.	.	.
8r	.	.	.	.	.	.	.	.	.	.	.	.	16AL	い	.	16AL	い	.
.	.	.	.	.	.	.	.	.	.	.	.	.	16AJJ	ま	.	16AJJ	ま	.
=45	=45	=45	=45	=45	=45	=45	=45	=45	=45	=45	=45	=45	=45	=45	=45	=45	=45	=45
16r	4Rf\	4BB	.	4F#	.	.	4B	da	.	4d	.	.	16ALL	か	.	16ALL	か	.
16Rcc/	.	.	.	.	.	.	.	.	.	.	.	.	16A	ち	.	16A	ち	.
8r	.	.	.	.	.	.	.	.	.	.	.	.	16A	あ	.	16A	あ	.
.	.	.	.	.	.	.	.	.	.	.	.	.	16AJJ	が	.	16AJJ	が	.
8Rcc/	4r	4r	.	4r	.	.	4r	.	.	4r	.	.	16A-XLL	る	.	16A-XLL	る	.
.	.	.	.	.	.	.	.	.	.	.	.	.	16A-	た	.	16A-	た	.
16r	.	.	.	.	.	.	.	.	.	.	.	.	16A-	め	.	16A-	め	.
16Rcc/	.	.	.	.	.	.	.	.	.	.	.	.	16A-JJ	の	.	16A-JJ	の	.
16r	8r	2r	.	8r	.	.	8r	.	.	8r	.	.	8F#L	お	.	8F#L	お	.
16Rcc/	.	.	.	.	.	.	.	.	.	.	.	.	.	.	.	.	.	.
8r	8Rf\	.	.	8F#	.	.	8B	da	.	8d	.	.	16F#L	べん	.	16F#L	べん	.
.	.	.	.	.	.	.	.	.	.	.	.	.	[16A-JJ	きょう	.	[16A-JJ	きょう	.
8Rcc/	16r	.	.	16r	.	.	16r	.	.	16r	.	.	16A-LL]	.	.	16A-LL]	.	.
.	8.Rf\	.	.	[16F#KL	.	.	[16BKL	da	.	[16dKL	.	.	16A-	ほ	.	16A-	ほ	.
8r	.	.	.	8F#J]	.	.	8BJ]	.	.	8dJ]	.	.	16A-	が	.	16A-	が	.
.	.	.	.	.	.	.	.	.	.	.	.	.	16A-JJ	ら	.	16A-JJ	ら	.
=46	=46	=46	=46	=46	=46	=46	=46	=46	=46	=46	=46	=46	=46	=46	=46	=46	=46	=46
16Rff/LL	8Rf\L	4C#	.	4F#	.	.	4A	.	.	4c#	da	.	8AL	か	.	8AL	か	.
16Rcc/JJ	.	.	.	.	.	.	.	.	.	.	.	.	.	.	.	.	.	.
16r	8Rd\J	.	.	.	.	.	.	.	.	.	.	.	8B	な	.	8B	な	.
16Rff/	.	.	.	.	.	.	.	.	.	.	.	.	.	.	.	.	.	.
8Rcc/L	8r	2.r	.	4r	.	.	4r	.	.	4r	.	.	8c#	ひょ	.	8c#	ひょ	.
16Rff/L	8Rd\	.	.	.	.	.	.	.	.	.	.	.	8dJ	う	.	8dJ	う	.
16Rcc/JJ	.	.	.	.	.	.	.	.	.	.	.	.	.	.	.	.	.	.
16Ree/LL	8r	.	.	2r	.	.	2r	.	.	2r	.	.	2c#	じょう	.	2c#	じょう	.
16Rcc/JJ	.	.	.	.	.	.	.	.	.	.	.	.	.	.	.	.	.	.
16r	8Rd\ 8Rf	.	.	.	.	.	.	.	.	.	.	.	.	.	.	.	.	.
16Ree/	.	.	.	.	.	.	.	.	.	.	.	.	.	.	.	.	.	.
8Rcc/L	16r	.	.	.	.	.	.	.	.	.	.	.	.	.	.	.	.	.
.	16Rf\KL	.	.	.	.	.	.	.	.	.	.	.	.	.	.	.	.	.
16Ree/Jk	8Rd\J	.	.	.	.	.	.	.	.	.	.	.	.	.	.	.	.	.
16r	.	.	.	.	.	.	.	.	.	.	.	.	.	.	.	.	.	.
*v	*v	*	*	*	*	*	*	*	*	*	*	*	*	*	*	*	*	*
=47	=47	=47	=47	=47	=47	=47	=47	=47	=47	=47	=47	=47	=47	=47	=47	=47	=47
8Raa/L	1r	.	1r	.	.	16r	.	.	1r	.	.	1r	.	.	16r	.	.
.	.	.	.	.	.	16F#XLL	お	.	.	.	.	.	.	.	16F#LL	お	.
8Rff/	.	.	.	.	.	16F#	ど	.	.	.	.	.	.	.	16F#	ど	.
.	.	.	.	.	.	16F#JJ	る	.	.	.	.	.	.	.	16F#JJ	る	.
8Rff/	.	.	.	.	.	16EKL	あ	.	.	.	.	.	.	.	16EKL	あ	.
.	.	.	.	.	.	8F#	ほう	.	.	.	.	.	.	.	8F#	ほう	.
8Rff/J	.	.	.	.	.	.	.	.	.	.	.	.	.	.	.	.	.
.	.	.	.	.	.	16EJk	に	.	.	.	.	.	.	.	16EJk	に	.
8r	.	.	.	.	.	16F#LL	み	.	.	.	.	.	.	.	16F#LL	み	.
.	.	.	.	.	.	16F#	る	.	.	.	.	.	.	.	16F#	る	.
8Rff/L	.	.	.	.	.	16E	あ	.	.	.	.	.	.	.	16E	あ	.
.	.	.	.	.	.	[16F#JJ	ほう	.	.	.	.	.	.	.	[16F#JJ	ほう	.
8Rff/	.	.	.	.	.	16F#LL]	.	.	.	.	.	.	.	.	16F#LL]	.	.
.	.	.	.	.	.	16E	わ	.	.	.	.	.	.	.	16E	わ	.
8Rff/J	.	.	.	.	.	16F#	れ	.	.	.	.	.	.	.	16F#	れ	.
.	.	.	.	.	.	16EJJ	ら	.	.	.	.	.	.	.	16EJJ	ら	.
=48	=48	=48	=48	=48	=48	=48	=48	=48	=48	=48	=48	=48	=48	=48	=48	=48	=48
8r	1r	.	1r	.	.	16F#XLL	そ	.	1r	.	.	1r	.	.	16F#LL	そ	.
.	.	.	.	.	.	16F#	れ	.	.	.	.	.	.	.	16F#	れ	.
8Rff/L	.	.	.	.	.	16F#	を	.	.	.	.	.	.	.	16F#	を	.
.	.	.	.	.	.	16F#JJ	は	.	.	.	.	.	.	.	16F#JJ	は	.
8Rff/	.	.	.	.	.	16AKL	た	.	.	.	.	.	.	.	16AKL	た	.
.	.	.	.	.	.	8A	か	.	.	.	.	.	.	.	8A	か	.
8Rff/J	.	.	.	.	.	.	.	.	.	.	.	.	.	.	.	.	.
.	.	.	.	.	.	16AJk	ら	.	.	.	.	.	.	.	16AJk	ら	.
8r	.	.	.	.	.	8G#XL	わ	.	.	.	.	.	.	.	8G#XL	わ	.
8Rff/L	.	.	.	.	.	16F#L	らう	.	.	.	.	.	.	.	16F#L	らう	.
.	.	.	.	.	.	[16F#JJ	あ	.	.	.	.	.	.	.	[16F#JJ	あ	.
8Rff/	.	.	.	.	.	16F#LL]	ほ	.	.	.	.	.	.	.	16F#LL]	ほ	.
.	.	.	.	.	.	16EJ	う	.	.	.	.	.	.	.	16EJ	う	.
8Rff/J	.	.	.	.	.	8EJ	で	.	.	.	.	.	.	.	8EJ	で	.
=49	=49	=49	=49	=49	=49	=49	=49	=49	=49	=49	=49	=49	=49	=49	=49	=49	=49
16r	1r	.	1r	.	.	8F#XL	かい	.	1r	.	.	1r	.	.	8F#L	かい	.
16Rcc/KL	.	.	.	.	.	.	.	.	.	.	.	.	.	.	.	.	.
8Rff/J	.	.	.	.	.	16F#L	じい	.	.	.	.	.	.	.	16F#L	じい	.
.	.	.	.	.	.	16F#JJ	しき	.	.	.	.	.	.	.	16F#JJ	しき	.
8Rcc/L 8Rff	.	.	.	.	.	16F#LL	か	.	.	.	.	.	.	.	16F#LL	か	.
.	.	.	.	.	.	16F#	か	.	.	.	.	.	.	.	16F#	か	.
16Rff/L	.	.	.	.	.	16F#	え	.	.	.	.	.	.	.	16F#	え	.
16Rcc/JJ	.	.	.	.	.	[16F#JJ	こん	.	.	.	.	.	.	.	[16F#JJ	こん	.
16r	.	.	.	.	.	16F#KL]	.	.	.	.	.	.	.	.	16F#KL]	.	.
16Rcc/KL	.	.	.	.	.	8F#	で	.	.	.	.	.	.	.	8F#	で	.
8Rff/J	.	.	.	.	.	.	.	.	.	.	.	.	.	.	.	.	.
.	.	.	.	.	.	16F#Jk	は	.	.	.	.	.	.	.	16F#Jk	は	.
8Rcc/L 8Rff	.	.	.	.	.	8F#L	もう	.	.	.	.	.	.	.	8F#L	もう	.
8Rff/J	.	.	.	.	.	16F#L	ま	.	.	.	.	.	.	.	16F#L	ま	.
.	.	.	.	.	.	16F#JJ	もう	.	.	.	.	.	.	.	16F#JJ	もう	.
=50	=50	=50	=50	=50	=50	=50	=50	=50	=50	=50	=50	=50	=50	=50	=50	=50	=50
16r	1r	.	1r	.	.	16F#XLL	すり	.	1r	.	.	1r	.	.	16F#LL	すり	.
16Rcc/KL	.	.	.	.	.	16F#	へっ	.	.	.	.	.	.	.	16F#	へっ	.
8Rff/J	.	.	.	.	.	16F#	て	.	.	.	.	.	.	.	16F#	て	.
.	.	.	.	.	.	16F#JJ	の	.	.	.	.	.	.	.	16F#JJ	の	.
8Rcc/L 8Rff	.	.	.	.	.	8AL	こる	.	.	.	.	.	.	.	8AL	こる	.
16Rff/L	.	.	.	.	.	16AL	すっ	.	.	.	.	.	.	.	16AL	すっ	.
16Rcc/JJ	.	.	.	.	.	16AJJ	ぱい	.	.	.	.	.	.	.	16AJJ	ぱい	.
16r	.	.	.	.	.	8BL	ぶ	.	.	.	.	.	.	.	8BL	ぶ	.
16Rcc/KL	.	.	.	.	.	.	.	.	.	.	.	.	.	.	.	.	.
8Rff/J	.	.	.	.	.	16BL	ど	.	.	.	.	.	.	.	16BL	ど	.
.	.	.	.	.	.	[16c#XJJ	う	.	.	.	.	.	.	.	[16c#JJ	う	.
8Rcc/L 8Rff	.	.	.	.	.	4c#]	.	.	.	.	.	.	.	.	4c#]	.	.
8Rff/J	.	.	.	.	.	.	.	.	.	.	.	.	.	.	.	.	.
=51	=51	=51	=51	=51	=51	=51	=51	=51	=51	=51	=51	=51	=51	=51	=51	=51	=51
*^	*	*	*	*	*	*	*	*	*	*	*	*	*	*	*	*	*
16r	8r	1r	.	8r	.	.	8F#XL	.	.	1r	.	.	1r	.	.	8r	.	.
16Rcc/KL	.	.	.	.	.	.	.	.	.	.	.	.	.	.	.	.	.	.
8Rff/J	8Rd\	.	.	8c#X	ひざ	.	8A	.	.	.	.	.	.	.	.	8c#	ひざ	.
8Rcc/L 8Rff	8r	.	.	16c#KL	か	.	8c#X	.	.	.	.	.	.	.	.	16c#KL	か	.
.	.	.	.	8c#	か	.	.	.	.	.	.	.	.	.	.	8c#	か	.
16Rff/L	8Rd\	.	.	.	.	.	8F#J	.	.	.	.	.	.	.	.	.	.	.
16Rcc/JJ	.	.	.	16c#Jk	え	.	.	.	.	.	.	.	.	.	.	16c#Jk	え	.
16r	8r	.	.	8BL	ても	.	8AL	.	.	.	.	.	.	.	.	8BL	ても	.
16Rcc/KL	.	.	.	.	.	.	.	.	.	.	.	.	.	.	.	.	.	.
8Rff/J	8Rd\	.	.	16BL	なん	.	8c#	.	.	.	.	.	.	.	.	16BL	なん	.
.	.	.	.	[16c#JJ	も	.	.	.	.	.	.	.	.	.	.	[16c#JJ	も	.
8Rcc/L 8Rff	8r	.	.	16c#KL]	ねえ	.	8F#	.	.	.	.	.	.	.	.	16c#KL]	ねえ	.
.	.	.	.	8c#	ほ	.	.	.	.	.	.	.	.	.	.	8c#	ほ	.
8Rff/J	8Rd\	.	.	.	.	.	8AJ	.	.	.	.	.	.	.	.	.	.	.
.	.	.	.	16BJk	ら	.	.	.	.	.	.	.	.	.	.	16BJk	ら	.
=52	=52	=52	=52	=52	=52	=52	=52	=52	=52	=52	=52	=52	=52	=52	=52	=52	=52	=52
16r	8r	1r	.	16c#XLL	な	.	8EL	.	.	1r	.	.	1r	.	.	16c#LL	な	.
16Rcc/KL	.	.	.	16c#	が	.	.	.	.	.	.	.	.	.	.	16c#	が	.
8Rff/J	8Rd\	.	.	16c#	い	.	8A	.	.	.	.	.	.	.	.	16c#	い	.
.	.	.	.	16c#JJ	ま	.	.	.	.	.	.	.	.	.	.	16c#JJ	ま	.
8Rcc/L 8Rff	8r	.	.	16c#LL	え	.	8B	.	.	.	.	.	.	.	.	16c#LL	え	.
.	.	.	.	16c#	が	.	.	.	.	.	.	.	.	.	.	16c#	が	.
16Rff/L	8Rd\	.	.	16c#	み	.	8EJ	.	.	.	.	.	.	.	.	16c#	み	.
16Rcc/JJ	.	.	.	16c#JJ	で	.	.	.	.	.	.	.	.	.	.	16c#JJ	で	.
16r	8r	.	.	8dL	まえ	.	8AL	.	.	.	.	.	.	.	.	8dL	まえ	.
16Rcc/KL	.	.	.	.	.	.	.	.	.	.	.	.	.	.	.	.	.	.
8Rff/J	8Rd\	.	.	16c#L	が	.	8B	.	.	.	.	.	.	.	.	16c#L	が	.
.	.	.	.	16BJJ	み	.	.	.	.	.	.	.	.	.	.	16BJJ	み	.
8Rcc/L 8Rff	8r	.	.	16BKL	え	.	8E	.	.	.	.	.	.	.	.	16BKL	え	.
.	.	.	.	8A	ね	.	.	.	.	.	.	.	.	.	.	8A	ね	.
8Rff/J	8Rd\	.	.	.	.	.	8BJ	.	.	.	.	.	.	.	.	.	.	.
.	.	.	.	16F#Jk	え	.	.	.	.	.	.	.	.	.	.	16F#Jk	え	.
=53	=53	=53	=53	=53	=53	=53	=53	=53	=53	=53	=53	=53	=53	=53	=53	=53	=53	=53
16r	8r	1r	.	8AL	わ	.	8DL	.	.	1r	.	.	1r	.	.	8AL	わ	.
16Rcc/KL	.	.	.	.	.	.	.	.	.	.	.	.	.	.	.	.	.	.
8Rff/J	8Rd\	.	.	16F#L	らっ	.	8E	.	.	.	.	.	.	.	.	16F#L	らっ	.
.	.	.	.	[16AJJ	ち	.	.	.	.	.	.	.	.	.	.	[16AJJ	ち	.
8Rcc/L 8Rff	8r	.	.	16AKL]	.	.	8A	.	.	.	.	.	.	.	.	16AKL]	.	.
.	.	.	.	8A	まう	.	.	.	.	.	.	.	.	.	.	8A	まう	.
16Rff/L	8Rd\	.	.	.	.	.	8DJ	.	.	.	.	.	.	.	.	.	.	.
16Rcc/JJ	.	.	.	16F#Jk	ね	.	.	.	.	.	.	.	.	.	.	16F#Jk	ね	.
16r	8r	.	.	8AL	ぱっ	.	8EL	.	.	.	.	.	.	.	.	8AL	ぱっ	.
16Rcc/KL	.	.	.	.	.	.	.	.	.	.	.	.	.	.	.	.	.	.
8Rff/J	8Rd\	.	.	16AL	と	.	8A	.	.	.	.	.	.	.	.	16AL	と	.
.	.	.	.	16AJJ	わ	.	.	.	.	.	.	.	.	.	.	16AJJ	わ	.
8Rcc/L 8Rff	8r	.	.	8AL	き	.	8D	.	.	.	.	.	.	.	.	8AL	き	.
8Rff/J	8Rd\	.	.	16AL	たっ	.	8AJ	.	.	.	.	.	.	.	.	16AL	たっ	.
.	.	.	.	16AJJ	て	.	.	.	.	.	.	.	.	.	.	16AJJ	て	.
=54	=54	=54	=54	=54	=54	=54	=54	=54	=54	=54	=54	=54	=54	=54	=54	=54	=54	=54
16r	8r	2r	.	8BL	ふ	.	8EL	.	.	1r	.	.	1r	.	.	8BL	ふ	.
16Rcc/KL	.	.	.	.	.	.	.	.	.	.	.	.	.	.	.	.	.	.
8Rff/J	8Rd\	.	.	16BL	わっ	.	8A	.	.	.	.	.	.	.	.	16BL	わっ	.
.	.	.	.	16BJJ	と	.	.	.	.	.	.	.	.	.	.	16BJJ	と	.
8Rcc/L 8Rff	8r	.	.	16BKL	き	.	8B	.	.	.	.	.	.	.	.	16BKL	き	.
.	.	.	.	8B	え	.	.	.	.	.	.	.	.	.	.	8B	え	.
16Rff/L	8Rd\	.	.	.	.	.	8EJ	.	.	.	.	.	.	.	.	.	.	.
16Rcc/JJ	.	.	.	[16c#XJk	ちゃ	.	.	.	.	.	.	.	.	.	.	[16c#Jk	ちゃ	.
16r	8r	8r	.	16c#LL]	える	.	8AL	.	.	.	.	.	.	.	.	16c#LL]	える	.
16Rcc/KL	.	.	.	16c#	こん	.	.	.	.	.	.	.	.	.	.	16c#	こん	.
8Rff/J	8Rd\	8C#	.	16c#	な	.	8B	.	.	.	.	.	.	.	.	16c#	な	.
.	.	.	.	16dJJ	りん	.	.	.	.	.	.	.	.	.	.	16dJJ	りん	.
8Rcc/L 8Rff	16r	16r	.	4c#	ね	.	8E	.	.	.	.	.	.	.	.	4c#	ね	.
.	16Rf\KL	8.C#	.	.	.	.	.	.	.	.	.	.	.	.	.	.	.	.
8Rff/J	8Rd\J	.	.	.	.	.	8BJ	.	.	.	.	.	.	.	.	.	.	.
=55	=55	=55	=55	=55	=55	=55	=55	=55	=55	=55	=55	=55	=55	=55	=55	=55	=55	=55
8Raa/L	4Rf\	4FF#	.	8F#L	.	.	8F#XL	.	.	8aL	.	.	8f#L	あい	.	8f#L	あい	.
8Rgg/J	.	.	.	8c#X	.	.	8A	.	.	16eL	.	.	16c#L	さ	.	16c#L	さ	.
.	.	.	.	.	.	.	.	.	.	16eJJ	.	.	16c#JJ	れ	.	16c#JJ	れ	.
8Rcc/L	4r	4r	.	8F#	.	.	8c#X	.	.	8dL	.	.	8BL	たい	.	8BL	たい	.
16Rgg/L	.	.	.	8c#J	.	.	8F#J	.	.	16dL	.	.	16BL	な	.	16BL	な	.
16Rcc/JJ	.	.	.	.	.	.	.	.	.	16dJJ	.	.	16BJJ	ら	.	16BJJ	ら	.
16r	8r	8r	.	16BLL	.	.	8AL	.	.	8dL	.	.	8BL	そう	.	8BL	そう	.
16Rcc/KL	.	.	.	16AJ	.	.	.	.	.	.	.	.	.	.	.	.	.	.
8Rgg/J	8Rf\	8FF#	.	8F#J	.	.	8c#	.	.	16dL	.	.	16BL	い	.	16BL	い	.
.	.	.	.	.	.	.	.	.	.	[16dJJ	.	.	[16BJJ	おう	.	[16BJJ	おう	.
8Rcc/L	16r	16r	.	8AL	.	.	8F#	.	.	16dKL]	.	.	16BKL]	.	.	16BKL]	.	.
.	8.Rf\	8.FF#	.	.	.	.	.	.	.	8c#	.	.	8A	ぜ	.	8A	ぜ	.
8Rgg/J	.	.	.	8BJ	.	.	8AJ	.	.	.	.	.	.	.	.	.	.	.
.	.	.	.	.	.	.	.	.	.	16c#Jk	.	.	16AJk	お	.	16AJk	お	.
=56	=56	=56	=56	=56	=56	=56	=56	=56	=56	=56	=56	=56	=56	=56	=56	=56	=56	=56
16r	4Rf\	4AA	.	8F#L	.	.	8EL	.	.	8aL	.	.	8f#L	もっ	.	8f#L	もっ	.
16Rcc/KL	.	.	.	.	.	.	.	.	.	.	.	.	.	.	.	.	.	.
8Rgg/J	.	.	.	8c#X	.	.	8A	.	.	16aL	.	.	16f#L	て	.	16f#L	て	.
.	.	.	.	.	.	.	.	.	.	16aJJ	.	.	16f#JJ	る	.	16f#JJ	る	.
8Rcc/L	4r	4r	.	8F#	.	.	8B	.	.	16eKL	.	.	16c#KL	だ	.	16c#KL	だ	.
.	.	.	.	.	.	.	.	.	.	8e	.	.	8c#	け	.	8c#	け	.
16Rgg/L	.	.	.	8c#J	.	.	8EJ	.	.	.	.	.	.	.	.	.	.	.
16Rcc/JJ	.	.	.	.	.	.	.	.	.	16eJk	.	.	16c#Jk	じゃ	.	16c#Jk	じゃ	.
16r	8r	8r	.	16BLL	.	.	8AL	.	.	8dL	.	.	8BL	つ	.	8BL	つ	.
16Rcc/KL	.	.	.	16AJ	.	.	.	.	.	.	.	.	.	.	.	.	.	.
8Rgg/J	8Rf\	8AA	.	8F#J	.	.	8B	.	.	16dL	.	.	16BL	たわ	.	16BL	たわ	.
.	.	.	.	.	.	.	.	.	.	16dJJ	.	.	16BJJ	ら	.	16BJJ	ら	.
8Rcc/L	16r	16r	.	8AL	.	.	8E	.	.	16dKL	.	.	16BKL	ない	.	16BKL	ない	.
.	8.Rf\	8.AA	.	.	.	.	.	.	.	8c#	.	.	8A	ね	.	8A	ね	.
8Rgg/J	.	.	.	8BJ	.	.	8BJ	.	.	.	.	.	.	.	.	.	.	.
.	.	.	.	.	.	.	.	.	.	16AJk	.	.	16F#Jk	え	.	16F#Jk	え	.
=57	=57	=57	=57	=57	=57	=57	=57	=57	=57	=57	=57	=57	=57	=57	=57	=57	=57	=57
16r	4Rf\	4BB	.	8F#L	.	.	8DL	.	.	16aLL	.	.	16f#LL	い	.	16f#LL	い	.
16Rcc/KL	.	.	.	.	.	.	.	.	.	16a	.	.	16f#	え	.	16f#	え	.
8Rgg/J	.	.	.	8c#X	.	.	8E	.	.	16a	.	.	16f#	ん	.	16f#	ん	.
.	.	.	.	.	.	.	.	.	.	16aJJ	.	.	16f#JJ	の	.	16f#JJ	の	.
8Rcc/L	4r	4r	.	8F#	.	.	8A	.	.	16eLL	.	.	16c#LL	しゅ	.	16c#LL	しゅ	.
.	.	.	.	.	.	.	.	.	.	16e	.	.	16c#	く	.	16c#	く	.
16Rgg/L	.	.	.	8c#J	.	.	8DJ	.	.	16e	.	.	16c#	じょ	.	16c#	じょ	.
16Rcc/JJ	.	.	.	.	.	.	.	.	.	16eJJ	.	.	16c#JJ	も	.	16c#JJ	も	.
16r	8r	8r	.	16BLL	.	.	8EL	.	.	8dL	.	.	8BL	そっ	.	8BL	そっ	.
16Rcc/KL	.	.	.	16AJ	.	.	.	.	.	.	.	.	.	.	.	.	.	.
8Rgg/J	8Rf\	8BB	.	8F#J	.	.	8A	.	.	16dL	.	.	16BL	ぽ	.	16BL	ぽ	.
.	.	.	.	.	.	.	.	.	.	[16dJJ	.	.	[16BJJ	むい	.	[16BJJ	むい	.
8Rcc/L	16r	16r	.	8AL	.	.	8D	.	.	16dKL]	.	.	16BKL]	.	.	16BKL]	.	.
.	8.Rf\	8.BB	.	.	.	.	.	.	.	8c#	.	.	8A	て	.	8A	て	.
8Rgg/J	.	.	.	8BJ	.	.	8AJ	.	.	.	.	.	.	.	.	.	.	.
.	.	.	.	.	.	.	.	.	.	16EJk	.	.	16C#Jk	て	.	16C#Jk	て	.
=58	=58	=58	=58	=58	=58	=58	=58	=58	=58	=58	=58	=58	=58	=58	=58	=58	=58	=58
16r	4Rf\	4E	.	8c#XL	.	.	8EL	.	.	16ALL	.	.	16F#LL	ん	.	16F#LL	ん	.
16Rcc/KL	.	.	.	.	.	.	.	.	.	16A	.	.	16F#	ご	.	16F#	ご	.
8Rgg/J	.	.	.	8f#	.	.	8A	.	.	16A	.	.	16F#	く	.	16F#	く	.
.	.	.	.	.	.	.	.	.	.	16AJJ	.	.	16F#JJ	は	.	16F#JJ	は	.
8Rcc/L	4r	4r	.	8c#	.	.	8B	.	.	16ALL	.	.	16F#LL	と	.	16F#LL	と	.
.	.	.	.	.	.	.	.	.	.	16A	.	.	16F#	お	.	16F#	お	.
16Rgg/L	.	.	.	8f#J	.	.	8EJ	.	.	16A	.	.	16F#	く	.	16F#	く	.
16Rcc/JJ	.	.	.	.	.	.	.	.	.	16AJJ	.	.	16F#JJ	む	.	16F#JJ	む	.
16r	8r	8r	.	16f#LL	.	.	8AL	.	.	8dL	.	.	8AL	こう	.	8AL	こう	.
16Rcc/KL	.	.	.	16eJ	.	.	.	.	.	.	.	.	.	.	.	.	.	.
8Rgg/J	8Rf\	8E	.	8c#J	.	.	8B	.	.	16dL	.	.	16AL	の	.	16AL	の	.
.	.	.	.	.	.	.	.	.	.	[16dJJ	.	.	[16A-XJJ	ほう	.	[16A-XJJ	ほう	.
8Rcc/L	16r	16r	.	8eL	.	.	8E	.	.	16dKL]	.	.	16A-KL]	.	.	16A-KL]	.	.
.	8.Rf\	8.E	.	.	.	.	.	.	.	8.c#J	.	.	8.F#J	へ	.	8.F#J	へ	.
8Rgg/J	.	.	.	8c#J	.	.	8BJ	.	.	.	.	.	.	.	.	.	.	.
=59	=59	=59	=59	=59	=59	=59	=59	=59	=59	=59	=59	=59	=59	=59	=59	=59	=59	=59
16r	4Rf\	4FF#	.	8F#L	.	.	8F#XL	.	.	1r	.	.	4r	.	.	4r	.	.
16Rcc/KL	.	.	.	.	.	.	.	.	.	.	.	.	.	.	.	.	.	.
8Rgg/J	.	.	.	8c#X	.	.	8A	.	.	.	.	.	.	.	.	.	.	.
8Rcc/L	4r	4r	.	8F#	.	.	8c#X	.	.	.	.	.	8.F#L	あぁ	.	8.F#L	あぁ	.
16Rgg/L	.	.	.	8c#J	.	.	8F#J	.	.	.	.	.	.	.	.	.	.	.
16Rcc/JJ	.	.	.	.	.	.	.	.	.	.	.	.	16C#Jk	わ	.	16C#Jk	わ	.
16r	8r	8r	.	16BLL	.	.	8AL	.	.	.	.	.	8F#L	かっ	.	8F#L	かっ	.
16Rcc/KL	.	.	.	16AJ	.	.	.	.	.	.	.	.	.	.	.	.	.	.
8Rgg/J	8Rf\	8FF#	.	8F#J	.	.	8c#	.	.	.	.	.	16F#L	て	.	16F#L	て	.
.	.	.	.	.	.	.	.	.	.	.	.	.	[16F#JJ	るっ	.	[16F#JJ	るっ	.
8Rcc/L	16r	16r	.	8AL	.	.	8F#	.	.	.	.	.	16F#KL]	.	.	16F#KL]	.	.
.	8.Rf\	8.FF#	.	.	.	.	.	.	.	.	.	.	8F#	て	.	8F#	て	.
8Rgg/J	.	.	.	8BJ	.	.	8AJ	.	.	.	.	.	.	.	.	.	.	.
.	.	.	.	.	.	.	.	.	.	.	.	.	16C#Jk	ふ	.	16C#Jk	ふ	.
=60	=60	=60	=60	=60	=60	=60	=60	=60	=60	=60	=60	=60	=60	=60	=60	=60	=60	=60
16r	4Rf\	4AA	.	8F#L	.	.	8EL	.	.	1r	.	.	16F#LL	か	.	16F#LL	か	.
16Rcc/KL	.	.	.	.	.	.	.	.	.	.	.	.	16F#	く	.	16F#	く	.
8Rgg/J	.	.	.	8c#X	.	.	8A	.	.	.	.	.	16F#	こ	.	16F#	こ	.
.	.	.	.	.	.	.	.	.	.	.	.	.	16F#JJ	ろ	.	16F#JJ	ろ	.
8Rcc/L	4r	4r	.	8F#	.	.	8B	.	.	.	.	.	16F#KL	が	.	16F#KL	が	.
.	.	.	.	.	.	.	.	.	.	.	.	.	8c#	る	.	8c#	る	.
16Rgg/L	.	.	.	8c#J	.	.	8EJ	.	.	.	.	.	.	.	.	.	.	.
16Rcc/JJ	.	.	.	.	.	.	.	.	.	.	.	.	16EJk	お	.	16EJk	お	.
16r	8r	8r	.	16BLL	.	.	8AL	.	.	.	.	.	16F#LL	れ	.	16F#LL	れ	.
16Rcc/KL	.	.	.	16AJ	.	.	.	.	.	.	.	.	16F#	は	.	16F#	は	.
8Rgg/J	8Rf\	8AA	.	8F#J	.	.	8B	.	.	.	.	.	16F#	ま	.	16F#	ま	.
.	.	.	.	.	.	.	.	.	.	.	.	.	16F#JJ	け	.	16F#JJ	け	.
8Rcc/L	16r	16r	.	8AL	.	.	8E	.	.	.	.	.	16F#KL	い	.	16F#KL	い	.
.	8.Rf\	8.AA	.	.	.	.	.	.	.	.	.	.	8c#	ぬ	.	8c#	ぬ	.
8Rgg/J	.	.	.	8BJ	.	.	8BJ	.	.	.	.	.	.	.	.	.	.	.
.	.	.	.	.	.	.	.	.	.	.	.	.	16C#Jk	た	.	16C#Jk	た	.
=61	=61	=61	=61	=61	=61	=61	=61	=61	=61	=61	=61	=61	=61	=61	=61	=61	=61	=61
16r	4Rf\	4BB	.	8F#L	.	.	8DL	.	.	1r	.	.	16F#LL	だ	.	16F#LL	だ	.
16Rcc/KL	.	.	.	.	.	.	.	.	.	.	.	.	16E	ど	.	16E	ど	.
8Rgg/J	.	.	.	8c#X	.	.	8E	.	.	.	.	.	16F#	こ	.	16F#	こ	.
.	.	.	.	.	.	.	.	.	.	.	.	.	16EJJ	で	.	16EJJ	で	.
8Rcc/L	4r	4r	.	8F#	.	.	8A	.	.	.	.	.	16F#LL	も	.	16F#LL	も	.
.	.	.	.	.	.	.	.	.	.	.	.	.	16E	い	.	16E	い	.
16Rgg/L	.	.	.	8c#J	.	.	8DJ	.	.	.	.	.	16F#	い	.	16F#	い	.
16Rcc/JJ	.	.	.	.	.	.	.	.	.	.	.	.	16EJJ	か	.	16EJJ	か	.
16r	8r	8r	.	16BLL	.	.	8EL	.	.	.	.	.	16F#LL	ら	.	16F#LL	ら	.
16Rcc/KL	.	.	.	16AJ	.	.	.	.	.	.	.	.	16E	と	.	16E	と	.
8Rgg/J	8Rf\	8BB	.	8F#J	.	.	8A	.	.	.	.	.	16F#	お	.	16F#	お	.
.	.	.	.	.	.	.	.	.	.	.	.	.	16EJJ	く	.	16EJJ	く	.
8Rcc/L	16r	16r	.	8AL	.	.	8D	.	.	.	.	.	16F#LL	へ	.	16F#LL	へ	.
.	8.Rf\	8.BB	.	.	.	.	.	.	.	.	.	.	16E	い	.	16E	い	.
8Rgg/J	.	.	.	8BJ	.	.	8AJ	.	.	.	.	.	16C#	き	.	16C#	き	.
.	.	.	.	.	.	.	.	.	.	.	.	.	[16F#JJ	たい	.	[16F#JJ	たい	.
=62	=62	=62	=62	=62	=62	=62	=62	=62	=62	=62	=62	=62	=62	=62	=62	=62	=62	=62
16Rff/LL	4Rf\	4E	.	8c#XL	.	.	8EL	.	.	1r	.	.	16F#KL]	ん	.	16F#KL]	ん	.
16Rcc/JJ	.	.	.	.	.	.	.	.	.	.	.	.	8F#J	だ	.	8F#J	だ	.
16r	.	.	.	8f#	.	.	8A	.	.	.	.	.	.	.	.	.	.	.
16Rff/	.	.	.	.	.	.	.	.	.	.	.	.	16r	.	.	16r	.	.
8Rcc/L	4r	4r	.	8c#	.	.	8B	.	.	.	.	.	8.r	.	.	8.r	.	.
16Rff/L	.	.	.	8f#J	.	.	8EJ	.	.	.	.	.	.	.	.	.	.	.
16Rcc/JJ	.	.	.	.	.	.	.	.	.	.	.	.	16C#	そ	.	16C#	そ	.
16Ree/LL	8r	8r	.	2r	.	.	2r	.	.	.	.	.	16c#LL	れ	.	16c#LL	れ	.
16Rcc/JJ	.	.	.	.	.	.	.	.	.	.	.	.	16c#	だ	.	16c#	だ	.
16r	8Rf\	8E	.	.	.	.	.	.	.	.	.	.	16d	け	.	16d	け	.
16Ree/	.	.	.	.	.	.	.	.	.	.	.	.	[16c#JJ	なん	.	[16c#JJ	なん	.
8Rcc/L	16r	16r	.	.	.	.	.	.	.	.	.	.	16c#KL]	.	.	16c#KL]	.	.
.	8.Rf\	8.E	.	.	.	.	.	.	.	.	.	.	8AJ	だ	.	8AJ	だ	.
16Ree/Jk	.	.	.	.	.	.	.	.	.	.	.	.	.	.	.	.	.	.
16r	.	.	.	.	.	.	.	.	.	.	.	.	16r	.	.	16r	.	.
=63	=63	=63	=63	=63	=63	=63	=63	=63	=63	=63	=63	=63	=63	=63	=63	=63	=63	=63
8Raa/L	4Rf\	4D	.	4F#	.	.	4A	.	.	4A	da	.	4r	.	.	4r	.	.
8Rgg/J	.	.	.	.	.	.	.	.	.	.	.	.	.	.	.	.	.	.
8Rcc/L	4r	4D	.	4F#	.	.	4A	.	.	4A	da	.	16F#LL	みみ	.	16F#LL	みみ	.
.	.	.	.	.	.	.	.	.	.	.	.	.	16F#	を	.	16F#	を	.
16Rgg/L	.	.	.	.	.	.	.	.	.	.	.	.	16F#	す	.	16F#	す	.
16Rcc/JJ	.	.	.	.	.	.	.	.	.	.	.	.	[16BJJ	ま	.	[16BJJ	ま	.
16r	8r	4E	.	4G#X	.	.	4B	.	.	4B	da	.	8BL]	.	.	8BL]	.	.
16Rcc/KL	.	.	.	.	.	.	.	.	.	.	.	.	.	.	.	.	.	.
8Rgg/J	8Rf\	.	.	.	.	.	.	.	.	.	.	.	8AJ	せ	.	8AJ	せ	.
8Rcc/L	16r	4E	.	4G#	.	.	4B	.	.	4B	da	.	8G#XL	とお	.	8G#XL	とお	.
.	8.Rf\	.	.	.	.	.	.	.	.	.	.	.	.	.	.	.	.	.
8Rgg/J	.	.	.	.	.	.	.	.	.	.	.	.	16AL	く	.	16AL	く	.
.	.	.	.	.	.	.	.	.	.	.	.	.	[16G#JJ	で	.	[16G#JJ	で	.
=64	=64	=64	=64	=64	=64	=64	=64	=64	=64	=64	=64	=64	=64	=64	=64	=64	=64	=64
16r	4Rf\	4F#	.	4A	.	.	4f#X	.	.	4c#	da	.	16G#KL]	い	.	16G#KL]	い	.
16Rcc/KL	.	.	.	.	.	.	.	.	.	.	.	.	8.F#J	ま	.	8.F#J	ま	.
8Rgg/J	.	.	.	.	.	.	.	.	.	.	.	.	.	.	.	.	.	.
8Rcc/L	4r	4F#	.	4A	.	.	4f#	.	.	16eLL	ひ	.	16c#LL	ひ	.	16c#LL	ひ	.
.	.	.	.	.	.	.	.	.	.	16e	び	.	16c#	び	.	16c#	び	.
16Rgg/L	.	.	.	.	.	.	.	.	.	16e	き	.	16c#	き	.	16c#	き	.
16Rcc/JJ	.	.	.	.	.	.	.	.	.	[16f#JJ	だ	.	[16dJJ	だ	.	[16dJJ	だ	.
16r	8r	4AA	.	4c#X	.	.	4e	.	.	8f#L]	.	.	8dL]	.	.	8dL]	.	.
16Rcc/KL	.	.	.	.	.	.	.	.	.	.	.	.	.	.	.	.	.	.
8Rgg/J	8Rf\	.	.	.	.	.	.	.	.	8eJ	した	.	8c#J	した	.	8c#J	した	.
8Rcc/L	16r	4AA	.	4c#	.	.	4e	.	.	8dL	おと	.	8BL	おと	.	8BL	おと	.
.	8.Rf\	.	.	.	.	.	.	.	.	.	.	.	.	.	.	.	.	.
8Rgg/J	.	.	.	.	.	.	.	.	.	16eL	を	.	16c#L	を	.	16c#L	を	.
.	.	.	.	.	.	.	.	.	.	[16dJJ	のが	.	[16BJJ	のが	.	[16BJJ	のが	.
=65	=65	=65	=65	=65	=65	=65	=65	=65	=65	=65	=65	=65	=65	=65	=65	=65	=65	=65
16r	4Rf\	4BB	.	4d	.	.	4f#X	.	.	16dKL]	.	.	16BKL]	.	.	16BKL]	.	.
16Rcc/KL	.	.	.	.	.	.	.	.	.	8.c#J	すな	.	8.AJ	すな	.	8.AJ	すな	.
8Rgg/J	.	.	.	.	.	.	.	.	.	.	.	.	.	.	.	.	.	.
8Rcc/L	4r	4BB	.	4d	.	.	4f#	.	.	4r	.	.	16ALL	こ	.	16ALL	こ	.
.	.	.	.	.	.	.	.	.	.	.	.	.	16A	きゅ	.	16A	きゅ	.
16Rgg/L	.	.	.	.	.	.	.	.	.	.	.	.	16A	う	.	16A	う	.
16Rcc/JJ	.	.	.	.	.	.	.	.	.	.	.	.	[16G#XJJ	を	.	[16G#XJJ	を	.
16r	8r	4C#	.	4c#X	.	.	4e#X	.	.	4B	da	.	8G#L]	.	.	8G#L]	.	.
16Rcc/KL	.	.	.	.	.	.	.	.	.	.	.	.	.	.	.	.	.	.
8Rgg/J	8Rf\	.	.	.	.	.	.	.	.	.	.	.	8AJ	と	.	8AJ	と	.
8Rcc/L	16r	4C#	.	4c#	.	.	4e#	.	.	4B	da	.	8BL	と	.	8BL	と	.
.	8.Rf\	.	.	.	.	.	.	.	.	.	.	.	.	.	.	.	.	.
8Rgg/J	.	.	.	.	.	.	.	.	.	.	.	.	16AL	の	.	16AL	の	.
.	.	.	.	.	.	.	.	.	.	.	.	.	[16AJJ	.	.	[16AJJ	.	.
=66	=66	=66	=66	=66	=66	=66	=66	=66	=66	=66	=66	=66	=66	=66	=66	=66	=66	=66
16r	4Rf\	4FF#	.	4F#	.	.	4A	.	.	4c#	da	.	16ALL]	.	.	16ALL]	.	.
16Rcc/KL	.	.	.	.	.	.	.	.	.	.	.	.	16BJ	え	.	16BJ	え	.
8Rgg/J	.	.	.	.	.	.	.	.	.	.	.	.	[8c#J	て	.	[8c#J	て	.
8Rcc/L	4r	4FF#	.	4F#	.	.	4A	.	.	4c#	da	.	4c#]	.	.	4c#]	.	.
16Rgg/L	.	.	.	.	.	.	.	.	.	.	.	.	.	.	.	.	.	.
16Rcc/JJ	.	.	.	.	.	.	.	.	.	.	.	.	.	.	.	.	.	.
16r	8r	4FF#	.	8r	.	.	8r	.	.	8r	.	.	2r	.	.	2r	.	.
16Rcc/KL	.	.	.	.	.	.	.	.	.	.	.	.	.	.	.	.	.	.
8Rgg/J	8Rf\	.	.	8c#XL	.	.	8AL	.	.	8c#L	oh	.	.	.	.	.	.	.
8Rcc/L	16r	4FF#	.	8B	.	.	8G#X	.	.	8B	oh	.	.	.	.	.	.	.
.	8.Rf\	.	.	.	.	.	.	.	.	.	.	.	.	.	.	.	.	.
8Rgg/J	.	.	.	8AJ	.	.	8F#XJ	.	.	8AJ	oh	.	.	.	.	.	.	.
=67	=67	=67	=67	=67	=67	=67	=67	=67	=67	=67	=67	=67	=67	=67	=67	=67	=67	=67
8Raa/L	4Rf\	4D	.	4A	.	.	4f#X	.	.	4r	.	.	4r	.	.	4r	.	.
8Rgg/J	.	.	.	.	.	.	.	.	.	.	.	.	.	.	.	.	.	.
8Rcc/L	4r	4D	.	4A	.	.	4f#	.	.	16AKL	いつ	.	16F#KL	いつ	.	16F#KL	いつ	.
.	.	.	.	.	.	.	.	.	.	8A	か	.	8F#	か	.	8F#	か	.
16Rgg/L	.	.	.	.	.	.	.	.	.	.	.	.	.	.	.	.	.	.
16Rcc/JJ	.	.	.	.	.	.	.	.	.	[16dJk	は	.	[16BJk	は	.	[16BJk	は	.
16r	8r	4F-X	.	4B	.	.	4g#X	.	.	8dL]	.	.	8BL]	.	.	8BL]	.	.
16Rcc/KL	.	.	.	.	.	.	.	.	.	.	.	.	.	.	.	.	.	.
8Rgg/J	8Rf\	.	.	.	.	.	.	.	.	8c#J	で	.	8AJ	で	.	8AJ	で	.
8Rcc/L	16r	4F-	.	4B	.	.	4g#	.	.	8BL	あ	.	8G#XL	あ	.	8G#XL	あ	.
.	8.Rf\	.	.	.	.	.	.	.	.	.	.	.	.	.	.	.	.	.
8Rgg/J	.	.	.	.	.	.	.	.	.	16c#L	える	.	16AL	える	.	16AL	える	.
.	.	.	.	.	.	.	.	.	.	[16BJJ	は	.	[16G#JJ	は	.	[16G#JJ	は	.
=68	=68	=68	=68	=68	=68	=68	=68	=68	=68	=68	=68	=68	=68	=68	=68	=68	=68	=68
16r	4Rf\	4GG-X	.	4c#X	.	.	4A	.	.	16BKL]	.	.	16G#KL]	.	.	16G#KL]	.	.
16Rcc/KL	.	.	.	.	.	.	.	.	.	8.AJ	ずの	.	8.F#J	ずの	.	8.F#J	ずの	.
8Rgg/J	.	.	.	.	.	.	.	.	.	.	.	.	.	.	.	.	.	.
8Rcc/L	4r	4GG-	.	16c#LL	.	.	16ALL	.	.	16eLL	こ	.	16c#LL	こ	.	16c#LL	こ	.
.	.	.	.	16c#	.	.	16A	.	.	16e	が	.	16c#	が	.	16c#	が	.
16Rgg/L	.	.	.	16c#	.	.	16A	.	.	16e	ね	.	16c#	ね	.	16c#	ね	.
16Rcc/JJ	.	.	.	[16dJJ	.	.	[16BJJ	.	.	[16f#JJ	の	.	[16dJJ	の	.	[16dJJ	の	.
16r	8r	4AA	.	8dL]	.	.	8BL]	.	.	8f#L]	.	.	8dL]	.	.	8dL]	.	.
16Rcc/KL	.	.	.	.	.	.	.	.	.	.	.	.	.	.	.	.	.	.
8Rgg/J	8Rf\	.	.	8c#J	.	.	8AJ	.	.	8eJ	いろ	.	8c#J	いろ	.	8c#J	いろ	.
8Rcc/L	16r	4AA	.	8BL	.	.	8F#XL	.	.	8dL	した	.	8BL	した	.	8BL	した	.
.	8.Rf\	.	.	.	.	.	.	.	.	.	.	.	.	.	.	.	.	.
8Rgg/J	.	.	.	16c#L	.	.	16AL	.	.	16eL	アイオ	.	16c#L	アイオ	.	16c#L	アイオ	.
.	.	.	.	[16BJJ	.	.	[16F#JJ	.	.	[16dJJ	ライ	.	[16BJJ	ライ	.	[16BJJ	ライ	.
=69	=69	=69	=69	=69	=69	=69	=69	=69	=69	=69	=69	=69	=69	=69	=69	=69	=69	=69
16Rff/LL	8Rf\L	4C-X	.	16BKL]	.	.	16F#KL]	.	.	16dKL]	ト	.	16BKL]	ト	.	16BKL]	ト	.
16Rcc/JJ	.	.	.	8.AJ	.	.	8.F#XJ	.	.	8.c#J	を	.	8.AJ	を	.	8.AJ	を	.
16r	8Rd\J	.	.	.	.	.	.	.	.	.	.	.	.	.	.	.	.	.
16Rff/	.	.	.	.	.	.	.	.	.	.	.	.	.	.	.	.	.	.
8Rcc/L	8r	4C-	.	4r	.	.	4r	.	.	4r	.	.	16ALL	きっ	.	16ALL	きっ	.
.	.	.	.	.	.	.	.	.	.	.	.	.	16A	と	.	16A	と	.
16Rff/L	8Rd\	.	.	.	.	.	.	.	.	.	.	.	16A	つ	.	16A	つ	.
16Rcc/JJ	.	.	.	.	.	.	.	.	.	.	.	.	16AJJ	か	.	16AJJ	か	.
16Ree/LL	8r	4D-X	.	2r	.	.	2r	.	.	2r	.	.	8c#L	ん	.	8c#L	ん	.
16Rcc/JJ	.	.	.	.	.	.	.	.	.	.	.	.	.	.	.	.	.	.
16r	8Rd\ 8Rf	.	.	.	.	.	.	.	.	.	.	.	16BL	で	.	16BL	で	.
16Ree/	.	.	.	.	.	.	.	.	.	.	.	.	16AJJ	は	.	16AJJ	は	.
8Rcc/L	16r	4D-	.	.	.	.	.	.	.	.	.	.	8BL	な	.	8BL	な	.
.	16Rf\KL	.	.	.	.	.	.	.	.	.	.	.	.	.	.	.	.	.
16Ree/Jk	8Rd\J	.	.	.	.	.	.	.	.	.	.	.	8c#J	すな	.	8c#J	すな	.
16r	.	.	.	.	.	.	.	.	.	.	.	.	.	.	.	.	.	.
=70	=70	=70	=70	=70	=70	=70	=70	=70	=70	=70	=70	=70	=70	=70	=70	=70	=70	=70
4Ree/	4Rf\ 4Rcc	1r	.	4D-X'	.	f	4A-X'	.	f	4d-X'	da	.	1r	.	.	1r	.	.
4Ree/	4Rf\ 4Rcc	.	.	4D-'	.	.	4A-'	.	.	4d-'	da	.	.	.	.	.	.	.
8Ree/L	8Rf\L 8Rcc	.	.	8D-L	.	.	8A-L	.	.	8d-L	da	.	.	.	.	.	.	.
8Ree/J	8Rf\J 8Rcc	.	.	8D-J	.	.	8A-J	.	.	8d-J	da	.	.	.	.	.	.	.
4Raa/	4r	.	.	4F#	.	.	4c#X	.	.	4f#	ha	.	.	.	.	.	.	.
*v	*v	*	*	*	*	*	*	*	*	*	*	*	*	*	*	*	*	*
=71||	=71||	=71||	=71||	=71||	=71||	=71||	=71||	=71||	=71||	=71||	=71||	=71||	=71||	=71||	=71||	=71||	=71||
*	*k[b-e-a-d-g-c-]	*	*k[b-e-a-d-g-c-f-]	*	*	*k[]	*	*	*k[b-e-a-d-g-c-]	*	*	*k[b-e-a-d-g-c-]	*	*	*k[b-e-a-d-g-c-]	*	*
*^	*	*	*	*	*	*	*	*	*	*	*	*	*	*	*	*	*
8Raa/L	4Rf\	[4E-	.	8E-L	.	.	8G-L	.	.	8B-L	アイ	.	8e-L	アイ	.	8e-L	アイ	.
8Rgg/J	.	.	.	8G-	.	.	8B-	.	.	8d-	ムア	.	8g-	ムア	.	8g-	ムア	.
8Rcc/L	4r	8E-L]	.	8F	.	.	8A-	.	.	8c-	ルー	.	8f	ルー	.	8f	ルー	.
16Rgg/L	.	8E-J	.	8D-J	.	.	8FJ	.	.	8A-J	ザー	.	8d-J	ザー	.	8d-J	ザー	.
16Rcc/JJ	.	.	.	.	.	.	.	.	.	.	.	.	.	.	.	.	.	.
16r	8r	8.C-'L	.	2E-	.	.	2G-	.	.	2B-	ah	.	8e-L	なん	.	8e-L	なん	.
16Rcc/KL	.	.	.	.	.	.	.	.	.	.	.	.	.	.	.	.	.	.
8Rgg/J	8Rf\	.	.	.	.	.	.	.	.	.	.	.	16g-L	も	.	16g-L	も	.
.	.	16C-Jk	.	.	.	.	.	.	.	.	.	.	[16fJJ	ない	.	[16fJJ	ない	.
8Rcc/L	16r	16r	.	.	.	.	.	.	.	.	.	.	16fKL]	.	.	16fKL]	.	.
.	8.Rf\	8.C-	.	.	.	.	.	.	.	.	.	.	8d-	な	.	8d-	な	.
8Rgg/J	.	.	.	.	.	.	.	.	.	.	.	.	.	.	.	.	.	.
.	.	.	.	.	.	.	.	.	.	.	.	.	16d-Jk	ら	.	16d-Jk	ら	.
=72	=72	=72	=72	=72	=72	=72	=72	=72	=72	=72	=72	=72	=72	=72	=72	=72	=72	=72
16r	4Rf\	[4D-	.	4F	.	.	4A-	.	.	4d-	ha	.	8e-L	どう	.	8e-L	どう	.
16Rcc/KL	.	.	.	.	.	.	.	.	.	.	.	.	.	.	.	.	.	.
8Rgg/J	.	.	.	.	.	.	.	.	.	.	.	.	8g-	なっ	.	8g-	なっ	.
8Rcc/L	4r	8D-L]	.	4E-	.	.	4G-	.	.	4c-	ah	.	8f	た	.	8f	た	.
16Rgg/L	.	8D-J	.	.	.	.	.	.	.	.	.	.	8d-J	って	.	8d-J	って	.
16Rcc/JJ	.	.	.	.	.	.	.	.	.	.	.	.	.	.	.	.	.	.
16r	8r	8.GG-'L	.	8E-L	.	.	8A-L	.	.	8c-L	いい	.	8e-L	いい	.	8e-L	いい	.
16Rcc/KL	.	.	.	.	.	.	.	.	.	.	.	.	.	.	.	.	.	.
8Rgg/J	8Rf\	.	.	16D-L	.	.	16G-L	.	.	16B-L	だ	.	16d-L	だ	.	16d-L	だ	.
.	.	16GG-Jk	.	[16D-JJ	.	.	[16G-JJ	.	.	[16B-JJ	ろ	.	[16d-JJ	ろう	.	[16d-JJ	ろう	.
8Rcc/L	16r	16r	.	4D-]	.	.	4G-]	.	.	4B-]	う	.	4d-]	.	.	4d-]	.	.
.	8.Rf\	16GG-LL	.	.	.	.	.	.	.	.	.	.	.	.	.	.	.	.
8Rgg/J	.	16E-	.	.	.	.	.	.	.	.	.	.	.	.	.	.	.	.
.	.	16C-JJ	.	.	.	.	.	.	.	.	.	.	.	.	.	.	.	.
=73	=73	=73	=73	=73	=73	=73	=73	=73	=73	=73	=73	=73	=73	=73	=73	=73	=73	=73
16r	4Rf\	8E-L	.	8E-L	.	.	8G-L	.	.	8B-L	.	.	8e-L	ウダ	.	8e-L	ウダ	.
16Rcc/KL	.	.	.	.	.	.	.	.	.	.	.	.	.	.	.	.	.	.
8Rgg/J	.	8E-	.	8D-	.	.	8G-	.	.	8B-	.	.	8d-	ウダ	.	8d-	ウダ	.
8Rcc/L	4r	8E-	.	8GG-	.	.	8G-	.	.	8B-	.	.	8G-	して	.	8G-	して	.
16Rgg/L	.	8E-J	.	8E-J	.	.	8G-J	.	.	8B-J	.	.	8e-J	フラ	.	8e-J	フラ	.
16Rcc/JJ	.	.	.	.	.	.	.	.	.	.	.	.	.	.	.	.	.	.
16r	8r	8.C-'L	.	8D-L	.	.	8G-L	.	.	8B-L	.	.	8d-L	フラ	.	8d-L	フラ	.
16Rcc/KL	.	.	.	.	.	.	.	.	.	.	.	.	.	.	.	.	.	.
8Rgg/J	8Rf\	.	.	8GG-J	.	.	8G-J	.	.	8B-J	.	.	8G-	して	.	8G-	して	.
.	.	16C-Jk	.	.	.	.	.	.	.	.	.	.	.	.	.	.	.	.
8Rcc/L	16r	16r	.	4r	.	.	8r	.	.	8r	.	.	8F	いちゃ	.	8F	いちゃ	.
.	8.Rf\	8.C-	.	.	.	.	.	.	.	.	.	.	.	.	.	.	.	.
8Rgg/J	.	.	.	.	.	.	8r	.	.	8r	.	.	8G-J	いまに	.	8G-J	いまに	.
=74	=74	=74	=74	=74	=74	=74	=74	=74	=74	=74	=74	=74	=74	=74	=74	=74	=74	=74
16r	4Rf\	8D-L	.	4E-	.	.	4G-	.	.	4c-	ha	.	4e-	はい	.	4e-	はい	.
16Rcc/KL	.	.	.	.	.	.	.	.	.	.	.	.	.	.	.	.	.	.
8Rgg/J	.	8D-	.	.	.	.	.	.	.	.	.	.	.	.	.	.	.	.
8Rcc/L	4r	8D-	.	4D-	.	.	4F	.	.	4B-	ah	.	8d-L	さ	.	8d-L	さ	.
16Rgg/L	.	8D-J	.	.	.	.	.	.	.	.	.	.	8c-J	よ	.	8c-J	よ	.
16Rcc/JJ	.	.	.	.	.	.	.	.	.	.	.	.	.	.	.	.	.	.
16r	8r	8GG-L	.	4BB-	.	.	4E-	.	.	4G-	ah	.	8B-	な	.	8B-	な	.
16Rcc/KL	.	.	.	.	.	.	.	.	.	.	.	.	.	.	.	.	.	.
8Rgg/J	8Rf\	8GG-J	.	.	.	.	.	.	.	.	.	.	4.G-	ら	.	4.G-	ら	.
8Rcc/L	16r	8.G-L	.	16C-LL	.	.	16E-LL	.	.	16G-LL	da	.	.	.	.	.	.	.
.	8.Rf\	.	.	16C-J	.	.	16E-J	.	.	16G-J	da	.	.	.	.	.	.	.
8Rgg/J	.	.	.	8C-J	.	.	8E-J	.	.	8G-J	da	.	.	.	.	.	.	.
.	.	16GG-Jk	.	.	.	.	.	.	.	.	.	.	.	.	.	.	.	.
=75	=75	=75	=75	=75	=75	=75	=75	=75	=75	=75	=75	=75	=75	=75	=75	=75	=75	=75
8Raa/L	4Rf\	[4E-	.	8E-L	.	.	8G-L	.	.	8B-L	アイ	.	8e-L	アイ	.	8e-L	アイ	.
8Rgg/J	.	.	.	8G-	.	.	8B-	.	.	8d-	ムア	.	8g-	ムア	.	8g-	ムア	.
8Rcc/L	4r	8E-L]	.	8F	.	.	8A-	.	.	8c-	ルー	.	8f	ルー	.	8f	ルー	.
16Rgg/L	.	8E-J	.	8D-J	.	.	8FJ	.	.	8A-J	ザー	.	8d-J	ザー	.	8d-J	ザー	.
16Rcc/JJ	.	.	.	.	.	.	.	.	.	.	.	.	.	.	.	.	.	.
16r	8r	8.C-'L	.	8E-L	.	.	8G-L	.	.	8B-L	き	.	8e-L	き	.	8e-L	き	.
16Rcc/KL	.	.	.	.	.	.	.	.	.	.	.	.	.	.	.	.	.	.
8Rgg/J	8Rf\	.	.	16G-L	.	.	16B-L	.	.	16d-L	っと	.	16g-L	っと	.	16g-L	っと	.
.	.	16C-Jk	.	[16FJJ	.	.	[16A-JJ	.	.	[16c-JJ	いつ	.	[16fJJ	いつ	.	[16fJJ	いつ	.
8Rcc/L	16r	16r	.	16FKL]	.	.	16A-KL]	.	.	16c-KL]	.	.	16fKL]	.	.	16fKL]	.	.
.	8.Rf\	8.C-	.	8D-	.	.	8F	.	.	8A-	か	.	8d-	か	.	8d-	か	.
8Rgg/J	.	.	.	.	.	.	.	.	.	.	.	.	.	.	.	.	.	.
.	.	.	.	16D-Jk	.	.	16FJk	.	.	16A-Jk	って	.	16d-Jk	って	.	16d-Jk	って	.
=76	=76	=76	=76	=76	=76	=76	=76	=76	=76	=76	=76	=76	=76	=76	=76	=76	=76	=76
16r	4Rf\	[4D-	.	8E-L	.	.	8G-L	.	.	8B-L	ね	.	8e-L	ね	.	8e-L	ね	.
16Rcc/KL	.	.	.	.	.	.	.	.	.	.	.	.	.	.	.	.	.	.
8Rgg/J	.	.	.	8G-	.	.	8B-	.	.	8e-	が	.	8g-	が	.	8g-	が	.
8Rcc/L	4r	8D-L]	.	8G-	.	.	8B-	.	.	8e- 8g-	う	.	8g-	う	.	8g-	う	.
16Rgg/L	.	8D-J	.	8A-J	.	.	8c-J	.	.	8fJ 8a-	ま	.	8a-J	ま	.	8a-J	ま	.
16Rcc/JJ	.	.	.	.	.	.	.	.	.	.	.	.	.	.	.	.	.	.
16r	8r	4G-	.	4B-	.	.	4d-	.	.	4g- 4b-	ま	.	4b-	ま	.	4b-	ま	.
16Rcc/KL	.	.	.	.	.	.	.	.	.	.	.	.	.	.	.	.	.	.
8Rgg/J	8Rf\	.	.	.	.	.	.	.	.	.	.	.	.	.	.	.	.	.
8Rcc/L	16r	4GG-	.	4r	.	.	4r	.	.	4r	.	.	8g-L	す	.	8g-L	す	.
.	8.Rf\	.	.	.	.	.	.	.	.	.	.	.	.	.	.	.	.	.
8Rgg/J	.	.	.	.	.	.	.	.	.	.	.	.	8fJ	す	.	8fJ	す	.
=77	=77	=77	=77	=77	=77	=77	=77	=77	=77	=77	=77	=77	=77	=77	=77	=77	=77	=77
16r	4Rf\	[4E-	.	2E-	.	.	2G-	.	.	2B-	ha	.	4g-	め	.	4g-	め	.
16Rcc/KL	.	.	.	.	.	.	.	.	.	.	.	.	.	.	.	.	.	.
8Rgg/J	.	.	.	.	.	.	.	.	.	.	.	.	.	.	.	.	.	.
8Rcc/L	4r	8E-L]	.	.	.	.	.	.	.	.	.	.	8r	.	.	8r	.	.
16Rgg/L	.	8E-J	.	.	.	.	.	.	.	.	.	.	8d-	ロス	.	8d-	ロス	.
16Rcc/JJ	.	.	.	.	.	.	.	.	.	.	.	.	.	.	.	.	.	.
16r	8r	8.C-'L	.	2D-	.	.	2F	.	.	2c-	ah	.	8g-L	タイ	.	8g-L	タイ	.
16Rcc/KL	.	.	.	.	.	.	.	.	.	.	.	.	.	.	.	.	.	.
8Rgg/J	8Rf\	.	.	.	.	.	.	.	.	.	.	.	16fL	ム	.	16fL	ム	.
.	.	16C-Jk	.	.	.	.	.	.	.	.	.	.	[16e-JJ	の	.	[16e-JJ	の	.
8Rcc/L	16r	16r	.	.	.	.	.	.	.	.	.	.	16e-KL]	.	.	16e-KL]	.	.
.	8.Rf\	8.C-	.	.	.	.	.	.	.	.	.	.	8d-	そ	.	8d-	そ	.
8Rgg/J	.	.	.	.	.	.	.	.	.	.	.	.	.	.	.	.	.	.
.	.	.	.	.	.	.	.	.	.	.	.	.	16d-Jk	の	.	16d-Jk	の	.
=78	=78	=78	=78	=78	=78	=78	=78	=78	=78	=78	=78	=78	=78	=78	=78	=78	=78	=78
16r	4Rf\	4D-	.	4D-	.	.	4G-	.	.	4B-	la	.	8e-L	ま	.	8e-L	ま	.
16Rcc/KL	.	.	.	.	.	.	.	.	.	.	.	.	.	.	.	.	.	.
8Rgg/J	.	.	.	.	.	.	.	.	.	.	.	.	16d-L	た	.	16d-L	た	.
.	.	.	.	.	.	.	.	.	.	.	.	.	[16c-JJ	おく	.	[16c-JJ	おく	.
8Rcc/L	4r	4D-	.	4D-	.	.	4G-	.	.	4B-	la	.	8c-L]	.	.	8c-L]	.	.
16Rgg/L	.	.	.	.	.	.	.	.	.	.	.	.	8B-J	へ	.	8B-J	へ	.
16Rcc/JJ	.	.	.	.	.	.	.	.	.	.	.	.	.	.	.	.	.	.
16r	8r	8r	.	8r	.	.	8r	.	.	8r	.	.	8A-	い	.	8A-	い	.
16Rcc/KL	.	.	.	.	.	.	.	.	.	.	.	.	.	.	.	.	.	.
8Rgg/J	8Rf\	8GG-	.	8E-	.	.	8G-	.	.	8B-	ta	.	4G-	け	.	4G-	け	.
8Rcc/L	16r	4GG-	.	4E-	.	.	4G-	.	.	4B-	ta	.	.	.	.	.	.	.
.	8.Rf\	.	.	.	.	.	.	.	.	.	.	.	.	.	.	.	.	.
8Rgg/J	.	.	.	.	.	.	.	.	.	.	.	.	8r	.	.	8r	.	.
*v	*v	*	*	*	*	*	*	*	*	*	*	*	*	*	*	*	*	*
=79	=79	=79	=79	=79	=79	=79	=79	=79	=79	=79	=79	=79	=79	=79	=79	=79	=79
1r	2E-	mf	4B-	.	mf	4B-	.	mf	4d-	pa	.	1r	.	.	1r	.	.
.	.	.	8.A-L	.	.	8.A-L	.	.	8.c-L	pa	.	.	.	.	.	.	.
.	.	.	16G-Jk	.	.	16G-Jk	.	.	16B-Jk	pa	.	.	.	.	.	.	.
.	2C-	.	8A-L	.	.	8A-L	.	.	8c-L	la	.	.	.	.	.	.	.
.	.	.	8G-	.	.	8G-	.	.	8B-	pa	.	.	.	.	.	.	.
.	.	.	8E-	.	.	8E-	.	.	8G-	pa	.	.	.	.	.	.	.
.	.	.	8G-J	.	.	8G-J	.	.	8B-J	pa	.	.	.	.	.	.	.
=80	=80	=80	=80	=80	=80	=80	=80	=80	=80	=80	=80	=80	=80	=80	=80	=80	=80
1r	2GG-	.	1r	.	.	1r	.	.	1r	.	.	8B-L	あい	.	8B-L	あい	.
.	.	.	.	.	.	.	.	.	.	.	.	16B-L	さ	.	16B-L	さ	.
.	.	.	.	.	.	.	.	.	.	.	.	16B-JJ	れ	.	16B-JJ	れ	.
.	.	.	.	.	.	.	.	.	.	.	.	8B-L	たい	.	8B-L	たい	.
.	.	.	.	.	.	.	.	.	.	.	.	16A-L	な	.	16A-L	な	.
.	.	.	.	.	.	.	.	.	.	.	.	16B-JJ	ら	.	16B-JJ	ら	.
.	2D-	.	.	.	.	.	.	.	.	.	.	8c-L	そう	.	8c-L	そう	.
.	.	.	.	.	.	.	.	.	.	.	.	16B-L	い	.	16B-L	い	.
.	.	.	.	.	.	.	.	.	.	.	.	[16A-JJ	おう	.	[16A-JJ	おう	.
.	.	.	.	.	.	.	.	.	.	.	.	16A-KL]	.	.	16A-KL]	.	.
.	.	.	.	.	.	.	.	.	.	.	.	8.G-J	ぜ	.	8.G-J	ぜ	.
=81	=81	=81	=81	=81	=81	=81	=81	=81	=81	=81	=81	=81	=81	=81	=81	=81	=81
1r	2E-	.	4B-	.	.	4B-	.	.	4d-	la	.	1r	.	.	1r	.	.
.	.	.	8.A-L	.	.	8.A-L	.	.	8.c-L	pa	.	.	.	.	.	.	.
.	.	.	16G-Jk	.	.	16G-Jk	.	.	16B-Jk	pa	.	.	.	.	.	.	.
.	2C-	.	8A-L	.	.	8A-L	.	.	8c-L	pa	.	.	.	.	.	.	.
.	.	.	8G-	.	.	8G-	.	.	8B-	pa	.	.	.	.	.	.	.
.	.	.	8E-	.	.	8E-	.	.	8G-	pa	.	.	.	.	.	.	.
.	.	.	8G-J	.	.	8G-J	.	.	8B-J	pa	.	.	.	.	.	.	.
=82	=82	=82	=82	=82	=82	=82	=82	=82	=82	=82	=82	=82	=82	=82	=82	=82	=82
1r	2GG-	.	1r	.	.	1r	.	.	1r	.	.	8G-L	おも	.	8G-L	おも	.
.	.	.	.	.	.	.	.	.	.	.	.	16G-L	って	.	16G-L	って	.
.	.	.	.	.	.	.	.	.	.	.	.	16G-JJ	る	.	16G-JJ	る	.
.	.	.	.	.	.	.	.	.	.	.	.	8G-L	だけ	.	8G-L	だけ	.
.	.	.	.	.	.	.	.	.	.	.	.	16E-L	じゃ	.	16E-L	じゃ	.
.	.	.	.	.	.	.	.	.	.	.	.	16FJJ	つた	.	16FJJ	つた	.
.	2D-	.	.	.	.	.	.	.	.	.	.	8G-L	わ	.	8G-L	わ	.
.	.	.	.	.	.	.	.	.	.	.	.	16FL	ら	.	16FL	ら	.
.	.	.	.	.	.	.	.	.	.	.	.	[16E-JJ	ない	.	[16E-JJ	ない	.
.	.	.	.	.	.	.	.	.	.	.	.	16E-KL]	.	.	16E-KL]	.	.
.	.	.	.	.	.	.	.	.	.	.	.	8.D-J	ね	.	8.D-J	ね	.
=83	=83	=83	=83	=83	=83	=83	=83	=83	=83	=83	=83	=83	=83	=83	=83	=83	=83
1r	2E-	.	4B-	.	.	4B-	.	.	4d-	la	.	2.r	.	.	2.r	.	.
.	.	.	8.A-L	.	.	8.A-L	.	.	8.c-L	pa	.	.	.	.	.	.	.
.	.	.	16G-Jk	.	.	16G-Jk	.	.	16B-Jk	pa	.	.	.	.	.	.	.
.	2C-	.	8A-L	.	.	8A-L	.	.	8c-L	pa	.	.	.	.	.	.	.
.	.	.	8G-	.	.	8G-	.	.	8B-	pa	.	.	.	.	.	.	.
.	.	.	8E-	.	.	8E-	.	.	8G-	pa	.	8.r	.	.	8.r	.	.
.	.	.	8G-J	.	.	8G-J	.	.	8B-J	pa	.	.	.	.	.	.	.
.	.	.	.	.	.	.	.	.	.	.	.	16D-	え	.	16D-	え	.
=84	=84	=84	=84	=84	=84	=84	=84	=84	=84	=84	=84	=84	=84	=84	=84	=84	=84
1r	2GG-	.	1r	.	.	1r	.	.	1r	.	.	8B-L	い	.	8B-L	い	.
.	.	.	.	.	.	.	.	.	.	.	.	16B-L	えん	.	16B-L	えん	.
.	.	.	.	.	.	.	.	.	.	.	.	16B-JJ	の	.	16B-JJ	の	.
.	.	.	.	.	.	.	.	.	.	.	.	8B-L	しゅく	.	8B-L	しゅく	.
.	.	.	.	.	.	.	.	.	.	.	.	16A-L	じょ	.	16A-L	じょ	.
.	.	.	.	.	.	.	.	.	.	.	.	16B-JJ	も	.	16B-JJ	も	.
.	2D-	.	.	.	.	.	.	.	.	.	.	8c-L	そ	.	8c-L	そ	.
.	.	.	.	.	.	.	.	.	.	.	.	16B-L	っぽ	.	16B-L	っぽ	.
.	.	.	.	.	.	.	.	.	.	.	.	[16A-JJ	むい	.	[16A-JJ	むい	.
.	.	.	.	.	.	.	.	.	.	.	.	16A-KL]	.	.	16A-KL]	.	.
.	.	.	.	.	.	.	.	.	.	.	.	8.G-J	て	.	8.G-J	て	.
=85	=85	=85	=85	=85	=85	=85	=85	=85	=85	=85	=85	=85	=85	=85	=85	=85	=85
1r	2E-	f	4B-	.	mf	4B-	.	f	4d-	la	.	2.r	.	.	2.r	.	.
.	.	.	8.A-L	.	.	8.A-L	.	.	8.c-L	pa	.	.	.	.	.	.	.
.	.	.	16G-Jk	.	.	16G-Jk	.	.	16B-Jk	pa	.	.	.	.	.	.	.
.	2C-	.	8A-L	.	.	8A-L	.	.	8c-L	pa	.	.	.	.	.	.	.
.	.	.	8G-	.	.	8G-	.	.	8B-	pa	.	.	.	.	.	.	.
.	.	.	8E-	.	.	8E-	.	.	8G-	pa	.	8.r	.	.	8.r	.	.
.	.	.	8G-J	.	.	8G-J	.	.	8B-J	pa	.	.	.	.	.	.	.
.	.	.	.	.	.	.	.	.	.	.	.	16G-	て	.	16G-	て	.
=86	=86	=86	=86	=86	=86	=86	=86	=86	=86	=86	=86	=86	=86	=86	=86	=86	=86
1r	2GG-	.	1r	.	.	1r	.	.	1r	.	.	8d-L	ん	.	8d-L	ん	.
.	.	.	.	.	.	.	.	.	.	.	.	16d-L	ごくは	.	16d-L	ごくは	.
.	.	.	.	.	.	.	.	.	.	.	.	16d-JJ	.	.	16d-JJ	.	.
.	.	.	.	.	.	.	.	.	.	.	.	8d-L	と	.	8d-L	と	.
.	.	.	.	.	.	.	.	.	.	.	.	16d-L	おく	.	16d-L	おく	.
.	.	.	.	.	.	.	.	.	.	.	.	16d-JJ	む	.	16d-JJ	む	.
.	(2D-	.	.	.	.	.	.	.	.	.	.	8e-L	こう	f	8e-L	こう	f
.	.	.	.	.	.	.	.	.	.	.	.	16d-L	の	.	16d-L	の	.
.	.	.	.	.	.	.	.	.	.	.	.	[16c-JJ	ほう	.	[16c-JJ	ほう	.
.	.	.	.	.	.	.	.	.	.	.	.	16c-KL]	.	.	16c-KL]	.	.
.	.	.	.	.	.	.	.	.	.	.	.	8.B-J	へ	.	8.B-J	へ	.
=87	=87	=87	=87	=87	=87	=87	=87	=87	=87	=87	=87	=87	=87	=87	=87	=87	=87
*^	*	*	*	*	*	*	*	*	*	*	*	*	*	*	*	*	*
4Rf\	4Rf\	4C-)	f	4B-	.	.	4B-	.	.	4d-	la	.	2.r	.	.	2.r	.	.
4r	4Rf\	4C-	.	8.A-L	.	.	8.A-L	.	.	8.c-L	pa	.	.	.	.	.	.	.
.	.	.	.	16G-Jk	.	.	16G-Jk	.	.	16B-Jk	pa	.	.	.	.	.	.	.
2r	4Rf\	4D-	.	8A-L	.	.	8A-L	.	.	8c-L	pa	.	.	.	.	.	.	.
.	.	.	.	8G-	.	.	8G-	.	.	8B-	pa	.	.	.	.	.	.	.
.	4Rf\	4D-	.	8E-	.	.	8E-	.	.	8G-	pa	.	8.r	.	.	8.r	.	.
.	.	.	.	8G-J	.	.	8G-J	.	.	8B-J	pa	.	.	.	.	.	.	.
.	.	.	.	.	.	.	.	.	.	.	.	.	16G-	こ	.	16G-	こ	.
=88	=88	=88	=88	=88	=88	=88	=88	=88	=88	=88	=88	=88	=88	=88	=88	=88	=88	=88
1r	4Rf\	4BB-	.	1r	.	.	1r	.	.	1r	.	.	8d-L	こ	.	8d-L	こ	.
.	.	.	.	.	.	.	.	.	.	.	.	.	16d-L	い	.	16d-L	い	.
.	.	.	.	.	.	.	.	.	.	.	.	.	16d-JJ	ら	.	16d-JJ	ら	.
.	4Rf\	4BB-	.	.	.	.	.	.	.	.	.	.	8d-L	で	.	8d-L	で	.
.	.	.	.	.	.	.	.	.	.	.	.	.	16g-L	ひとつおどってみようぜ	.	16g-L	ひとつおどってみようぜ	.
.	.	.	.	.	.	.	.	.	.	.	.	.	16g-JJ	.	.	16g-JJ	.	.
.	4Rf\	4BB-	.	.	.	.	.	.	.	.	.	.	8fL	.	.	8fL	.	.
.	.	.	.	.	.	.	.	.	.	.	.	.	16d-L	.	.	16d-L	.	.
.	.	.	.	.	.	.	.	.	.	.	.	.	[16e-JJ	.	.	[16e-JJ	.	.
.	4Rf\	4AA-	.	.	.	.	.	.	.	.	.	.	16e-KL]	.	.	16e-KL]	.	.
.	.	.	.	.	.	.	.	.	.	.	.	.	8.d-J	.	.	8.d-J	.	.
=89	=89	=89	=89	=89	=89	=89	=89	=89	=89	=89	=89	=89	=89	=89	=89	=89	=89	=89
1r	4Rf\	4C-	f	4B-	.	.	4B-	.	.	4d-	la	.	2.r	.	.	2.r	.	.
.	4Rf\	4C-	.	8.A-L	.	.	8.A-L	.	.	8.c-L	pa	.	.	.	.	.	.	.
.	.	.	.	16G-Jk	.	.	16G-Jk	.	.	16B-Jk	pa	.	.	.	.	.	.	.
.	4Rf\	4D-	.	8A-L	.	.	8A-L	.	.	8c-L	pa	.	.	.	.	.	.	.
.	.	.	.	8G-	.	.	8G-	.	.	8B-	pa	.	.	.	.	.	.	.
.	4Rf\	4D-	.	8E-	.	.	8E-	.	.	8G-	pa	.	8.r	.	.	8.r	.	.
.	.	.	.	8G-J	.	.	8G-J	.	.	8B-J	pa	.	.	.	.	.	.	.
.	.	.	.	.	.	.	.	.	.	.	.	.	16G-	.	.	16G-	.	.
=90	=90	=90	=90	=90	=90	=90	=90	=90	=90	=90	=90	=90	=90	=90	=90	=90	=90	=90
1r	4Rf\	4BB-	.	1r	.	.	1r	.	.	1r	.	.	8g-L	.	.	8g-L	.	.
.	.	.	.	.	.	.	.	.	.	.	.	.	16g-L	.	.	16g-L	.	.
.	.	.	.	.	.	.	.	.	.	.	.	.	16g-JJ	.	.	16g-JJ	.	.
.	4Rf\	4BB-	.	.	.	.	.	.	.	.	.	.	8g-L	.	.	8g-L	.	.
.	.	.	.	.	.	.	.	.	.	.	.	.	16e-L	.	.	16e-L	.	.
.	.	.	.	.	.	.	.	.	.	.	.	.	16fJJ	.	.	16fJJ	.	.
.	4Rf\	4BB-	.	.	.	.	.	.	.	.	.	.	8g-L	.	.	8g-L	.	.
.	.	.	.	.	.	.	.	.	.	.	.	.	16fL	.	.	16fL	.	.
.	.	.	.	.	.	.	.	.	.	.	.	.	[16e-JJ	.	.	[16e-JJ	.	.
.	4Rf\	4AA-	.	.	.	.	.	.	.	.	.	.	16e-KL]	.	.	16e-KL]	.	.
.	.	.	.	.	.	.	.	.	.	.	.	.	8.d-J	.	.	8.d-J	.	.
=91	=91	=91	=91	=91	=91	=91	=91	=91	=91	=91	=91	=91	=91	=91	=91	=91	=91	=91
1r	4Rf\	4C-	.	4B-	.	.	4B-	.	.	4d-	la	.	2.r	.	.	2.r	.	.
.	4Rf\	4C-	.	8.A-L	.	.	8.A-L	.	.	8.c-L	pa	.	.	.	.	.	.	.
.	.	.	.	16G-Jk	.	.	16G-Jk	.	.	16B-Jk	pa	.	.	.	.	.	.	.
.	4Rf\	4D-	.	8A-L	.	.	8A-L	.	.	8c-L	pa	.	.	.	.	.	.	.
.	.	.	.	8G-	.	.	8G-	.	.	8B-	pa	.	.	.	.	.	.	.
.	4Rf\	4D-	.	8E-	.	.	8E-	.	.	8G-	pa	.	8.r	.	.	8.r	.	.
.	.	.	.	8G-J	.	.	8G-J	.	.	8B-J	pa	.	.	.	.	.	.	.
.	.	.	.	.	.	.	.	.	.	.	.	.	16G-	.	.	16G-	.	.
=92	=92	=92	=92	=92	=92	=92	=92	=92	=92	=92	=92	=92	=92	=92	=92	=92	=92	=92
1r	4Rf\	4E-	.	1r	.	.	1r	.	.	1r	.	.	8g-L	.	.	8g-L	.	.
.	.	.	.	.	.	.	.	.	.	.	.	.	16g-L	.	.	16g-L	.	.
.	.	.	.	.	.	.	.	.	.	.	.	.	16g-JJ	.	.	16g-JJ	.	.
.	4Rf\	4E-	.	.	.	.	.	.	.	.	.	.	16g-LL	.	.	16g-LL	.	.
.	.	.	.	.	.	.	.	.	.	.	.	.	16g-	.	.	16g-	.	.
.	.	.	.	.	.	.	.	.	.	.	.	.	16e-	.	.	16e-	.	.
.	.	.	.	.	.	.	.	.	.	.	.	.	16fJJ	.	.	16fJJ	.	.
.	4Rf\	4BB-	.	.	.	.	.	.	.	.	.	.	8g-L	.	.	8g-L	.	.
.	.	.	.	.	.	.	.	.	.	.	.	.	16g-L	.	.	16g-L	.	.
.	.	.	.	.	.	.	.	.	.	.	.	.	[16g-JJ	.	.	[16g-JJ	.	.
.	4Rf\	4BB-	.	.	.	.	.	.	.	.	.	.	16g-KL]	.	.	16g-KL]	.	.
.	.	.	.	.	.	.	.	.	.	.	.	.	[8.g-J	.	.	[8.g-J	.	.
=93	=93	=93	=93	=93	=93	=93	=93	=93	=93	=93	=93	=93	=93	=93	=93	=93	=93	=93
1r	4Rf\	4C-	.	4B-	.	.	4B-	.	.	4d-	la	.	2g-]	.	.	2g-]	.	.
.	4Rf\	4C-	.	8.A-L	.	.	8.A-L	.	.	8.c-L	pa	.	.	.	.	.	.	.
.	.	.	.	16G-Jk	.	.	16G-Jk	.	.	16B-Jk	pa	.	.	.	.	.	.	.
.	4Rf\	4D-	.	8A-L	.	.	8A-L	.	.	8c-L	pa	.	2r	.	.	2r	.	.
.	.	.	.	8G-	.	.	8G-	.	.	8B-	pa	.	.	.	.	.	.	.
.	4Rf\	4D-~	.	8E-	.	.	8E-	.	.	8G-	pa	.	.	.	.	.	.	.
.	.	.	.	8G-J	.	.	8G-J	.	.	8B-J	pa	.	.	.	.	.	.	.
=94	=94	=94	=94	=94	=94	=94	=94	=94	=94	=94	=94	=94	=94	=94	=94	=94	=94	=94
4Ree/	4Rf\ 4Rcc	4D-'	f	4D-'	.	f	4A-'	.	f	4d-'	da	.	1r	.	.	1r	.	.
4Ree/	4Rf\ 4Rcc	4D-'	.	4D-'	.	.	4A-'	.	.	4d-'	da	.	.	.	.	.	.	.
8Ree/L	8Rf\L 8Rcc	8D-L	.	8D-L	.	.	8A-L	.	.	8d-L	da	.	.	.	.	.	.	.
8Ree/J	8Rf\J 8Rcc	8D-J	.	8D-J	.	.	8A-J	.	.	8d-J	da	.	.	.	.	.	.	.
4Raa/	4r	4D-	.	4F#X	.	.	4c#X	.	.	4f#X	ha	.	.	.	.	.	.	.
=95	=95	=95	=95	=95	=95	=95	=95	=95	=95	=95	=95	=95	=95	=95	=95	=95	=95	=95
16r	4Rf\	[4E-	.	8E-L	.	.	8G-L	.	.	8B-L	アイ	.	8e-L	アイ	.	8e-L	アイ	.
16Rcc/KL	.	.	.	.	.	.	.	.	.	.	.	.	.	.	.	.	.	.
8Rgg/J	.	.	.	8G-	.	.	8B-	.	.	8d-	ムア	.	8g-	ムア	.	8g-	ムア	.
8Rcc/L	4r	8E-L]	.	8F	.	.	8A-	.	.	8c-	ルー	.	8f	ルー	.	8f	ルー	.
16Rgg/L	.	8E-J	.	8D-J	.	.	8FJ	.	.	8A-J	ザー	.	8d-J	ザー	.	8d-J	ザー	.
16Rcc/JJ	.	.	.	.	.	.	.	.	.	.	.	.	.	.	.	.	.	.
16r	8r	8.C-'L	.	8E-L	.	.	8G-L	.	.	8B-L	どう	.	8e-L	どう	.	8e-L	どう	.
16Rcc/KL	.	.	.	.	.	.	.	.	.	.	.	.	.	.	.	.	.	.
8Rgg/J	8Rf\	.	.	16G-L	.	.	16B-L	.	.	16d-L	せ	.	16g-L	せ	.	16g-L	せ	.
.	.	16C-Jk	.	[16FJJ	.	.	[16A-JJ	.	.	[16c-JJ	だ	.	[16fJJ	だ	.	[16fJJ	だ	.
8Rcc/L	16r	16r	.	16FKL]	.	.	16A-KL]	.	.	16c-KL]	.	.	16fKL]	.	.	16fKL]	.	.
.	8.Rf\	8.C-	.	8D-	.	.	8F	.	.	8A-	った	.	8d-	った	.	8d-	った	.
8Rgg/J	.	.	.	.	.	.	.	.	.	.	.	.	.	.	.	.	.	.
.	.	.	.	16D-Jk	.	.	16FJk	.	.	16A-Jk	ら	.	16d-Jk	ら	.	16d-Jk	ら	.
=96	=96	=96	=96	=96	=96	=96	=96	=96	=96	=96	=96	=96	=96	=96	=96	=96	=96	=96
16r	4Rf\	[4D-	.	8E-L	.	.	8G-L	.	.	8B-L	とお	.	8e-L	とお	.	8e-L	とお	.
16Rcc/KL	.	.	.	.	.	.	.	.	.	.	.	.	.	.	.	.	.	.
8Rgg/J	.	.	.	8G-	.	.	8B-	.	.	8d-	ぼえ	.	8g-	ぼえ	.	8g-	ぼえ	.
8Rcc/L	4r	8D-L]	.	8F	.	.	8A-	.	.	8c-	だ	.	8f	だ	.	8f	だ	.
16Rgg/L	.	8D-J	.	8D-J	.	.	8FJ	.	.	8A-J	って	.	8d-J	って	.	8d-J	って	.
16Rcc/JJ	.	.	.	.	.	.	.	.	.	.	.	.	.	.	.	.	.	.
16r	8r	8.GG-'L	.	8E-L	.	.	8G-L	.	.	8e-L	いい	.	8e-L	いい	.	8e-L	いい	.
16Rcc/KL	.	.	.	.	.	.	.	.	.	.	.	.	.	.	.	.	.	.
8Rgg/J	8Rf\	.	.	16D-L	.	.	16FL	.	.	16d-L	だ	.	16d-L	だ	.	16d-L	だ	.
.	.	16GG-Jk	.	[16D-JJ	.	.	[16FJJ	.	.	[16d-JJ	ろう	.	[16d-JJ	ろう	.	[16d-JJ	ろう	.
8Rcc/L	16r	16r	.	4D-]	.	.	4F]	.	.	4d-]	.	.	4d-]	.	.	4d-]	.	.
.	8.Rf\	16GG-LL	.	.	.	.	.	.	.	.	.	.	.	.	.	.	.	.
8Rgg/J	.	16E-	.	.	.	.	.	.	.	.	.	.	.	.	.	.	.	.
.	.	16C-JJ	.	.	.	.	.	.	.	.	.	.	.	.	.	.	.	.
=97	=97	=97	=97	=97	=97	=97	=97	=97	=97	=97	=97	=97	=97	=97	=97	=97	=97	=97
16r	4Rf\	8E-L	.	8e-L	.	.	8G-L	.	.	8B-L	もう	.	8e-L	もう	.	8e-L	もう	.
16Rcc/KL	.	.	.	.	.	.	.	.	.	.	.	.	.	.	.	.	.	.
8Rgg/J	.	8E-	.	8d-	.	.	8G-	.	.	8B-	いっ	.	8d-	いっ	.	8d-	いっ	.
8Rcc/L	4r	8E-	.	8G-	.	.	8G-	.	.	8B-	かい	.	8G-	かい	.	8G-	かい	.
16Rgg/L	.	8E-J	.	8e-J	.	.	8G-J	.	.	8B-J	もう	.	8e-J	もう	.	8e-J	もう	.
16Rcc/JJ	.	.	.	.	.	.	.	.	.	.	.	.	.	.	.	.	.	.
16r	8r	8.C-'L	.	8d-L	.	.	8G-L	.	.	8B-L	いっ	.	8d-L	いっ	.	8d-L	いっ	.
16Rcc/KL	.	.	.	.	.	.	.	.	.	.	.	.	.	.	.	.	.	.
8Rgg/J	8Rf\	.	.	8G-J	.	.	8G-J	.	.	8B-J	かい	.	8G-	かい	.	8G-	かい	.
.	.	16C-Jk	.	.	.	.	.	.	.	.	.	.	.	.	.	.	.	.
8Rcc/L	16r	16r	.	4r	.	.	8r	.	.	8r	.	.	8F	いこう	.	8F	いこう	.
.	8.Rf\	8.C-	.	.	.	.	.	.	.	.	.	.	.	.	.	.	.	.
8Rgg/J	.	.	.	.	.	.	8r	.	.	8r	.	.	8G-J	ぜ	.	8G-J	ぜ	.
=98	=98	=98	=98	=98	=98	=98	=98	=98	=98	=98	=98	=98	=98	=98	=98	=98	=98	=98
16r	4Rf\	8D-L	.	4E-	.	.	4G-	.	.	4c-	ha	.	4e-	ぼ	.	4e-	ぼ	.
16Rcc/KL	.	.	.	.	.	.	.	.	.	.	.	.	.	.	.	.	.	.
8Rgg/J	.	8D-	.	.	.	.	.	.	.	.	.	.	.	.	.	.	.	.
8Rcc/L	4r	8D-	.	4D-	.	.	4F	.	.	4B-	ah	.	8d-L	くら	.	8d-L	くら	.
16Rgg/L	.	8D-J	.	.	.	.	.	.	.	.	.	.	8c-J	の	.	8c-J	の	.
16Rcc/JJ	.	.	.	.	.	.	.	.	.	.	.	.	.	.	.	.	.	.
16r	8r	8GG-L	.	4BB-	.	.	4E-	.	.	4G-	ah	.	8B-	こ	.	8B-	こ	.
16Rcc/KL	.	.	.	.	.	.	.	.	.	.	.	.	.	.	.	.	.	.
8Rgg/J	8Rf\	8GG-J	.	.	.	.	.	.	.	.	.	.	4.G-	え	.	4.G-	え	.
8Rcc/L	16r	8.G-L	.	16BB-LL	.	.	16D-LL	.	.	16G-LL	da	.	.	.	.	.	.	.
.	8.Rf\	.	.	16B-J	.	.	16D-J	.	.	16G-J	da	.	.	.	.	.	.	.
8Rgg/J	.	.	.	8B-J	.	.	8D-J	.	.	8G-J	da	.	.	.	.	.	.	.
.	.	16GG-Jk	.	.	.	.	.	.	.	.	.	.	.	.	.	.	.	.
=99	=99	=99	=99	=99	=99	=99	=99	=99	=99	=99	=99	=99	=99	=99	=99	=99	=99	=99
8Raa/L	4Rf\	[4E-	.	8E-L	.	.	8G-L	.	.	8B-L	アイ	.	8e-L	アイ	.	8e-L	アイ	.
8Rgg/J	.	.	.	8G-	.	.	8B-	.	.	8d-	ムア	.	8g-	ムア	.	8g-	ムア	.
8Rcc/L	4r	8E-L]	.	8F	.	.	8A-	.	.	8c-	ルー	.	8f	ルー	.	8f	ルー	.
16Rgg/L	.	8E-J	.	8D-J	.	.	8FJ	.	.	8A-J	ザー	.	8d-J	ザー	.	8d-J	ザー	.
16Rcc/JJ	.	.	.	.	.	.	.	.	.	.	.	.	.	.	.	.	.	.
16r	8r	8.C-'L	.	8E-L	.	.	8G-L	.	.	8B-L	ず	.	8e-L	ず	.	8e-L	ず	.
16Rcc/KL	.	.	.	.	.	.	.	.	.	.	.	.	.	.	.	.	.	.
8Rgg/J	8Rf\	.	.	16G-L	.	.	16B-L	.	.	16d-L	っと	.	16g-L	っと	.	16g-L	っと	.
.	.	16C-Jk	.	[16FJJ	.	.	[16A-JJ	.	.	[16c-JJ	まえ	.	[16fJJ	まえ	.	[16fJJ	まえ	.
8Rcc/L	16r	16r	.	16FKL]	.	.	16A-KL]	.	.	16c-KL]	.	.	16fKL]	.	.	16fKL]	.	.
.	8.Rf\	8.C-	.	8D-	.	.	8F	.	.	8A-	か	.	8d-	か	.	8d-	か	.
8Rgg/J	.	.	.	.	.	.	.	.	.	.	.	.	.	.	.	.	.	.
.	.	.	.	16D-Jk	.	.	16FJk	.	.	16A-Jk	ら	.	16d-Jk	ら	.	16d-Jk	ら	.
=100	=100	=100	=100	=100	=100	=100	=100	=100	=100	=100	=100	=100	=100	=100	=100	=100	=100	=100
16r	4Rf\	[4D-	.	8E-L	.	.	8G-L	.	.	8B-L	き	.	8e-L	き	.	8e-L	き	.
16Rcc/KL	.	.	.	.	.	.	.	.	.	.	.	.	.	.	.	.	.	.
8Rgg/J	.	.	.	8G-	.	.	8B-	.	.	8e-	こ	.	8g-	こ	.	8g-	こ	.
8Rcc/L	4r	8D-L]	.	8G-	.	.	8B-	.	.	8e- 8g-	え	.	8g-	え	.	8g-	え	.
16Rgg/L	.	8D-J	.	8A-J	.	.	8c-J	.	.	8fJ 8a-	て	.	8a-J	て	.	8a-J	て	.
16Rcc/JJ	.	.	.	.	.	.	.	.	.	.	.	.	.	.	.	.	.	.
16r	8r	4G-	.	4B-	.	.	4d-	.	.	4g- 4b-	た	.	4b-	た	.	4b-	た	.
16Rcc/KL	.	.	.	.	.	.	.	.	.	.	.	.	.	.	.	.	.	.
8Rgg/J	8Rf\	.	.	.	.	.	.	.	.	.	.	.	.	.	.	.	.	.
8Rcc/L	16r	4GG-	.	4r	.	.	4r	.	.	4r	.	.	8g-L	い	.	8g-L	い	.
.	8.Rf\	.	.	.	.	.	.	.	.	.	.	.	.	.	.	.	.	.
8Rgg/J	.	.	.	.	.	.	.	.	.	.	.	.	8fJ	つ	.	8fJ	つ	.
=101	=101	=101	=101	=101	=101	=101	=101	=101	=101	=101	=101	=101	=101	=101	=101	=101	=101	=101
16r	4Rf\	[4E-	.	2E-	.	.	2G-	.	.	2B-	ha	.	4g-	か	.	4g-	か	.
16Rcc/KL	.	.	.	.	.	.	.	.	.	.	.	.	.	.	.	.	.	.
8Rgg/J	.	.	.	.	.	.	.	.	.	.	.	.	.	.	.	.	.	.
8Rcc/L	4r	8E-L]	.	.	.	.	.	.	.	.	.	.	8r	.	.	8r	.	.
16Rgg/L	.	8E-J	.	.	.	.	.	.	.	.	.	.	8d-	ポ	.	8d-	ポ	.
16Rcc/JJ	.	.	.	.	.	.	.	.	.	.	.	.	.	.	.	.	.	.
16r	8r	8.C-'L	.	2D-	.	.	2F	.	.	2c-	ah	.	8g-L	ケ	.	8g-L	ケ	.
16Rcc/KL	.	.	.	.	.	.	.	.	.	.	.	.	.	.	.	.	.	.
8Rgg/J	8Rf\	.	.	.	.	.	.	.	.	.	.	.	16fL	ット	.	16fL	ット	.
.	.	16C-Jk	.	.	.	.	.	.	.	.	.	.	[16e-JJ	に	.	[16e-JJ	に	.
8Rcc/L	16r	16r	.	.	.	.	.	.	.	.	.	.	16e-KL]	.	.	16e-KL]	.	.
.	8.Rf\	8.C-	.	.	.	.	.	.	.	.	.	.	8d-	.	.	8d-	.	.
8Rgg/J	.	.	.	.	.	.	.	.	.	.	.	.	.	.	.	.	.	.
.	.	.	.	.	.	.	.	.	.	.	.	.	16d-Jk	か	.	16d-Jk	か	.
=102	=102	=102	=102	=102	=102	=102	=102	=102	=102	=102	=102	=102	=102	=102	=102	=102	=102	=102
16r	4Rf\	4D-	.	4D-	.	.	4G-	.	.	4B-	la	.	8e-L	く	.	8e-L	く	.
16Rcc/KL	.	.	.	.	.	.	.	.	.	.	.	.	.	.	.	.	.	.
8Rgg/J	.	.	.	.	.	.	.	.	.	.	.	.	16d-L	し	.	16d-L	し	.
.	.	.	.	.	.	.	.	.	.	.	.	.	[16c-JJ	た	.	[16c-JJ	た	.
8Rcc/L	4r	4D-	.	4D-	.	.	4G-	.	.	4B-	la	.	8c-L]	.	.	8c-L]	.	.
16Rgg/L	.	.	.	.	.	.	.	.	.	.	.	.	8B-J	こ	.	8B-J	こ	.
16Rcc/JJ	.	.	.	.	.	.	.	.	.	.	.	.	.	.	.	.	.	.
16r	8r	8r	.	8r	.	.	8r	.	.	8r	.	.	8A-	え	.	8A-	え	.
16Rcc/KL	.	.	.	.	.	.	.	.	.	.	.	.	.	.	.	.	.	.
8Rgg/J	8Rf\	8GG-	.	8E-	.	.	8G-	.	.	8B-	ta	.	4G-	が	.	4G-	が	.
4Rcc/	4r	4GG-	.	4E-	.	.	4G-	.	.	4B-	ta	.	.	.	.	.	.	.
.	.	.	.	.	.	.	.	.	.	.	.	.	8r	.	.	8r	.	.
=103	=103	=103	=103	=103	=103	=103	=103	=103	=103	=103	=103	=103	=103	=103	=103	=103	=103	=103
8Raa/L	4Rf\	2E-	.	4B-	.	mp	4B-	.	mf	4d-	la	.	1r	.	.	1r	.	.
8Rgg/J	.	.	.	.	.	.	.	.	.	.	.	.	.	.	.	.	.	.
8Rcc/L	4r	.	.	8.A-L	.	.	8.A-L	.	.	8.c-L	pa	.	.	.	.	.	.	.
16Rgg/L	.	.	.	.	.	.	.	.	.	.	.	.	.	.	.	.	.	.
16Rcc/JJ	.	.	.	16G-Jk	.	.	16G-Jk	.	.	16B-Jk	pa	.	.	.	.	.	.	.
16r	8r	8.C-'L	.	8A-L	.	.	8A-L	.	.	8c-L	pa	.	.	.	.	.	.	.
16Rcc/KL	.	.	.	.	.	.	.	.	.	.	.	.	.	.	.	.	.	.
8Rgg/J	8Rf\	.	.	8G-	.	.	8G-	.	.	8B-	pa	.	.	.	.	.	.	.
.	.	16C-Jk	.	.	.	.	.	.	.	.	.	.	.	.	.	.	.	.
8Rcc/L	16r	16r	.	8E-	.	.	8E-	.	.	8G-	pa	.	.	.	.	.	.	.
.	8.Rf\	8.C-	.	.	.	.	.	.	.	.	.	.	.	.	.	.	.	.
8Rgg/J	.	.	.	8G-J	.	.	8G-J	.	.	8B-J	pa	.	.	.	.	.	.	.
=104	=104	=104	=104	=104	=104	=104	=104	=104	=104	=104	=104	=104	=104	=104	=104	=104	=104	=104
16r	4Rf\	2D-	.	1r	.	.	1r	.	.	1r	.	.	8B-L	ここ	.	8B-L	ここ	.
16Rcc/KL	.	.	.	.	.	.	.	.	.	.	.	.	.	.	.	.	.	.
8Rgg/J	.	.	.	.	.	.	.	.	.	.	.	.	16B-L	いら	.	16B-L	いら	.
.	.	.	.	.	.	.	.	.	.	.	.	.	16B-JJ	で	.	16B-JJ	で	.
8Rcc/L	4r	.	.	.	.	.	.	.	.	.	.	.	8B-L	ひと	.	8B-L	ひと	.
16Rgg/L	.	.	.	.	.	.	.	.	.	.	.	.	16A-L	つ	.	16A-L	つ	.
16Rcc/JJ	.	.	.	.	.	.	.	.	.	.	.	.	16B-JJ	お	.	16B-JJ	お	.
16r	8r	8.GG-'L	.	.	.	.	.	.	.	.	.	.	8c-L	ど	.	8c-L	ど	.
16Rcc/KL	.	.	.	.	.	.	.	.	.	.	.	.	.	.	.	.	.	.
8Rgg/J	8Rf\	.	.	.	.	.	.	.	.	.	.	.	16B-L	って	.	16B-L	って	.
.	.	16GG-Jk	.	.	.	.	.	.	.	.	.	.	[16A-JJ	みよう	.	[16A-JJ	みよう	.
8Rcc/L	16r	16r	.	.	.	.	.	.	.	.	.	.	16A-KL]	.	.	16A-KL]	.	.
.	8.Rf\	8.GG-	.	.	.	.	.	.	.	.	.	.	8.G-J	ぜ	.	8.G-J	ぜ	.
8Rgg/J	.	.	.	.	.	.	.	.	.	.	.	.	.	.	.	.	.	.
=105	=105	=105	=105	=105	=105	=105	=105	=105	=105	=105	=105	=105	=105	=105	=105	=105	=105	=105
16r	4Rf\	2E-	.	4B-	.	.	4B-	.	.	4d-	la	.	1r	.	.	1r	.	.
16Rcc/KL	.	.	.	.	.	.	.	.	.	.	.	.	.	.	.	.	.	.
8Rgg/J	.	.	.	.	.	.	.	.	.	.	.	.	.	.	.	.	.	.
8Rcc/L	4r	.	.	8.A-L	.	.	8.A-L	.	.	8.c-L	pa	.	.	.	.	.	.	.
16Rgg/L	.	.	.	.	.	.	.	.	.	.	.	.	.	.	.	.	.	.
16Rcc/JJ	.	.	.	16G-Jk	.	.	16G-Jk	.	.	16B-Jk	pa	.	.	.	.	.	.	.
16r	8r	8.C-'L	.	8A-L	.	.	8A-L	.	.	8c-L	pa	.	.	.	.	.	.	.
16Rcc/KL	.	.	.	.	.	.	.	.	.	.	.	.	.	.	.	.	.	.
8Rgg/J	8Rf\	.	.	8G-	.	.	8G-	.	.	8B-	pa	.	.	.	.	.	.	.
.	.	16C-Jk	.	.	.	.	.	.	.	.	.	.	.	.	.	.	.	.
8Rcc/L	16r	16r	.	8E-	.	.	8E-	.	.	8G-	pa	.	.	.	.	.	.	.
.	8.Rf\	8.C-	.	.	.	.	.	.	.	.	.	.	.	.	.	.	.	.
8Rgg/J	.	.	.	8G-J	.	.	8G-J	.	.	8B-J	pa	.	.	.	.	.	.	.
=106	=106	=106	=106	=106	=106	=106	=106	=106	=106	=106	=106	=106	=106	=106	=106	=106	=106	=106
16r	4Rf\	2D-	.	1r	.	.	1r	.	.	1r	.	.	8G-L	よ	.	8G-L	よ	.
16Rcc/KL	.	.	.	.	.	.	.	.	.	.	.	.	.	.	.	.	.	.
8Rgg/J	.	.	.	.	.	.	.	.	.	.	.	.	16G-L	があ	.	16G-L	があ	.
.	.	.	.	.	.	.	.	.	.	.	.	.	16G-JJ	ける	.	16G-JJ	ける	.
8Rcc/L	4r	.	.	.	.	.	.	.	.	.	.	.	8G-L	まで	.	8G-L	まで	.
16Rgg/L	.	.	.	.	.	.	.	.	.	.	.	.	16E-L	こ	.	16E-L	こ	.
16Rcc/JJ	.	.	.	.	.	.	.	.	.	.	.	.	16FJJ	ろ	.	16FJJ	ろ	.
16r	8r	8.GG-'L	.	.	.	.	.	.	.	.	.	.	8G-L	が	.	8G-L	が	.
16Rcc/KL	.	.	.	.	.	.	.	.	.	.	.	.	.	.	.	.	.	.
8Rgg/J	8Rf\	.	.	.	.	.	.	.	.	.	.	.	16FL	って	.	16FL	って	.
.	.	16GG-Jk	.	.	.	.	.	.	.	.	.	.	[16E-JJ	いこう	.	[16E-JJ	いこう	.
8Rcc/L	16r	16r	.	.	.	.	.	.	.	.	.	.	16E-KL]	.	.	16E-KL]	.	.
.	8.Rf\	8.GG-	.	.	.	.	.	.	.	.	.	.	8.D-J	ぜ	.	8.D-J	ぜ	.
8Rgg/J	.	.	.	.	.	.	.	.	.	.	.	.	.	.	.	.	.	.
=107	=107	=107	=107	=107	=107	=107	=107	=107	=107	=107	=107	=107	=107	=107	=107	=107	=107	=107
16r	4Rf\	2E-	.	4B-	.	.	4B-	.	.	4d-	la	.	2.r	.	.	2.r	.	.
16Rcc/	.	.	.	.	.	.	.	.	.	.	.	.	.	.	.	.	.	.
8r	.	.	.	.	.	.	.	.	.	.	.	.	.	.	.	.	.	.
8Rcc/	4r	.	.	8.A-L	.	.	8.A-L	.	.	8.c-L	pa	.	.	.	.	.	.	.
16r	.	.	.	.	.	.	.	.	.	.	.	.	.	.	.	.	.	.
16Rcc/	.	.	.	16G-Jk	.	.	16G-Jk	.	.	16B-Jk	pa	.	.	.	.	.	.	.
16r	2r	8.C-'L	.	8A-L	.	.	8A-L	.	.	8c-L	pa	.	.	.	.	.	.	.
16Rcc/	.	.	.	.	.	.	.	.	.	.	.	.	.	.	.	.	.	.
8r	.	.	.	8G-	.	.	8G-	.	.	8B-	pa	.	.	.	.	.	.	.
.	.	16C-Jk	.	.	.	.	.	.	.	.	.	.	.	.	.	.	.	.
8Rcc/	.	16r	.	8E-	.	.	8E-	.	.	8G-	pa	.	8.r	.	.	8.r	.	.
.	.	8.C-	.	.	.	.	.	.	.	.	.	.	.	.	.	.	.	.
8r	.	.	.	8G-J	.	.	8G-J	.	.	8B-J	pa	.	.	.	.	.	.	.
.	.	.	.	.	.	.	.	.	.	.	.	.	16D-	き	.	16D-	き	.
=108	=108	=108	=108	=108	=108	=108	=108	=108	=108	=108	=108	=108	=108	=108	=108	=108	=108	=108
16Rff/LL	4Rf\	2D-	.	1r	.	.	1r	.	.	1r	.	.	8B-L	こ	.	8B-L	こ	.
16Rcc/JJ	.	.	.	.	.	.	.	.	.	.	.	.	.	.	.	.	.	.
16r	.	.	.	.	.	.	.	.	.	.	.	.	16B-L	え	.	16B-L	え	.
16Rff/	.	.	.	.	.	.	.	.	.	.	.	.	16B-JJ	てん	.	16B-JJ	てん	.
8Rcc/L	4r	.	.	.	.	.	.	.	.	.	.	.	8B-L	なら	.	8B-L	なら	.
16Rff/L	.	.	.	.	.	.	.	.	.	.	.	.	16A-L	こ	.	16A-L	こ	.
16Rcc/JJ	.	.	.	.	.	.	.	.	.	.	.	.	16B-JJ	え	.	16B-JJ	え	.
16Ree/LL	4r	8.GG-'L	.	.	.	.	.	.	.	.	.	.	8c-L	だ	.	8c-L	だ	.
16Rcc/JJ	.	.	.	.	.	.	.	.	.	.	.	.	.	.	.	.	.	.
16r	.	.	.	.	.	.	.	.	.	.	.	.	16B-L	して	.	16B-L	して	.
16Ree/	.	16GG-Jk	.	.	.	.	.	.	.	.	.	.	[16A-JJ	いこう	.	[16A-JJ	いこう	.
8Rcc/L	8r	16r	.	.	.	.	.	.	.	.	.	.	16A-KL]	.	.	16A-KL]	.	.
.	.	8.GG-	.	.	.	.	.	.	.	.	.	.	[8.G-J	ぜ	.	[8.G-J	ぜ	.
8Rbb/J	8Rf\	.	.	.	.	.	.	.	.	.	.	.	.	.	.	.	.	.
*v	*v	*	*	*	*	*	*	*	*	*	*	*	*	*	*	*	*	*
=109	=109	=109	=109	=109	=109	=109	=109	=109	=109	=109	=109	=109	=109	=109	=109	=109	=109
1r	2E-	.	4d-	.	mf	4B-	.	f	4d-	la	mf	4G-]	.	.	4G-]	.	.
.	.	.	8.c-L	.	.	8.A-L	.	.	8.c-L	pa	.	4e-	.	.	4e-	.	.
.	.	.	16B-Jk	.	.	16G-Jk	.	.	16B-Jk	pa	.	.	.	.	.	.	.
.	8.C-'L	.	8c-L	.	.	8A-L	.	.	8c-L	pa	.	4d-	.	.	4d-	.	.
.	.	.	8B-	.	.	8G-	.	.	8B-	pa	.	.	.	.	.	.	.
.	16C-Jk	.	.	.	.	.	.	.	.	.	.	.	.	.	.	.	.
.	16r	.	8G-	.	.	8E-	.	.	8G-	pa	.	4g-	.	.	4g-	.	.
.	8.C-	.	.	.	.	.	.	.	.	.	.	.	.	.	.	.	.
.	.	.	8B-J	.	.	8G-J	.	.	8B-J	pa	.	.	.	.	.	.	.
=110	=110	=110	=110	=110	=110	=110	=110	=110	=110	=110	=110	=110	=110	=110	=110	=110	=110
1r	8D-L	.	4E-	.	.	4G-	.	.	4c-	la	.	4e-	.	.	4e-	.	.
.	8D-	.	.	.	.	.	.	.	.	.	.	.	.	.	.	.	.
.	8D-	.	4E-	.	.	4G-	.	.	4c-	la	.	4a-	.	.	4a-	.	.
.	8D-J	.	.	.	.	.	.	.	.	.	.	.	.	.	.	.	.
.	8GG-L	.	8E-L	.	.	8G-L	.	.	8B-L	ta	.	2g-	.	.	2g-	.	.
.	8GG-J	.	8E-J	.	.	8G-J	.	.	8B-J	ta	.	.	.	.	.	.	.
.	4r	.	4r	.	.	4r	.	.	4r	.	.	.	.	.	.	.	.
=111	=111	=111	=111	=111	=111	=111	=111	=111	=111	=111	=111	=111	=111	=111	=111	=111	=111
*	*k[f#c#]	*	*k[f#]	*	*	*k[]	*	*	*k[f#c#]	*	*	*k[f#c#]	*	*	*k[f#c#]	*	*
*^	*	*	*	*	*	*	*	*	*	*	*	*	*	*	*	*	*
8Raa/L	4Rf\	4FF#	f	8F#L	.	f	8D-X'L	.	mf	1r	.	.	1r	.	.	1r	.	.
8Rgg/J	.	.	.	8c#X	.	.	8G-X'	.	.	.	.	.	.	.	.	.	.	.
8Rcc/L	4r	4r	.	8F#	.	.	8D-'	.	.	.	.	.	.	.	.	.	.	.
16Rgg/L	.	.	.	8c#J	.	.	8G-'J	.	.	.	.	.	.	.	.	.	.	.
16Rcc/JJ	.	.	.	.	.	.	.	.	.	.	.	.	.	.	.	.	.	.
16r	8r	8r	.	16BLL	.	.	16G-LL	.	.	.	.	.	.	.	.	.	.	.
16Rcc/KL	.	.	.	16AJ	.	.	16EJ	.	.	.	.	.	.	.	.	.	.	.
8Rgg/J	8Rf\	8FF#	.	8F#J	.	.	8D-J	.	.	.	.	.	.	.	.	.	.	.
8Rcc/L	16r	16r	.	8AL	.	.	8EL	.	.	.	.	.	.	.	.	.	.	.
.	8.Rf\	8.FF#	.	.	.	.	.	.	.	.	.	.	.	.	.	.	.	.
8Rgg/J	.	.	.	8BJ	.	.	8F#XJ	.	.	.	.	.	.	.	.	.	.	.
=112	=112	=112	=112	=112	=112	=112	=112	=112	=112	=112	=112	=112	=112	=112	=112	=112	=112	=112
16r	4Rf\	4AA	.	8F#L	.	.	8D-X'L	.	.	1r	.	.	1r	.	.	1r	.	.
16Rcc/KL	.	.	.	.	.	.	.	.	.	.	.	.	.	.	.	.	.	.
8Rgg/J	.	.	.	8c#X	.	.	8G-X'	.	.	.	.	.	.	.	.	.	.	.
8Rcc/L	4r	4r	.	8F#	.	.	8D-'	.	.	.	.	.	.	.	.	.	.	.
16Rgg/L	.	.	.	8c#J	.	.	8G-'J	.	.	.	.	.	.	.	.	.	.	.
16Rcc/JJ	.	.	.	.	.	.	.	.	.	.	.	.	.	.	.	.	.	.
16r	8r	8r	.	16BLL	.	.	16G-LL	.	.	.	.	.	.	.	.	.	.	.
16Rcc/KL	.	.	.	16AJ	.	.	16EJ	.	.	.	.	.	.	.	.	.	.	.
8Rgg/J	8Rf\	8AA	.	8F#J	.	.	8D-J	.	.	.	.	.	.	.	.	.	.	.
8Rcc/L	16r	16r	.	8AL	.	.	8EL	.	.	.	.	.	.	.	.	.	.	.
.	8.Rf\	8.AA	.	.	.	.	.	.	.	.	.	.	.	.	.	.	.	.
8Rgg/J	.	.	.	8BJ	.	.	8F#XJ	.	.	.	.	.	.	.	.	.	.	.
=113	=113	=113	=113	=113	=113	=113	=113	=113	=113	=113	=113	=113	=113	=113	=113	=113	=113	=113
16r	4Rf\	4BB	.	8F#L	.	.	8D-X'L	.	.	1r	.	.	1r	.	.	1r	.	.
16Rcc/KL	.	.	.	.	.	.	.	.	.	.	.	.	.	.	.	.	.	.
8Rgg/J	.	.	.	8c#X	.	.	8G-X'	.	.	.	.	.	.	.	.	.	.	.
8Rcc/L	4r	4r	.	8F#	.	.	8D-'	.	.	.	.	.	.	.	.	.	.	.
16Rgg/L	.	.	.	8c#J	.	.	8G-'J	.	.	.	.	.	.	.	.	.	.	.
16Rcc/JJ	.	.	.	.	.	.	.	.	.	.	.	.	.	.	.	.	.	.
16r	8r	8r	.	16BLL	.	.	16G-LL	.	.	.	.	.	.	.	.	.	.	.
16Rcc/KL	.	.	.	16AJ	.	.	16EJ	.	.	.	.	.	.	.	.	.	.	.
8Rgg/J	8Rf\	8BB	.	8F#J	.	.	8D-J	.	.	.	.	.	.	.	.	.	.	.
8Rcc/L	16r	16r	.	8AL	.	.	8EL	.	.	.	.	.	.	.	.	.	.	.
.	8.Rf\	8.BB	.	.	.	.	.	.	.	.	.	.	.	.	.	.	.	.
8Rgg/J	.	.	.	8BJ	.	.	8F#XJ	.	.	.	.	.	.	.	.	.	.	.
=114	=114	=114	=114	=114	=114	=114	=114	=114	=114	=114	=114	=114	=114	=114	=114	=114	=114	=114
16r	4Rf\	4C#	.	8c#XL	.	.	8A-XL	.	.	1r	.	.	1r	.	.	1r	.	.
16Rcc/KL	.	.	.	.	.	.	.	.	.	.	.	.	.	.	.	.	.	.
8Rgg/J	.	.	.	8f	.	.	8c#X	.	.	.	.	.	.	.	.	.	.	.
8Rcc/L	4r	4r	.	8c#	.	.	8A-	.	.	.	.	.	.	.	.	.	.	.
16Rgg/L	.	.	.	8fJ	.	.	8c#J	.	.	.	.	.	.	.	.	.	.	.
16Rcc/JJ	.	.	.	.	.	.	.	.	.	.	.	.	.	.	.	.	.	.
16r	8r	8r	.	8c#L	.	.	8A-L	.	.	.	.	.	.	.	.	.	.	.
16Rcc/KL	.	.	.	.	.	.	.	.	.	.	.	.	.	.	.	.	.	.
8Rgg/J	8Rf\	8C#	.	8f	.	.	8c#	.	.	.	.	.	.	.	.	.	.	.
8Rcc/L	16r	16r	.	8c#	.	.	8A-	.	.	.	.	.	.	.	.	.	.	.
.	8.Rf\	8.C#	.	.	.	.	.	.	.	.	.	.	.	.	.	.	.	.
8Rgg/J	.	.	.	8fJ	.	.	8c#J	.	.	.	.	.	.	.	.	.	.	.
=115	=115	=115	=115	=115	=115	=115	=115	=115	=115	=115	=115	=115	=115	=115	=115	=115	=115	=115
8Raa/L	4Rf\	4FF#	f	8F#L	.	f	8D-X'L	.	mf	8F#L	da	.	1r	.	.	1r	.	.
8Rgg/J	.	.	.	8c#X	.	.	8G-X'	.	.	8c#	da	.	.	.	.	.	.	.
8Rcc/L	4r	4r	.	8F#	.	.	8D-'	.	.	8F#	da	.	.	.	.	.	.	.
16Rgg/L	.	.	.	8c#J	.	.	8G-'J	.	.	8c#J	da	.	.	.	.	.	.	.
16Rcc/JJ	.	.	.	.	.	.	.	.	.	.	.	.	.	.	.	.	.	.
16r	8r	8r	.	16BLL	.	.	16G-LL	.	.	16BLL	da	.	.	.	.	.	.	.
16Rcc/KL	.	.	.	16AJ	.	.	16EJ	.	.	16AJ	la	.	.	.	.	.	.	.
8Rgg/J	8Rf\	8FF#	.	8F#J	.	.	8D-J	.	.	8F#J	la	.	.	.	.	.	.	.
8Rcc/L	16r	16r	.	8AL	.	.	8EL	.	.	8AL	da	.	.	.	.	.	.	.
.	8.Rf\	8.FF#	.	.	.	.	.	.	.	.	.	.	.	.	.	.	.	.
8Rgg/J	.	.	.	8BJ	.	.	8F#XJ	.	.	8BJ	da	.	.	.	.	.	.	.
=116	=116	=116	=116	=116	=116	=116	=116	=116	=116	=116	=116	=116	=116	=116	=116	=116	=116	=116
16r	4Rf\	4AA	.	8F#L	.	.	8D-X'L	.	.	8F#L	da	.	1r	.	.	1r	.	.
16Rcc/KL	.	.	.	.	.	.	.	.	.	.	.	.	.	.	.	.	.	.
8Rgg/J	.	.	.	8c#X	.	.	8G-X'	.	.	8c#	da	.	.	.	.	.	.	.
8Rcc/L	4r	4r	.	8F#	.	.	8D-'	.	.	8F#	da	.	.	.	.	.	.	.
16Rgg/L	.	.	.	8c#J	.	.	8G-'J	.	.	8c#J	da	.	.	.	.	.	.	.
16Rcc/JJ	.	.	.	.	.	.	.	.	.	.	.	.	.	.	.	.	.	.
16r	8r	8r	.	16BLL	.	.	16G-LL	.	.	16BLL	da	.	.	.	.	.	.	.
16Rcc/KL	.	.	.	16AJ	.	.	16EJ	.	.	16AJ	la	.	.	.	.	.	.	.
8Rgg/J	8Rf\	8AA	.	8F#J	.	.	8D-J	.	.	8F#J	la	.	.	.	.	.	.	.
8Rcc/L	16r	16r	.	8AL	.	.	8EL	.	.	8AL	da	.	.	.	.	.	.	.
.	8.Rf\	8.AA	.	.	.	.	.	.	.	.	.	.	.	.	.	.	.	.
8Rgg/J	.	.	.	8BJ	.	.	8F#XJ	.	.	8BJ	da	.	.	.	.	.	.	.
=117	=117	=117	=117	=117	=117	=117	=117	=117	=117	=117	=117	=117	=117	=117	=117	=117	=117	=117
16r	4Rf\	4BB	.	8F#L	.	.	8D-X'L	.	.	8F#L	da	.	1r	.	.	1r	.	.
16Rcc/KL	.	.	.	.	.	.	.	.	.	.	.	.	.	.	.	.	.	.
8Rgg/J	.	.	.	8c#X	.	.	8G-X'	.	.	8c#	da	.	.	.	.	.	.	.
8Rcc/L	4r	4r	.	8F#	.	.	8D-'	.	.	8F#	da	.	.	.	.	.	.	.
16Rgg/L	.	.	.	8c#J	.	.	8G-'J	.	.	8c#J	da	.	.	.	.	.	.	.
16Rcc/JJ	.	.	.	.	.	.	.	.	.	.	.	.	.	.	.	.	.	.
16r	8r	8r	.	16BLL	.	.	16G-LL	.	.	16BLL	da	.	.	.	.	.	.	.
16Rcc/KL	.	.	.	16AJ	.	.	16EJ	.	.	16AJ	la	.	.	.	.	.	.	.
8Rgg/J	8Rf\	8BB	.	8F#J	.	.	8D-J	.	.	8F#J	la	.	.	.	.	.	.	.
8Rcc/L	16r	16r	.	8AL	.	.	8EL	.	.	8AL	da	.	.	.	.	.	.	.
.	8.Rf\	8.BB	.	.	.	.	.	.	.	.	.	.	.	.	.	.	.	.
8Rgg/J	.	.	.	8BJ	.	.	8F#XJ	.	.	8BJ	da	.	.	.	.	.	.	.
=118	=118	=118	=118	=118	=118	=118	=118	=118	=118	=118	=118	=118	=118	=118	=118	=118	=118	=118
16r	4Rf\	4C#	.	8c#XL	.	.	8A-XL	.	.	8c#L	da	.	1r	.	.	1r	.	.
16Rcc/KL	.	.	.	.	.	.	.	.	.	.	.	.	.	.	.	.	.	.
8Rgg/J	.	.	.	8f	.	.	8c#X	.	.	8fn	da	.	.	.	.	.	.	.
8Rcc/L	4r	4r	.	8c#	.	.	8A-	.	.	8c#	da	.	.	.	.	.	.	.
16Rgg/L	.	.	.	8fJ	.	.	8c#J	.	.	8fJ	da	.	.	.	.	.	.	.
16Rcc/JJ	.	.	.	.	.	.	.	.	.	.	.	.	.	.	.	.	.	.
16r	8r	8r	.	8c#L	.	.	8A-L	.	.	8c#L	da	.	.	.	.	.	.	.
16Rcc/KL	.	.	.	.	.	.	.	.	.	.	.	.	.	.	.	.	.	.
8Rgg/J	8Rf\	8C#	.	8f	.	.	8c#	.	.	8f	da	.	.	.	.	.	.	.
8Rcc/L	16r	16r	.	8c#	.	.	8A-	.	.	8c#	da	.	.	.	.	.	.	.
.	8.Rf\	8.C#	.	.	.	.	.	.	.	.	.	.	.	.	.	.	.	.
8Rgg/J	.	.	.	8fJ	.	.	8c#J	.	.	8fJ	da	.	.	.	.	.	.	.
=119	=119	=119	=119	=119	=119	=119	=119	=119	=119	=119	=119	=119	=119	=119	=119	=119	=119	=119
16r	4Rf\	8FF#L	.	8D-X'L	.	.	1r	.	.	1r	.	.	1r	.	.	1r	.	.
16Rcc/	.	.	.	.	.	.	.	.	.	.	.	.	.	.	.	.	.	.
8r	.	8C#	.	8G-X'	.	.	.	.	.	.	.	.	.	.	.	.	.	.
8Rcc/	4r	8FF#	.	8D-'	.	.	.	.	.	.	.	.	.	.	.	.	.	.
16r	.	8C#J	.	8G-'J	.	.	.	.	.	.	.	.	.	.	.	.	.	.
16Rcc/	.	.	.	.	.	.	.	.	.	.	.	.	.	.	.	.	.	.
16r	2r	16BBLL	.	16G-LL	.	.	.	.	.	.	.	.	.	.	.	.	.	.
16Rcc/	.	16AAJ	.	16EJ	.	.	.	.	.	.	.	.	.	.	.	.	.	.
8r	.	8FF#J	.	8D-J	.	.	.	.	.	.	.	.	.	.	.	.	.	.
8Rcc/	.	8AAL	.	8EL	.	.	.	.	.	.	.	.	.	.	.	.	.	.
8r	.	8BBJ	.	8F#J	.	.	.	.	.	.	.	.	.	.	.	.	.	.
*v	*v	*	*	*	*	*	*	*	*	*	*	*	*	*	*	*	*	*
=120	=120	=120	=120	=120	=120	=120	=120	=120	=120	=120	=120	=120	=120	=120	=120	=120	=120
16Rff/LL	8FF#L	.	8D-X'L	.	.	8F#XL	.	.	8c#L	.	.	8c#L	.	.	1r	.	.
16Rcc/JJ	.	.	.	.	.	.	.	.	.	.	.	.	.	.	.	.	.
16r	8C#	.	8G-X'	.	.	8c#X	.	.	8f#	.	.	8f#	.	.	.	.	.
16Rff/	.	.	.	.	.	.	.	.	.	.	.	.	.	.	.	.	.
8Rcc/L	8FF#	.	8D-'	.	.	8F#	.	.	8c#	.	.	8c#	.	.	.	.	.
16Rff/L	8C#J	.	8G-'J	.	.	8c#J	.	.	8f#J	.	.	8f#J	.	.	.	.	.
16Rcc/JJ	.	.	.	.	.	.	.	.	.	.	.	.	.	.	.	.	.
16Ree/LL	16BBLL	.	16G-LL	.	.	16BLL	.	.	16f#LL	.	.	16f#LL	.	.	.	.	.
16Rcc/JJ	16AAJ	.	16EJ	.	.	16AJ	.	.	16eJ	.	.	16eJ	.	.	.	.	.
16r	8FF#J	.	8D-J	.	.	8F#J	.	.	8c#J	.	.	8c#J	.	.	.	.	.
16Ree/	.	.	.	.	.	.	.	.	.	.	.	.	.	.	.	.	.
8Rcc/L	8AAL	.	8EL	.	.	8AL	.	.	8eL	.	.	8eL	.	.	.	.	.
16Ree/Jk	8BBJ	.	8F#J	.	.	8BJ	.	.	8f#J	.	.	8f#J	.	.	.	.	.
16r	.	.	.	.	.	.	.	.	.	.	.	.	.	.	.	.	.
==	==	==	==	==	==	==	==	==	==	==	==	==	==	==	==	==	==
*-	*-	*-	*-	*-	*-	*-	*-	*-	*-	*-	*-	*-	*-	*-	*-	*-	*-
